;FLAVOR:Marlin
;TIME:149
;Filament used: 0.0515336m
;Layer height: 0.2
;MINX:109.252
;MINY:109.252
;MINZ:0.2
;MAXX:125.748
;MAXY:125.748
;MAXZ:3.4
;Generated with Cura_SteamEngine 4.6.2
M140 S70
M105
M190 S70
M104 S210
M105
M109 S210
M82 ;absolute extrusion mode
; Ender 3 Custom Start G-code
G92 E0 ; Reset Extruder
G28 ; Home all axes
G1 Z2.0 F3000 ; Move Z Axis up little to prevent scratching of Heat Bed
G1 X0.1 Y20 Z0.3 F5000.0 ; Move to start position
G1 X0.1 Y200.0 Z0.3 F1500.0 E15 ; Draw the first line
G1 X0.4 Y200.0 Z0.3 F5000.0 ; Move to side a little
G1 X0.4 Y20 Z0.3 F1500.0 E30 ; Draw the second line
G92 E0 ; Reset Extruder
G1 Z2.0 F3000 ; Move Z Axis up little to prevent scratching of Heat Bed
G1 X5 Y20 Z0.3 F5000.0 ; Move over to prevent blob squish
G92 E0
G92 E0
G1 F2700 E-5
;LAYER_COUNT:17
;LAYER:0
M107
G0 F6000 X111.699 Y111.635 Z0.2
;TYPE:SKIRT
G1 F2700 E0
G1 F1200 X111.949 Y111.398 E0.01146
G1 X112.12 Y111.247 E0.01905
G1 X112.496 Y110.947 E0.03504
G1 X112.823 Y110.71 E0.04848
G1 X113.199 Y110.462 E0.06346
G1 X113.372 Y110.359 E0.07015
G1 X113.795 Y110.134 E0.08609
G1 X114.172 Y109.956 E0.09996
G1 X114.774 Y109.718 E0.12149
G1 X115.159 Y109.594 E0.13494
G1 X115.756 Y109.441 E0.15544
G1 X116.16 Y109.364 E0.16912
G1 X116.772 Y109.286 E0.18964
G1 X117.173 Y109.26 E0.203
G1 X117.643 Y109.252 E0.21864
G1 X117.848 Y109.258 E0.22546
G1 X118.343 Y109.297 E0.24197
G1 X118.753 Y109.35 E0.25572
G1 X119.357 Y109.466 E0.27618
G1 X119.746 Y109.566 E0.28954
G1 X120.337 Y109.758 E0.31021
G1 X120.722 Y109.91 E0.32397
G1 X121.299 Y110.182 E0.34519
G1 X121.651 Y110.376 E0.35856
G1 X122.028 Y110.606 E0.37325
G1 X122.202 Y110.723 E0.38022
G1 X122.589 Y111.011 E0.39626
G1 X122.905 Y111.271 E0.40987
G1 X123.388 Y111.725 E0.43192
G1 X123.657 Y112.014 E0.44505
G1 X123.944 Y112.351 E0.45978
G1 X124.07 Y112.513 E0.4666
G1 X124.253 Y112.765 E0.47696
G1 X124.369 Y112.935 E0.48381
G1 X124.609 Y113.323 E0.49898
G1 X124.807 Y113.679 E0.51253
G1 X125.082 Y114.258 E0.53385
G1 X125.233 Y114.637 E0.54742
G1 X125.424 Y115.219 E0.56779
G1 X125.524 Y115.6 E0.58089
G1 X125.63 Y116.107 E0.59812
G1 X125.663 Y116.321 E0.60532
G1 X125.709 Y116.732 E0.61908
G1 X125.737 Y117.13 E0.63235
G1 X125.748 Y117.576 E0.64718
G1 X125.744 Y117.786 E0.65417
G1 X125.707 Y118.308 E0.67158
G1 X125.656 Y118.718 E0.68532
G1 X125.545 Y119.311 E0.70538
G1 X125.45 Y119.692 E0.71844
G1 X125.305 Y120.171 E0.73509
G1 X125.235 Y120.366 E0.74198
G1 X125.132 Y120.63 E0.75141
G1 X125.048 Y120.828 E0.75856
G1 X124.828 Y121.28 E0.77528
G1 X124.631 Y121.639 E0.7889
G1 X124.312 Y122.146 E0.80882
G1 X124.082 Y122.467 E0.82196
G1 X123.79 Y122.837 E0.83763
G1 X123.656 Y122.991 E0.84442
G1 X123.444 Y123.22 E0.8548
G1 X123.301 Y123.365 E0.86158
G1 X123.051 Y123.602 E0.87303
G1 X122.88 Y123.753 E0.88062
G1 X122.504 Y124.053 E0.89662
G1 X122.177 Y124.29 E0.91005
G1 X121.819 Y124.527 E0.92433
G1 X121.646 Y124.631 E0.93105
G1 X121.2 Y124.87 E0.94787
G1 X120.824 Y125.047 E0.9617
G1 X120.223 Y125.283 E0.98317
G1 X119.837 Y125.407 E0.99666
G1 X119.244 Y125.559 E1.01702
G1 X118.84 Y125.636 E1.0307
G1 X118.228 Y125.714 E1.05122
G1 X117.827 Y125.74 E1.06458
G1 X117.357 Y125.748 E1.08022
G1 X117.152 Y125.742 E1.08704
G1 X116.657 Y125.703 E1.10355
G1 X116.247 Y125.65 E1.1173
G1 X115.643 Y125.534 E1.13776
G1 X115.254 Y125.434 E1.15112
G1 X114.663 Y125.242 E1.17179
G1 X114.278 Y125.09 E1.18555
G1 X113.701 Y124.818 E1.20677
G1 X113.349 Y124.624 E1.22014
G1 X112.967 Y124.391 E1.23502
G1 X112.792 Y124.273 E1.24204
G1 X112.41 Y123.988 E1.25789
G1 X112.094 Y123.728 E1.2715
G1 X111.611 Y123.274 E1.29355
G1 X111.342 Y122.985 E1.30668
G1 X111.055 Y122.648 E1.3214
G1 X110.929 Y122.486 E1.32823
G1 X110.742 Y122.229 E1.3388
G1 X110.627 Y122.06 E1.3456
G1 X110.389 Y121.673 E1.36071
G1 X110.192 Y121.318 E1.37421
G1 X109.92 Y120.745 E1.39531
G1 X109.768 Y120.364 E1.40895
G1 X109.611 Y119.907 E1.42503
G1 X109.554 Y119.711 E1.43181
G1 X109.443 Y119.251 E1.44755
G1 X109.367 Y118.852 E1.46106
G1 X109.291 Y118.269 E1.48062
G1 X109.263 Y117.873 E1.49382
G1 X109.252 Y117.427 E1.50866
G1 X109.256 Y117.211 E1.51585
G1 X109.294 Y116.679 E1.53359
G1 X109.345 Y116.274 E1.54716
G1 X109.455 Y115.689 E1.56696
G1 X109.55 Y115.308 E1.58002
G1 X109.695 Y114.829 E1.59667
G1 X109.765 Y114.634 E1.60356
G1 X109.865 Y114.379 E1.61267
G1 X109.949 Y114.18 E1.61985
G1 X110.169 Y113.723 E1.63672
G1 X110.365 Y113.365 E1.6503
G1 X110.61 Y112.964 E1.66593
G1 X110.725 Y112.794 E1.67275
G1 X110.999 Y112.426 E1.68801
G1 X111.249 Y112.121 E1.70113
G1 X111.556 Y111.78 E1.71639
G1 X111.699 Y111.635 E1.72316
G0 F6000 X111.984 Y111.916
G1 F1200 X112.214 Y111.698 E1.7337
G1 X112.385 Y111.547 E1.74129
G1 X112.731 Y111.27 E1.75603
G1 X113.058 Y111.033 E1.76946
G1 X113.404 Y110.805 E1.78325
G1 X113.577 Y110.702 E1.78994
G1 X113.966 Y110.495 E1.8046
G1 X114.343 Y110.317 E1.81846
G1 X114.897 Y110.098 E1.83828
G1 X115.282 Y109.974 E1.85173
G1 X115.831 Y109.834 E1.87058
G1 X116.235 Y109.757 E1.88425
G1 X116.798 Y109.686 E1.90313
G1 X117.199 Y109.66 E1.91649
G1 X117.632 Y109.652 E1.9309
G1 X117.837 Y109.658 E1.93772
G1 X118.292 Y109.694 E1.9529
G1 X118.702 Y109.747 E1.96665
G1 X119.257 Y109.854 E1.98545
G1 X119.646 Y109.954 E1.99881
G1 X120.19 Y110.13 E2.01782
G1 X120.575 Y110.282 E2.03159
G1 X121.106 Y110.532 E2.05111
G1 X121.458 Y110.726 E2.06448
G1 X121.805 Y110.938 E2.07801
G1 X121.979 Y111.055 E2.08498
G1 X122.335 Y111.32 E2.09974
G1 X122.651 Y111.58 E2.11335
G1 X123.095 Y111.998 E2.13363
G1 X123.364 Y112.287 E2.14676
G1 X123.628 Y112.597 E2.16031
G1 X123.754 Y112.759 E2.16713
G1 X123.923 Y112.99 E2.17665
G1 X124.039 Y113.16 E2.1835
G1 X124.259 Y113.517 E2.19745
G1 X124.457 Y113.873 E2.21099
G1 X124.71 Y114.406 E2.23062
G1 X124.861 Y114.785 E2.24419
G1 X125.037 Y115.32 E2.26292
G1 X125.137 Y115.701 E2.27602
G1 X125.234 Y116.168 E2.29188
G1 X125.267 Y116.382 E2.29909
G1 X125.31 Y116.76 E2.31174
G1 X125.338 Y117.158 E2.32501
G1 X125.348 Y117.569 E2.33868
G1 X125.344 Y117.779 E2.34567
G1 X125.31 Y118.259 E2.36167
G1 X125.259 Y118.669 E2.37542
G1 X125.157 Y119.214 E2.39386
G1 X125.062 Y119.595 E2.40692
G1 X124.928 Y120.036 E2.42225
G1 X124.858 Y120.231 E2.42914
G1 X124.764 Y120.474 E2.4378
G1 X124.68 Y120.672 E2.44496
G1 X124.478 Y121.088 E2.46034
G1 X124.281 Y121.447 E2.47396
G1 X123.987 Y121.913 E2.49229
G1 X123.757 Y122.234 E2.50542
G1 X123.488 Y122.575 E2.51987
G1 X123.354 Y122.729 E2.52666
G1 X123.159 Y122.939 E2.53619
G1 X123.016 Y123.084 E2.54296
G1 X122.786 Y123.302 E2.5535
G1 X122.615 Y123.453 E2.56109
G1 X122.269 Y123.73 E2.57583
G1 X121.942 Y123.967 E2.58926
G1 X121.613 Y124.184 E2.60237
G1 X121.44 Y124.288 E2.60908
G1 X121.029 Y124.508 E2.62459
G1 X120.653 Y124.685 E2.63841
G1 X120.101 Y124.903 E2.65815
G1 X119.715 Y125.027 E2.67164
G1 X119.169 Y125.166 E2.69037
G1 X118.765 Y125.243 E2.70405
G1 X118.202 Y125.314 E2.72293
G1 X117.801 Y125.34 E2.73629
G1 X117.368 Y125.348 E2.7507
G1 X117.163 Y125.342 E2.75752
G1 X116.708 Y125.306 E2.7727
G1 X116.298 Y125.253 E2.78645
G1 X115.743 Y125.146 E2.80525
G1 X115.354 Y125.046 E2.81861
G1 X114.81 Y124.87 E2.83762
G1 X114.425 Y124.718 E2.85139
G1 X113.894 Y124.468 E2.87091
G1 X113.542 Y124.274 E2.88428
G1 X113.19 Y124.059 E2.898
G1 X113.015 Y123.941 E2.90502
G1 X112.664 Y123.679 E2.91959
G1 X112.348 Y123.419 E2.9332
G1 X111.904 Y123.001 E2.95348
G1 X111.635 Y122.712 E2.96661
G1 X111.371 Y122.402 E2.98015
G1 X111.245 Y122.24 E2.98698
G1 X111.073 Y122.004 E2.99669
G1 X110.958 Y121.835 E3.00349
G1 X110.739 Y121.479 E3.01739
G1 X110.542 Y121.124 E3.0309
G1 X110.291 Y120.597 E3.05031
G1 X110.139 Y120.216 E3.06395
G1 X109.995 Y119.796 E3.07872
G1 X109.938 Y119.6 E3.08551
G1 X109.836 Y119.176 E3.10002
G1 X109.76 Y118.777 E3.11352
G1 X109.69 Y118.24 E3.13154
G1 X109.662 Y117.844 E3.14474
G1 X109.652 Y117.435 E3.15835
G1 X109.656 Y117.219 E3.16553
G1 X109.691 Y116.729 E3.18187
G1 X109.742 Y116.324 E3.19545
G1 X109.843 Y115.786 E3.21366
G1 X109.938 Y115.405 E3.22672
G1 X110.072 Y114.964 E3.24205
G1 X110.142 Y114.769 E3.24894
G1 X110.233 Y114.534 E3.25732
G1 X110.317 Y114.335 E3.2645
G1 X110.52 Y113.915 E3.28002
G1 X110.716 Y113.557 E3.29359
G1 X110.941 Y113.189 E3.30794
G1 X111.056 Y113.019 E3.31477
G1 X111.308 Y112.68 E3.32881
G1 X111.558 Y112.375 E3.34193
G1 X111.841 Y112.061 E3.35599
G1 X111.984 Y111.916 E3.36276
G0 F6000 X112.269 Y112.197
G1 F1200 X112.479 Y111.998 E3.37239
G1 X112.65 Y111.847 E3.37997
G1 X112.965 Y111.594 E3.39341
G1 X113.292 Y111.357 E3.40684
G1 X113.608 Y111.149 E3.41943
G1 X113.781 Y111.046 E3.42612
G1 X114.137 Y110.857 E3.43953
G1 X114.514 Y110.679 E3.4534
G1 X115.019 Y110.479 E3.47146
G1 X115.404 Y110.355 E3.48491
G1 X115.906 Y110.227 E3.50215
G1 X116.31 Y110.15 E3.51582
G1 X116.824 Y110.085 E3.53306
G1 X117.225 Y110.059 E3.54642
G1 X117.62 Y110.052 E3.55956
G1 X117.825 Y110.058 E3.56638
G1 X118.24 Y110.091 E3.58023
G1 X118.65 Y110.144 E3.59398
G1 X119.158 Y110.241 E3.61118
G1 X119.547 Y110.341 E3.62454
G1 X120.043 Y110.502 E3.64188
G1 X120.428 Y110.654 E3.65565
G1 X120.913 Y110.883 E3.67349
G1 X121.265 Y111.077 E3.68686
G1 X121.582 Y111.27 E3.6992
G1 X121.756 Y111.387 E3.70618
G1 X122.081 Y111.629 E3.71965
G1 X122.397 Y111.889 E3.73326
G1 X122.802 Y112.27 E3.75176
G1 X123.071 Y112.559 E3.76489
G1 X123.312 Y112.842 E3.77725
G1 X123.438 Y113.004 E3.78408
G1 X123.592 Y113.216 E3.79279
G1 X123.708 Y113.386 E3.79964
G1 X123.909 Y113.712 E3.81238
G1 X124.107 Y114.068 E3.82593
G1 X124.339 Y114.554 E3.84384
G1 X124.49 Y114.933 E3.85741
G1 X124.65 Y115.422 E3.87452
G1 X124.75 Y115.803 E3.88762
G1 X124.839 Y116.229 E3.9021
G1 X124.872 Y116.443 E3.9093
G1 X124.911 Y116.788 E3.92084
G1 X124.939 Y117.186 E3.93412
G1 X124.948 Y117.561 E3.94659
G1 X124.944 Y117.771 E3.95358
G1 X124.913 Y118.209 E3.96818
G1 X124.862 Y118.619 E3.98192
G1 X124.769 Y119.117 E3.99877
G1 X124.674 Y119.498 E4.01183
G1 X124.552 Y119.901 E4.02584
G1 X124.482 Y120.096 E4.03273
G1 X124.395 Y120.317 E4.04063
G1 X124.311 Y120.515 E4.04778
G1 X124.127 Y120.896 E4.06185
G1 X123.93 Y121.255 E4.07547
G1 X123.662 Y121.68 E4.09219
G1 X123.432 Y122.001 E4.10532
G1 X123.186 Y122.312 E4.11851
G1 X123.052 Y122.466 E4.1253
G1 X122.874 Y122.658 E4.13401
G1 X122.731 Y122.803 E4.14078
G1 X122.521 Y123.002 E4.1504
G1 X122.35 Y123.153 E4.15799
G1 X122.035 Y123.406 E4.17143
G1 X121.708 Y123.643 E4.18486
G1 X121.407 Y123.842 E4.19686
G1 X121.234 Y123.946 E4.20358
G1 X120.859 Y124.146 E4.21771
G1 X120.483 Y124.323 E4.23153
G1 X119.979 Y124.522 E4.24956
G1 X119.593 Y124.646 E4.26304
G1 X119.094 Y124.773 E4.28017
G1 X118.69 Y124.85 E4.29384
G1 X118.176 Y124.915 E4.31108
G1 X117.775 Y124.941 E4.32444
G1 X117.38 Y124.948 E4.33758
G1 X117.175 Y124.942 E4.3444
G1 X116.76 Y124.909 E4.35825
G1 X116.35 Y124.856 E4.372
G1 X115.842 Y124.759 E4.3892
G1 X115.453 Y124.659 E4.40256
G1 X114.957 Y124.498 E4.4199
G1 X114.572 Y124.346 E4.43367
G1 X114.087 Y124.117 E4.45151
G1 X113.735 Y123.923 E4.46488
G1 X113.414 Y123.727 E4.47739
G1 X113.239 Y123.609 E4.48441
G1 X112.918 Y123.37 E4.49772
G1 X112.602 Y123.11 E4.51133
G1 X112.197 Y122.729 E4.52982
G1 X111.928 Y122.44 E4.54295
G1 X111.687 Y122.157 E4.55532
G1 X111.561 Y121.995 E4.56214
G1 X111.404 Y121.779 E4.57103
G1 X111.289 Y121.61 E4.57782
G1 X111.089 Y121.285 E4.59052
G1 X110.892 Y120.93 E4.60402
G1 X110.663 Y120.448 E4.62177
G1 X110.511 Y120.067 E4.63541
G1 X110.379 Y119.684 E4.64889
G1 X110.322 Y119.488 E4.65568
G1 X110.229 Y119.101 E4.66891
G1 X110.153 Y118.702 E4.68242
G1 X110.089 Y118.212 E4.69886
G1 X110.061 Y117.816 E4.71206
G1 X110.052 Y117.442 E4.72451
G1 X110.056 Y117.226 E4.73169
G1 X110.088 Y116.779 E4.7466
G1 X110.139 Y116.374 E4.76017
G1 X110.231 Y115.883 E4.77679
G1 X110.326 Y115.502 E4.78985
G1 X110.448 Y115.099 E4.80385
G1 X110.518 Y114.904 E4.81074
G1 X110.602 Y114.69 E4.81839
G1 X110.686 Y114.491 E4.82557
G1 X110.871 Y114.107 E4.83975
G1 X111.067 Y113.749 E4.85333
G1 X111.272 Y113.413 E4.86642
G1 X111.387 Y113.243 E4.87324
G1 X111.618 Y112.934 E4.88608
G1 X111.868 Y112.629 E4.89919
G1 X112.126 Y112.342 E4.91203
G1 X112.269 Y112.197 E4.9188
G0 F6000 X112.553 Y112.478
G1 F1200 X112.744 Y112.298 E4.92753
G1 X112.915 Y112.147 E4.93512
G1 X113.2 Y111.918 E4.94728
G1 X113.527 Y111.681 E4.96071
G1 X113.813 Y111.493 E4.97209
G1 X113.986 Y111.39 E4.97879
G1 X114.308 Y111.219 E4.99092
G1 X114.685 Y111.041 E5.00478
G1 X115.142 Y110.86 E5.02113
G1 X115.527 Y110.736 E5.03458
G1 X115.981 Y110.62 E5.05017
G1 X116.385 Y110.543 E5.06385
G1 X116.85 Y110.484 E5.07944
G1 X117.251 Y110.458 E5.0928
G1 X117.608 Y110.452 E5.10468
G1 X117.813 Y110.458 E5.1115
G1 X118.189 Y110.487 E5.12404
G1 X118.599 Y110.54 E5.13779
G1 X119.058 Y110.629 E5.15334
G1 X119.447 Y110.729 E5.1667
G1 X119.896 Y110.874 E5.1824
G1 X120.281 Y111.026 E5.19616
G1 X120.72 Y111.233 E5.21231
G1 X121.072 Y111.427 E5.22567
G1 X121.358 Y111.602 E5.23683
G1 X121.532 Y111.719 E5.2438
G1 X121.826 Y111.938 E5.25599
G1 X122.142 Y112.198 E5.2696
G1 X122.51 Y112.543 E5.28638
G1 X122.779 Y112.832 E5.29951
G1 X122.997 Y113.088 E5.3107
G1 X123.123 Y113.25 E5.31752
G1 X123.262 Y113.441 E5.32538
G1 X123.378 Y113.611 E5.33222
G1 X123.56 Y113.906 E5.34375
G1 X123.758 Y114.262 E5.3573
G1 X123.967 Y114.703 E5.37353
G1 X124.118 Y115.082 E5.3871
G1 X124.264 Y115.523 E5.40255
G1 X124.364 Y115.904 E5.41566
G1 X124.444 Y116.29 E5.42877
G1 X124.477 Y116.504 E5.43597
G1 X124.512 Y116.816 E5.44641
G1 X124.54 Y117.214 E5.45968
G1 X124.548 Y117.553 E5.47096
G1 X124.544 Y117.763 E5.47795
G1 X124.516 Y118.16 E5.49118
G1 X124.465 Y118.57 E5.50492
G1 X124.381 Y119.02 E5.52015
G1 X124.286 Y119.401 E5.53321
G1 X124.176 Y119.766 E5.54589
G1 X124.106 Y119.961 E5.55278
G1 X124.027 Y120.161 E5.55993
G1 X123.943 Y120.359 E5.56709
G1 X123.776 Y120.703 E5.5798
G1 X123.579 Y121.062 E5.59342
G1 X123.337 Y121.447 E5.60855
G1 X123.107 Y121.768 E5.62168
G1 X122.885 Y122.049 E5.63359
G1 X122.751 Y122.203 E5.64038
G1 X122.59 Y122.377 E5.64827
G1 X122.447 Y122.522 E5.65504
G1 X122.256 Y122.702 E5.66377
G1 X122.085 Y122.853 E5.67136
G1 X121.8 Y123.082 E5.68352
G1 X121.473 Y123.319 E5.69695
G1 X121.201 Y123.499 E5.7078
G1 X121.028 Y123.603 E5.71451
G1 X120.688 Y123.784 E5.72732
G1 X120.312 Y123.961 E5.74115
G1 X119.856 Y124.141 E5.75745
G1 X119.47 Y124.265 E5.77094
G1 X119.019 Y124.38 E5.78642
G1 X118.615 Y124.457 E5.8001
G1 X118.15 Y124.516 E5.81569
G1 X117.749 Y124.542 E5.82905
G1 X117.392 Y124.548 E5.84093
G1 X117.187 Y124.542 E5.84775
G1 X116.811 Y124.513 E5.86029
G1 X116.401 Y124.46 E5.87404
G1 X115.942 Y124.371 E5.88959
G1 X115.553 Y124.271 E5.90295
G1 X115.104 Y124.126 E5.91864
G1 X114.719 Y123.974 E5.93241
G1 X114.28 Y123.767 E5.94855
G1 X113.928 Y123.573 E5.96192
G1 X113.638 Y123.396 E5.97322
G1 X113.463 Y123.278 E5.98024
G1 X113.173 Y123.061 E5.99229
G1 X112.857 Y122.801 E6.0059
G1 X112.489 Y122.456 E6.02268
G1 X112.22 Y122.167 E6.03581
G1 X112.002 Y121.911 E6.04699
G1 X111.876 Y121.749 E6.05382
G1 X111.734 Y121.554 E6.06184
G1 X111.619 Y121.385 E6.06864
G1 X111.438 Y121.091 E6.08012
G1 X111.241 Y120.736 E6.09363
G1 X111.035 Y120.3 E6.10966
G1 X110.883 Y119.919 E6.12331
G1 X110.763 Y119.572 E6.13552
G1 X110.706 Y119.376 E6.14231
G1 X110.622 Y119.026 E6.15428
G1 X110.546 Y118.627 E6.16779
G1 X110.488 Y118.184 E6.18265
G1 X110.46 Y117.788 E6.19585
G1 X110.452 Y117.45 E6.2071
G1 X110.456 Y117.234 E6.21428
G1 X110.485 Y116.829 E6.22779
G1 X110.536 Y116.424 E6.24137
G1 X110.619 Y115.98 E6.25639
G1 X110.714 Y115.599 E6.26945
G1 X110.824 Y115.234 E6.28213
G1 X110.894 Y115.039 E6.28902
G1 X110.97 Y114.845 E6.29595
G1 X111.054 Y114.646 E6.30313
G1 X111.222 Y114.299 E6.31596
G1 X111.418 Y113.941 E6.32953
G1 X111.604 Y113.637 E6.34138
G1 X111.719 Y113.467 E6.34821
G1 X111.927 Y113.187 E6.35981
G1 X112.177 Y112.882 E6.37293
G1 X112.41 Y112.623 E6.38452
G1 X112.553 Y112.478 E6.39129
G0 F6000 X112.838 Y112.759
G1 F1200 X113.009 Y112.597 E6.39912
G1 X113.18 Y112.446 E6.40671
G1 X113.435 Y112.242 E6.41757
G1 X113.762 Y112.005 E6.43101
G1 X114.018 Y111.837 E6.44119
G1 X114.191 Y111.734 E6.44789
G1 X114.478 Y111.58 E6.45872
G1 X114.855 Y111.402 E6.47259
G1 X115.265 Y111.241 E6.48724
