;FLAVOR:Marlin
;TIME:2530
;Filament used: 1.32357m
;Layer height: 0.2
;MINX:92.5
;MINY:104.6
;MINZ:0.2
;MAXX:142.5
;MAXY:130.4
;MAXZ:12
;Generated with Cura_SteamEngine 4.6.2
M140 S70
M105
M190 S70
M104 S210
M105
M109 S210
M82 ;absolute extrusion mode
; Ender 3 Custom Start G-code
G92 E0 ; Reset Extruder
G28 ; Home all axes
G1 Z2.0 F3000 ; Move Z Axis up little to prevent scratching of Heat Bed
G1 X0.1 Y20 Z0.3 F5000.0 ; Move to start position
G1 X0.1 Y200.0 Z0.3 F1500.0 E15 ; Draw the first line
G1 X0.4 Y200.0 Z0.3 F5000.0 ; Move to side a little
G1 X0.4 Y20 Z0.3 F1500.0 E30 ; Draw the second line
G92 E0 ; Reset Extruder
G1 Z2.0 F3000 ; Move Z Axis up little to prevent scratching of Heat Bed
G1 X5 Y20 Z0.3 F5000.0 ; Move over to prevent blob squish
G92 E0
G92 E0
G1 F2700 E-5
;LAYER_COUNT:60
;LAYER:0
M107
G0 F6000 X94.081 Y106.064 Z0.2
;TYPE:SKIRT
G1 F2700 E0
G1 F1200 X94.556 Y105.647 E0.02102
G1 X95.079 Y105.292 E0.04205
G1 X95.643 Y105.006 E0.06308
G1 X96.238 Y104.794 E0.08409
G1 X96.856 Y104.658 E0.10513
G1 X97.617 Y104.6 E0.13052
G1 X137.383 Y104.6 E1.45314
G1 X138.014 Y104.64 E1.47417
G1 X138.635 Y104.759 E1.4952
G1 X139.235 Y104.956 E1.51621
G1 X139.807 Y105.227 E1.53726
G1 X140.339 Y105.567 E1.55826
G1 X140.919 Y106.064 E1.58366
G1 X141.036 Y106.181 E1.58916
G1 X141.453 Y106.656 E1.61019
G1 X141.808 Y107.179 E1.63121
G1 X142.094 Y107.743 E1.65224
G1 X142.306 Y108.338 E1.67325
G1 X142.442 Y108.956 E1.6943
G1 X142.5 Y109.717 E1.71968
G1 X142.5 Y112.471 E1.81128
G1 X142.46 Y113.102 E1.83231
G1 X142.341 Y113.723 E1.85334
G1 X142.144 Y114.323 E1.87435
G1 X141.873 Y114.895 E1.8954
G1 X141.533 Y115.427 E1.9164
G1 X141.21 Y115.823 E1.93339
G1 X141.107 Y115.937 E1.9385
G1 X140.654 Y116.378 E1.95953
G1 X140.15 Y116.759 E1.98054
G1 X139.601 Y117.073 E2.00158
G1 X139.017 Y117.315 E2.02261
G1 X138.407 Y117.482 E2.04364
G1 X137.781 Y117.57 E2.06467
G1 X137.4 Y117.585 E2.07735
G1 X132.481 Y117.587 E2.24096
G1 X132.46 Y117.914 E2.25185
G1 X132.341 Y118.535 E2.27288
G1 X132.144 Y119.135 E2.29389
G1 X131.873 Y119.707 E2.31494
G1 X131.533 Y120.239 E2.33594
G1 X131.041 Y120.813 E2.36108
G1 X131.157 Y121.138 E2.37256
G1 X131.293 Y121.756 E2.39361
G1 X131.351 Y122.517 E2.41899
G1 X131.351 Y125.283 E2.51099
G1 X131.311 Y125.914 E2.53202
G1 X131.192 Y126.535 E2.55305
G1 X130.995 Y127.135 E2.57405
G1 X130.724 Y127.707 E2.59511
G1 X130.384 Y128.239 E2.61611
G1 X129.887 Y128.819 E2.64151
G1 X129.77 Y128.936 E2.64701
G1 X129.295 Y129.353 E2.66804
G1 X128.772 Y129.708 E2.68906
G1 X128.208 Y129.994 E2.71009
G1 X127.613 Y130.206 E2.7311
G1 X126.995 Y130.342 E2.75215
G1 X126.234 Y130.4 E2.77753
G1 X121.265 Y130.4 E2.9428
G1 X120.634 Y130.36 E2.96383
G1 X120.013 Y130.241 E2.98486
G1 X119.413 Y130.044 E3.00587
G1 X118.841 Y129.773 E3.02692
G1 X118.309 Y129.433 E3.04792
G1 X117.729 Y128.936 E3.07332
G1 X117.612 Y128.819 E3.07882
G1 X117.195 Y128.344 E3.09985
G1 X116.84 Y127.821 E3.12087
G1 X116.554 Y127.257 E3.1419
G1 X116.342 Y126.662 E3.16291
G1 X116.206 Y126.044 E3.18396
G1 X116.148 Y125.281 E3.20941
G1 X116.149 Y122.53 E3.30091
G1 X116.157 Y122.4 E3.30524
G1 X97.617 Y122.4 E3.92188
G1 X96.986 Y122.36 E3.94291
G1 X96.365 Y122.241 E3.96394
G1 X95.765 Y122.044 E3.98495
G1 X95.193 Y121.773 E4.006
G1 X94.661 Y121.433 E4.027
G1 X94.081 Y120.936 E4.0524
G1 X93.964 Y120.819 E4.05791
G1 X93.547 Y120.344 E4.07893
G1 X93.192 Y119.821 E4.09995
G1 X92.906 Y119.257 E4.12099
G1 X92.694 Y118.662 E4.14199
G1 X92.558 Y118.044 E4.16304
G1 X92.5 Y117.283 E4.18842
G1 X92.5 Y109.717 E4.44007
G1 X92.54 Y109.086 E4.4611
G1 X92.659 Y108.465 E4.48213
G1 X92.856 Y107.865 E4.50313
G1 X93.127 Y107.293 E4.52419
G1 X93.467 Y106.761 E4.54519
G1 X93.964 Y106.181 E4.57059
G1 X94.081 Y106.064 E4.57609
G0 F6000 X94.364 Y106.347
G1 F1200 X94.82 Y105.948 E4.59625
G1 X95.325 Y105.612 E4.61642
G1 X95.869 Y105.345 E4.63658
G1 X96.444 Y105.152 E4.65675
G1 X97.039 Y105.036 E4.67691
G1 X97.617 Y105 E4.69617
G1 X137.383 Y105 E6.0188
G1 X137.988 Y105.04 E6.03896
G1 X138.582 Y105.159 E6.05911
G1 X139.156 Y105.355 E6.07929
G1 X139.699 Y105.626 E6.09947
G1 X140.202 Y105.965 E6.11964
G1 X140.636 Y106.347 E6.13887
G1 X140.753 Y106.464 E6.14438
G1 X141.152 Y106.92 E6.16453
G1 X141.488 Y107.425 E6.18471
G1 X141.755 Y107.969 E6.20486
G1 X141.948 Y108.544 E6.22503
G1 X142.064 Y109.139 E6.2452
G1 X142.1 Y109.717 E6.26446
G1 X142.1 Y112.471 E6.35606
G1 X142.06 Y113.076 E6.37622
G1 X141.941 Y113.67 E6.39637
G1 X141.745 Y114.244 E6.41654
G1 X141.474 Y114.787 E6.43673
G1 X141.135 Y115.29 E6.4569
G1 X140.913 Y115.555 E6.4684
G1 X140.81 Y115.669 E6.47351
G1 X140.375 Y116.091 E6.49367
G1 X139.888 Y116.452 E6.51383
G1 X139.358 Y116.746 E6.53399
G1 X138.793 Y116.968 E6.55418
G1 X138.205 Y117.113 E6.57432
G1 X137.399 Y117.185 E6.60124
G1 X132.1 Y117.188 E6.77748
G1 X132.1 Y117.283 E6.78064
G1 X132.06 Y117.888 E6.80081
G1 X131.941 Y118.482 E6.82096
G1 X131.745 Y119.056 E6.84113
G1 X131.474 Y119.599 E6.86132
G1 X131.135 Y120.102 E6.88149
G1 X130.753 Y120.536 E6.90072
G1 X130.636 Y120.653 E6.90623
G1 X130.575 Y120.706 E6.90891
G1 X130.606 Y120.769 E6.91125
G1 X130.799 Y121.344 E6.93142
G1 X130.915 Y121.939 E6.95158
G1 X130.951 Y122.517 E6.97085
G1 X130.951 Y125.283 E7.06284
G1 X130.911 Y125.888 E7.08301
G1 X130.792 Y126.482 E7.10316
G1 X130.596 Y127.056 E7.12333
G1 X130.325 Y127.599 E7.14352
G1 X129.986 Y128.102 E7.16369
G1 X129.604 Y128.536 E7.18292
G1 X129.487 Y128.653 E7.18842
G1 X129.031 Y129.052 E7.20858
G1 X128.526 Y129.388 E7.22875
G1 X127.982 Y129.655 E7.24891
G1 X127.407 Y129.848 E7.26908
G1 X126.812 Y129.964 E7.28924
G1 X126.234 Y130 E7.3085
G1 X121.265 Y130 E7.47377
G1 X120.66 Y129.96 E7.49394
G1 X120.066 Y129.841 E7.51409
G1 X119.492 Y129.645 E7.53426
G1 X118.949 Y129.374 E7.55445
G1 X118.446 Y129.035 E7.57462
G1 X118.012 Y128.653 E7.59385
G1 X117.895 Y128.536 E7.59936
G1 X117.496 Y128.08 E7.61951
G1 X117.16 Y127.575 E7.63968
G1 X116.893 Y127.031 E7.65984
G1 X116.7 Y126.456 E7.68001
G1 X116.584 Y125.861 E7.70017
G1 X116.548 Y125.281 E7.7195
G1 X116.549 Y122.53 E7.811
G1 X116.584 Y122 E7.82867
G1 X97.617 Y122 E8.45951
G1 X97.012 Y121.96 E8.47968
G1 X96.418 Y121.841 E8.49983
G1 X95.844 Y121.645 E8.52
G1 X95.301 Y121.374 E8.54019
G1 X94.798 Y121.035 E8.56036
G1 X94.364 Y120.653 E8.57959
G1 X94.247 Y120.536 E8.58509
G1 X93.848 Y120.08 E8.60525
G1 X93.512 Y119.575 E8.62542
G1 X93.245 Y119.031 E8.64558
G1 X93.052 Y118.456 E8.66575
G1 X92.936 Y117.861 E8.68591
G1 X92.9 Y117.283 E8.70517
G1 X92.9 Y109.717 E8.95682
G1 X92.94 Y109.112 E8.97699
G1 X93.059 Y108.518 E8.99713
G1 X93.255 Y107.944 E9.01731
G1 X93.526 Y107.401 E9.03749
G1 X93.865 Y106.898 E9.05767
G1 X94.247 Y106.464 E9.0769
G1 X94.364 Y106.347 E9.0824
G0 F6000 X94.647 Y106.63
G1 F1200 X95.084 Y106.25 E9.10166
G1 X95.569 Y105.933 E9.12093
G1 X96.093 Y105.686 E9.1402
G1 X96.646 Y105.514 E9.15946
G1 X97.218 Y105.419 E9.17875
G1 X97.617 Y105.4 E9.19203
G1 X137.383 Y105.4 E10.51466
G1 X137.961 Y105.44 E10.53393
G1 X138.528 Y105.559 E10.5532
G1 X139.073 Y105.755 E10.57246
G1 X139.586 Y106.024 E10.59173
G1 X140.057 Y106.361 E10.61099
G1 X140.353 Y106.63 E10.62429
G1 X140.47 Y106.747 E10.62979
G1 X140.85 Y107.184 E10.64906
G1 X141.167 Y107.669 E10.66833
G1 X141.414 Y108.193 E10.68759
G1 X141.586 Y108.746 E10.70686
G1 X141.681 Y109.318 E10.72614
G1 X141.7 Y109.717 E10.73943
G1 X141.7 Y112.471 E10.83103
G1 X141.66 Y113.049 E10.8503
G1 X141.541 Y113.616 E10.86957
G1 X141.345 Y114.161 E10.88883
G1 X141.076 Y114.674 E10.9081
G1 X140.616 Y115.287 E10.93359
G1 X140.513 Y115.401 E10.9387
G1 X140.096 Y115.803 E10.95796
G1 X139.628 Y116.144 E10.97722
G1 X139.117 Y116.417 E10.99649
G1 X138.573 Y116.617 E11.01577
G1 X138.007 Y116.74 E11.03503
G1 X137.399 Y116.785 E11.05531
G1 X131.7 Y116.788 E11.24486
G1 X131.7 Y117.283 E11.26132
G1 X131.66 Y117.861 E11.28059
G1 X131.541 Y118.428 E11.29986
G1 X131.345 Y118.973 E11.31913
G1 X131.076 Y119.486 E11.33839
G1 X130.739 Y119.957 E11.35765
G1 X130.47 Y120.253 E11.37096
G1 X130.353 Y120.37 E11.37646
G1 X130.082 Y120.605 E11.38839
G1 X130.265 Y120.993 E11.40266
G1 X130.437 Y121.546 E11.42192
G1 X130.532 Y122.118 E11.44121
G1 X130.551 Y122.517 E11.45449
G1 X130.551 Y125.283 E11.54649
G1 X130.511 Y125.861 E11.56576
G1 X130.392 Y126.428 E11.58503
G1 X130.196 Y126.973 E11.60429
G1 X129.927 Y127.486 E11.62356
G1 X129.59 Y127.957 E11.64282
G1 X129.321 Y128.253 E11.65612
G1 X129.204 Y128.37 E11.66163
G1 X128.767 Y128.75 E11.68089
G1 X128.282 Y129.067 E11.70016
G1 X127.758 Y129.314 E11.71943
G1 X127.205 Y129.486 E11.73869
G1 X126.633 Y129.581 E11.75798
G1 X126.234 Y129.6 E11.77126
G1 X121.265 Y129.6 E11.93653
G1 X120.687 Y129.56 E11.9558
G1 X120.12 Y129.441 E11.97507
G1 X119.575 Y129.245 E11.99433
G1 X119.062 Y128.976 E12.0136
G1 X118.591 Y128.639 E12.03286
G1 X118.295 Y128.37 E12.04617
G1 X118.178 Y128.253 E12.05167
G1 X117.798 Y127.816 E12.07093
G1 X117.481 Y127.331 E12.0902
G1 X117.234 Y126.807 E12.10947
G1 X117.062 Y126.254 E12.12873
G1 X116.967 Y125.682 E12.14802
G1 X116.948 Y125.281 E12.16137
G1 X116.949 Y122.53 E12.25287
G1 X116.989 Y121.953 E12.2721
G1 X117.063 Y121.6 E12.2841
G1 X97.617 Y121.6 E12.93088
G1 X97.039 Y121.56 E12.95015
G1 X96.472 Y121.441 E12.96942
G1 X95.927 Y121.245 E12.98868
G1 X95.414 Y120.976 E13.00795
G1 X94.943 Y120.639 E13.02721
G1 X94.647 Y120.37 E13.04051
G1 X94.53 Y120.253 E13.04601
G1 X94.15 Y119.816 E13.06528
G1 X93.833 Y119.331 E13.08455
G1 X93.586 Y118.807 E13.10381
G1 X93.414 Y118.254 E13.12308
G1 X93.319 Y117.682 E13.14236
G1 X93.3 Y117.283 E13.15565
G1 X93.3 Y109.717 E13.40729
G1 X93.34 Y109.139 E13.42656
G1 X93.459 Y108.572 E13.44583
G1 X93.655 Y108.027 E13.4651
G1 X93.924 Y107.514 E13.48436
G1 X94.261 Y107.043 E13.50363
G1 X94.53 Y106.747 E13.51693
G1 X94.647 Y106.63 E13.52243
G0 F6000 X94.93 Y106.913
G1 F1200 X95.347 Y106.553 E13.54075
G1 X95.811 Y106.256 E13.55908
G1 X96.314 Y106.03 E13.57742
G1 X96.844 Y105.879 E13.59575
G1 X97.617 Y105.8 E13.62159
G1 X137.383 Y105.8 E14.94421
G1 X137.933 Y105.84 E14.96256
G1 X138.471 Y105.959 E14.98088
G1 X138.986 Y106.155 E14.99921
G1 X139.467 Y106.423 E15.01752
G1 X140.07 Y106.913 E15.04337
G1 X140.187 Y107.03 E15.04887
G1 X140.547 Y107.447 E15.06719
G1 X140.844 Y107.911 E15.08552
G1 X141.07 Y108.414 E15.10386
G1 X141.221 Y108.944 E15.12219
G1 X141.3 Y109.717 E15.14803
G1 X141.3 Y112.471 E15.23963
G1 X141.26 Y113.021 E15.25797
G1 X141.141 Y113.559 E15.2763
G1 X140.945 Y114.074 E15.29462
G1 X140.677 Y114.555 E15.31294
G1 X140.32 Y115.019 E15.33241
G1 X140.217 Y115.133 E15.33752
G1 X139.819 Y115.514 E15.35585
G1 X139.37 Y115.833 E15.37416
G1 X138.879 Y116.084 E15.39251
G1 X138.358 Y116.262 E15.41082
G1 X137.816 Y116.362 E15.42915
G1 X137.399 Y116.385 E15.44304
G1 X131.3 Y116.388 E15.64589
G1 X131.3 Y117.283 E15.67566
G1 X131.26 Y117.833 E15.694
G1 X131.141 Y118.371 E15.71233
G1 X130.945 Y118.886 E15.73066
G1 X130.677 Y119.367 E15.74897
G1 X130.187 Y119.97 E15.77481
G1 X130.07 Y120.087 E15.78032
G1 X129.653 Y120.447 E15.79864
G1 X129.563 Y120.505 E15.8022
G1 X129.695 Y120.711 E15.81034
G1 X129.921 Y121.214 E15.82868
G1 X130.072 Y121.744 E15.84701
G1 X130.151 Y122.517 E15.87285
G1 X130.151 Y125.283 E15.96485
G1 X130.111 Y125.833 E15.98319
G1 X129.992 Y126.371 E16.00152
G1 X129.796 Y126.886 E16.01984
G1 X129.528 Y127.367 E16.03816
G1 X129.038 Y127.97 E16.064
G1 X128.921 Y128.087 E16.0695
G1 X128.504 Y128.447 E16.08783
G1 X128.04 Y128.744 E16.10615
G1 X127.537 Y128.97 E16.12449
G1 X127.007 Y129.121 E16.14282
G1 X126.234 Y129.2 E16.16867
G1 X121.265 Y129.2 E16.33393
G1 X120.715 Y129.16 E16.35228
G1 X120.177 Y129.041 E16.3706
G1 X119.662 Y128.845 E16.38893
G1 X119.181 Y128.577 E16.40724
G1 X118.578 Y128.087 E16.43309
G1 X118.461 Y127.97 E16.43859
G1 X118.101 Y127.553 E16.45691
G1 X117.804 Y127.089 E16.47524
G1 X117.578 Y126.586 E16.49358
G1 X117.427 Y126.056 E16.51191
G1 X117.348 Y125.282 E16.53778
G1 X117.349 Y122.531 E16.62928
G1 X117.389 Y121.981 E16.64762
G1 X117.508 Y121.443 E16.66595
G1 X117.6 Y121.2 E16.67459
G1 X97.617 Y121.2 E17.33923
G1 X97.067 Y121.16 E17.35757
G1 X96.529 Y121.041 E17.3759
G1 X96.014 Y120.845 E17.39422
G1 X95.533 Y120.577 E17.41254
G1 X94.93 Y120.087 E17.43838
G1 X94.813 Y119.97 E17.44388
G1 X94.453 Y119.553 E17.46221
G1 X94.156 Y119.089 E17.48053
G1 X93.93 Y118.586 E17.49887
G1 X93.779 Y118.056 E17.5172
G1 X93.7 Y117.283 E17.54305
G1 X93.7 Y109.717 E17.79469
G1 X93.74 Y109.167 E17.81303
G1 X93.859 Y108.629 E17.83136
G1 X94.055 Y108.114 E17.84969
G1 X94.323 Y107.633 E17.868
G1 X94.813 Y107.03 E17.89384
G1 X94.93 Y106.913 E17.89935
G0 F6000 X95.213 Y107.196
G1 F1200 X95.609 Y106.857 E17.91668
G1 X96.051 Y106.582 E17.934
G1 X96.531 Y106.378 E17.95135
G1 X97.036 Y106.25 E17.96867
G1 X97.617 Y106.2 E17.98807
G1 X137.383 Y106.2 E19.31069
G1 X137.903 Y106.24 E19.32804
G1 X138.41 Y106.359 E19.34536
G1 X138.893 Y106.554 E19.36268
G1 X139.341 Y106.82 E19.38001
G1 X139.787 Y107.196 E19.39941
G1 X139.904 Y107.313 E19.40492
G1 X140.243 Y107.709 E19.42226
G1 X140.518 Y108.151 E19.43957
G1 X140.722 Y108.631 E19.45692
G1 X140.85 Y109.136 E19.47424
G1 X140.9 Y109.717 E19.49364
G1 X140.9 Y112.471 E19.58524
G1 X140.86 Y112.991 E19.60258
G1 X140.741 Y113.498 E19.61991
G1 X140.546 Y113.981 E19.63723
G1 X140.28 Y114.429 E19.65456
G1 X140.023 Y114.75 E19.66824
G1 X139.92 Y114.864 E19.67335
G1 X139.542 Y115.223 E19.69069
G1 X139.113 Y115.52 E19.70804
G1 X138.645 Y115.748 E19.72535
G1 X138.147 Y115.901 E19.74268
G1 X137.399 Y115.985 E19.76772
G1 X130.9 Y115.988 E19.98387
G1 X130.9 Y117.283 E20.02695
G1 X130.86 Y117.803 E20.04429
G1 X130.741 Y118.31 E20.06161
G1 X130.546 Y118.793 E20.07894
G1 X130.28 Y119.241 E20.09627
G1 X129.904 Y119.687 E20.11567
G1 X129.787 Y119.804 E20.12117
G1 X129.391 Y120.143 E20.13851
G1 X128.993 Y120.391 E20.15411
G1 X129.094 Y120.509 E20.15927
G1 X129.369 Y120.951 E20.17659
G1 X129.573 Y121.431 E20.19393
G1 X129.701 Y121.936 E20.21126
G1 X129.751 Y122.517 E20.23066
G1 X129.751 Y125.283 E20.32266
G1 X129.711 Y125.803 E20.34
G1 X129.592 Y126.31 E20.35732
G1 X129.397 Y126.793 E20.37465
G1 X129.131 Y127.241 E20.39198
G1 X128.755 Y127.687 E20.41138
G1 X128.638 Y127.804 E20.41688
G1 X128.242 Y128.143 E20.43422
G1 X127.8 Y128.418 E20.45153
G1 X127.32 Y128.622 E20.46888
G1 X126.815 Y128.75 E20.48621
G1 X126.234 Y128.8 E20.5056
G1 X121.265 Y128.8 E20.67087
G1 X120.745 Y128.76 E20.68822
G1 X120.238 Y128.641 E20.70554
G1 X119.755 Y128.446 E20.72287
G1 X119.307 Y128.18 E20.74019
G1 X118.861 Y127.804 E20.7596
G1 X118.744 Y127.687 E20.7651
G1 X118.405 Y127.291 E20.78244
G1 X118.13 Y126.849 E20.79975
G1 X117.926 Y126.369 E20.8171
G1 X117.798 Y125.864 E20.83443
G1 X117.748 Y125.282 E20.85386
G1 X117.749 Y122.531 E20.94535
G1 X117.789 Y122.011 E20.9627
G1 X117.908 Y121.504 E20.98002
G1 X118.103 Y121.021 E20.99735
G1 X118.235 Y120.8 E21.00591
G1 X97.617 Y120.8 E21.69167
G1 X97.097 Y120.76 E21.70901
G1 X96.59 Y120.641 E21.72633
G1 X96.107 Y120.446 E21.74366
G1 X95.659 Y120.18 E21.76099
G1 X95.213 Y119.804 E21.78039
G1 X95.096 Y119.687 E21.78589
G1 X94.757 Y119.291 E21.80323
G1 X94.482 Y118.849 E21.82054
G1 X94.278 Y118.369 E21.83789
G1 X94.15 Y117.864 E21.85522
G1 X94.1 Y117.283 E21.87461
G1 X94.1 Y109.717 E22.12626
G1 X94.14 Y109.197 E22.14361
G1 X94.259 Y108.69 E22.16093
G1 X94.454 Y108.207 E22.17825
G1 X94.72 Y107.759 E22.19558
G1 X95.096 Y107.313 E22.21498
G1 X95.213 Y107.196 E22.22049
G0 F6000 X95.496 Y107.479
G1 F1200 X95.869 Y107.162 E22.23677
G1 X96.289 Y106.91 E22.25306
G1 X96.744 Y106.73 E22.26933
G1 X97.222 Y106.626 E22.2856
G1 X97.617 Y106.6 E22.29877
G1 X137.383 Y106.6 E23.62139
G1 X137.871 Y106.64 E23.63768
G1 X138.346 Y106.759 E23.65396
G1 X138.795 Y106.953 E23.67023
G1 X139.207 Y107.218 E23.68653
G1 X139.504 Y107.479 E23.69968
G1 X139.621 Y107.596 E23.70518
G1 X139.938 Y107.969 E23.72146
G1 X140.19 Y108.389 E23.73775
G1 X140.37 Y108.844 E23.75403
G1 X140.474 Y109.322 E23.7703
G1 X140.5 Y109.717 E23.78346
G1 X140.5 Y112.471 E23.87506
G1 X140.46 Y112.959 E23.89135
G1 X140.341 Y113.434 E23.90763
G1 X140.147 Y113.883 E23.9239
G1 X139.726 Y114.482 E23.94825
G1 X139.623 Y114.596 E23.95336
