;FLAVOR:Marlin
;TIME:2625
;Filament used: 1.32629m
;Layer height: 0.2
;MINX:92.5
;MINY:106.1
;MINZ:0.2
;MAXX:142.5
;MAXY:128.9
;MAXZ:12
;Generated with Cura_SteamEngine 4.6.2
M140 S70
M105
M190 S70
M104 S210
M105
M109 S210
M82 ;absolute extrusion mode
; Ender 3 Custom Start G-code
G92 E0 ; Reset Extruder
G28 ; Home all axes
G1 Z2.0 F3000 ; Move Z Axis up little to prevent scratching of Heat Bed
G1 X0.1 Y20 Z0.3 F5000.0 ; Move to start position
G1 X0.1 Y200.0 Z0.3 F1500.0 E15 ; Draw the first line
G1 X0.4 Y200.0 Z0.3 F5000.0 ; Move to side a little
G1 X0.4 Y20 Z0.3 F1500.0 E30 ; Draw the second line
G92 E0 ; Reset Extruder
G1 Z2.0 F3000 ; Move Z Axis up little to prevent scratching of Heat Bed
G1 X5 Y20 Z0.3 F5000.0 ; Move over to prevent blob squish
G92 E0
G92 E0
G1 F2700 E-5
;LAYER_COUNT:60
;LAYER:0
M107
G0 F6000 X94.081 Y107.564 Z0.2
;TYPE:SKIRT
G1 F2700 E0
G1 F1200 X94.556 Y107.147 E0.02102
G1 X95.079 Y106.792 E0.04205
G1 X95.643 Y106.506 E0.06308
G1 X96.238 Y106.294 E0.08409
G1 X96.856 Y106.158 E0.10513
G1 X97.617 Y106.1 E0.13052
G1 X137.383 Y106.1 E1.45314
G1 X138.014 Y106.14 E1.47417
G1 X138.635 Y106.259 E1.4952
G1 X139.235 Y106.456 E1.51621
G1 X139.807 Y106.727 E1.53726
G1 X140.339 Y107.067 E1.55826
G1 X140.919 Y107.564 E1.58366
G1 X141.036 Y107.681 E1.58916
G1 X141.453 Y108.156 E1.61019
G1 X141.808 Y108.679 E1.63121
G1 X142.094 Y109.243 E1.65224
G1 X142.306 Y109.838 E1.67325
G1 X142.442 Y110.456 E1.6943
G1 X142.5 Y111.217 E1.71968
G1 X142.5 Y113.971 E1.81128
G1 X142.46 Y114.602 E1.83231
G1 X142.341 Y115.223 E1.85334
G1 X142.144 Y115.823 E1.87435
G1 X141.873 Y116.395 E1.8954
G1 X141.533 Y116.927 E1.9164
G1 X141.21 Y117.323 E1.93339
G1 X141.107 Y117.437 E1.9385
G1 X140.654 Y117.878 E1.95953
G1 X140.15 Y118.259 E1.98054
G1 X139.601 Y118.573 E2.00158
G1 X139.017 Y118.815 E2.02261
G1 X138.407 Y118.982 E2.04364
G1 X137.781 Y119.07 E2.06467
G1 X137.4 Y119.085 E2.07735
G1 X132.481 Y119.087 E2.24096
G1 X132.46 Y119.414 E2.25185
G1 X132.341 Y120.035 E2.27288
G1 X132.144 Y120.635 E2.29389
G1 X131.873 Y121.207 E2.31494
G1 X131.533 Y121.739 E2.33594
G1 X131.036 Y122.319 E2.36134
G1 X130.919 Y122.436 E2.36685
G1 X130.444 Y122.853 E2.38787
G1 X129.921 Y123.208 E2.40889
G1 X129.357 Y123.494 E2.42993
G1 X128.762 Y123.706 E2.45093
G1 X128.144 Y123.842 E2.47198
G1 X127.383 Y123.9 E2.49737
G1 X117.753 Y123.9 E2.81766
G1 X117.72 Y124.416 E2.83486
G1 X117.6 Y125.036 E2.85586
G1 X117.404 Y125.637 E2.87689
G1 X117.132 Y126.208 E2.89792
G1 X116.792 Y126.741 E2.91895
G1 X116.296 Y127.319 E2.94428
G1 X116.179 Y127.436 E2.94979
G1 X115.704 Y127.853 E2.97081
G1 X115.181 Y128.208 E2.99183
G1 X114.617 Y128.494 E3.01287
G1 X114.022 Y128.706 E3.03387
G1 X113.404 Y128.842 E3.05492
G1 X112.643 Y128.9 E3.08031
G1 X106.356 Y128.9 E3.28941
G1 X105.725 Y128.86 E3.31044
G1 X105.104 Y128.741 E3.33147
G1 X104.504 Y128.544 E3.35248
G1 X103.932 Y128.273 E3.37353
G1 X103.4 Y127.933 E3.39453
G1 X102.82 Y127.436 E3.41993
G1 X102.703 Y127.319 E3.42544
G1 X102.286 Y126.844 E3.44646
G1 X101.931 Y126.321 E3.46748
G1 X101.645 Y125.757 E3.48851
G1 X101.433 Y125.162 E3.50952
G1 X101.297 Y124.544 E3.53057
G1 X101.248 Y123.9 E3.55205
G1 X97.617 Y123.9 E3.67282
G1 X96.986 Y123.86 E3.69385
G1 X96.365 Y123.741 E3.71488
G1 X95.765 Y123.544 E3.73588
G1 X95.193 Y123.273 E3.75693
G1 X94.661 Y122.933 E3.77793
G1 X94.081 Y122.436 E3.80334
G1 X93.964 Y122.319 E3.80884
G1 X93.547 Y121.844 E3.82986
G1 X93.192 Y121.321 E3.85089
G1 X92.906 Y120.757 E3.87192
G1 X92.694 Y120.162 E3.89293
G1 X92.558 Y119.544 E3.91398
G1 X92.5 Y118.783 E3.93936
G1 X92.5 Y111.217 E4.19101
G1 X92.54 Y110.586 E4.21204
G1 X92.659 Y109.965 E4.23307
G1 X92.856 Y109.365 E4.25407
G1 X93.127 Y108.793 E4.27512
G1 X93.467 Y108.261 E4.29612
G1 X93.964 Y107.681 E4.32153
G1 X94.081 Y107.564 E4.32703
G0 F6000 X94.364 Y107.847
G1 F1200 X94.82 Y107.448 E4.34718
G1 X95.325 Y107.112 E4.36736
G1 X95.869 Y106.845 E4.38751
G1 X96.444 Y106.652 E4.40769
G1 X97.039 Y106.536 E4.42785
G1 X97.617 Y106.5 E4.44711
G1 X137.383 Y106.5 E5.76973
G1 X137.988 Y106.54 E5.7899
G1 X138.582 Y106.659 E5.81005
G1 X139.156 Y106.855 E5.83022
G1 X139.699 Y107.126 E5.85041
G1 X140.202 Y107.465 E5.87058
G1 X140.636 Y107.847 E5.88981
G1 X140.753 Y107.964 E5.89531
G1 X141.152 Y108.42 E5.91547
G1 X141.488 Y108.925 E5.93564
G1 X141.755 Y109.469 E5.9558
G1 X141.948 Y110.044 E5.97597
G1 X142.064 Y110.639 E5.99613
G1 X142.1 Y111.217 E6.01539
G1 X142.1 Y113.971 E6.10699
G1 X142.06 Y114.576 E6.12716
G1 X141.941 Y115.17 E6.14731
G1 X141.745 Y115.744 E6.16748
G1 X141.474 Y116.287 E6.18767
G1 X141.135 Y116.79 E6.20784
G1 X140.913 Y117.055 E6.21934
G1 X140.81 Y117.169 E6.22445
G1 X140.375 Y117.591 E6.24461
G1 X139.888 Y117.952 E6.26477
G1 X139.358 Y118.246 E6.28493
G1 X138.793 Y118.468 E6.30512
G1 X138.205 Y118.613 E6.32526
G1 X137.399 Y118.685 E6.35217
G1 X132.1 Y118.688 E6.52842
G1 X132.1 Y118.783 E6.53158
G1 X132.06 Y119.388 E6.55175
G1 X131.941 Y119.982 E6.57189
G1 X131.745 Y120.556 E6.59207
G1 X131.474 Y121.099 E6.61225
G1 X131.135 Y121.602 E6.63243
G1 X130.753 Y122.036 E6.65166
G1 X130.636 Y122.153 E6.65716
G1 X130.18 Y122.552 E6.67731
G1 X129.675 Y122.888 E6.69749
G1 X129.131 Y123.155 E6.71764
G1 X128.556 Y123.348 E6.73782
G1 X127.961 Y123.464 E6.75798
G1 X127.383 Y123.5 E6.77724
G1 X117.36 Y123.5 E7.11061
G1 X117.36 Y123.785 E7.12009
G1 X117.32 Y124.39 E7.14025
G1 X117.2 Y124.984 E7.16041
G1 X117.004 Y125.558 E7.18058
G1 X116.734 Y126.1 E7.20072
G1 X116.394 Y126.603 E7.22092
G1 X116.013 Y127.036 E7.2401
G1 X115.896 Y127.153 E7.2456
G1 X115.44 Y127.552 E7.26575
G1 X114.935 Y127.888 E7.28593
G1 X114.391 Y128.155 E7.30608
G1 X113.816 Y128.348 E7.32626
G1 X113.221 Y128.464 E7.34642
G1 X112.643 Y128.5 E7.36568
G1 X106.356 Y128.5 E7.57479
G1 X105.751 Y128.46 E7.59495
G1 X105.157 Y128.341 E7.6151
G1 X104.583 Y128.145 E7.63528
G1 X104.04 Y127.874 E7.65546
G1 X103.537 Y127.535 E7.67564
G1 X103.103 Y127.153 E7.69487
G1 X102.986 Y127.036 E7.70037
G1 X102.587 Y126.58 E7.72052
G1 X102.251 Y126.075 E7.7407
G1 X101.984 Y125.531 E7.76085
G1 X101.791 Y124.956 E7.78103
G1 X101.675 Y124.361 E7.80119
G1 X101.639 Y123.781 E7.82052
G1 X101.639 Y123.5 E7.82986
G1 X97.617 Y123.5 E7.96363
G1 X97.012 Y123.46 E7.9838
G1 X96.418 Y123.341 E8.00395
G1 X95.844 Y123.145 E8.02412
G1 X95.301 Y122.874 E8.04431
G1 X94.798 Y122.535 E8.06448
G1 X94.364 Y122.153 E8.08371
G1 X94.247 Y122.036 E8.08922
G1 X93.848 Y121.58 E8.10937
G1 X93.512 Y121.075 E8.12954
G1 X93.245 Y120.531 E8.1497
G1 X93.052 Y119.956 E8.16987
G1 X92.936 Y119.361 E8.19003
G1 X92.9 Y118.783 E8.2093
G1 X92.9 Y111.217 E8.46094
G1 X92.94 Y110.612 E8.48111
G1 X93.059 Y110.018 E8.50126
G1 X93.255 Y109.444 E8.52143
G1 X93.526 Y108.901 E8.54162
G1 X93.865 Y108.398 E8.56179
G1 X94.247 Y107.964 E8.58102
G1 X94.364 Y107.847 E8.58652
G0 F6000 X94.647 Y108.13
G1 F1200 X95.084 Y107.75 E8.60578
G1 X95.569 Y107.433 E8.62506
G1 X96.093 Y107.186 E8.64432
G1 X96.646 Y107.014 E8.66359
G1 X97.218 Y106.919 E8.68287
G1 X97.617 Y106.9 E8.69616
G1 X137.383 Y106.9 E10.01878
G1 X137.961 Y106.94 E10.03805
G1 X138.528 Y107.059 E10.05732
G1 X139.073 Y107.255 E10.07658
G1 X139.586 Y107.524 E10.09585
G1 X140.057 Y107.861 E10.11511
G1 X140.353 Y108.13 E10.12841
G1 X140.47 Y108.247 E10.13392
G1 X140.85 Y108.684 E10.15318
G1 X141.167 Y109.169 E10.17245
G1 X141.414 Y109.693 E10.19172
G1 X141.586 Y110.246 E10.21098
G1 X141.681 Y110.818 E10.23026
G1 X141.7 Y111.217 E10.24355
G1 X141.7 Y113.971 E10.33515
G1 X141.66 Y114.549 E10.35442
G1 X141.541 Y115.116 E10.37369
G1 X141.345 Y115.661 E10.39295
G1 X141.076 Y116.174 E10.41222
G1 X140.616 Y116.787 E10.43771
G1 X140.513 Y116.901 E10.44282
G1 X140.096 Y117.303 E10.46208
G1 X139.628 Y117.644 E10.48134
G1 X139.117 Y117.917 E10.50061
G1 X138.573 Y118.117 E10.51989
G1 X138.007 Y118.24 E10.53915
G1 X137.399 Y118.285 E10.55943
G1 X131.7 Y118.288 E10.74898
G1 X131.7 Y118.783 E10.76544
G1 X131.66 Y119.361 E10.78471
G1 X131.541 Y119.928 E10.80398
G1 X131.345 Y120.473 E10.82325
G1 X131.076 Y120.986 E10.84251
G1 X130.739 Y121.457 E10.86178
G1 X130.47 Y121.753 E10.87508
G1 X130.353 Y121.87 E10.88058
G1 X129.916 Y122.25 E10.89984
G1 X129.431 Y122.567 E10.91911
G1 X128.907 Y122.814 E10.93838
G1 X128.354 Y122.986 E10.95764
G1 X127.782 Y123.081 E10.97693
G1 X127.383 Y123.1 E10.99022
G1 X116.96 Y123.1 E11.33689
G1 X116.96 Y123.785 E11.35967
G1 X116.92 Y124.362 E11.37891
G1 X116.801 Y124.929 E11.39818
G1 X116.604 Y125.474 E11.41745
G1 X116.335 Y125.987 E11.43672
G1 X115.998 Y126.458 E11.45598
G1 X115.73 Y126.753 E11.46923
G1 X115.613 Y126.87 E11.47474
G1 X115.176 Y127.25 E11.494
G1 X114.691 Y127.567 E11.51327
G1 X114.167 Y127.814 E11.53254
G1 X113.614 Y127.986 E11.5518
G1 X113.042 Y128.081 E11.57109
G1 X112.643 Y128.1 E11.58437
G1 X106.356 Y128.1 E11.79348
G1 X105.778 Y128.06 E11.81275
G1 X105.211 Y127.941 E11.83202
G1 X104.666 Y127.745 E11.85128
G1 X104.153 Y127.476 E11.87055
G1 X103.682 Y127.139 E11.88981
G1 X103.386 Y126.87 E11.90311
G1 X103.269 Y126.753 E11.90862
G1 X102.889 Y126.316 E11.92788
G1 X102.572 Y125.831 E11.94715
G1 X102.325 Y125.307 E11.96642
G1 X102.153 Y124.754 E11.98568
G1 X102.058 Y124.182 E12.00496
G1 X102.039 Y123.781 E12.01832
G1 X102.039 Y123.1 E12.04097
G1 X97.617 Y123.1 E12.18804
G1 X97.039 Y123.06 E12.20731
G1 X96.472 Y122.941 E12.22658
G1 X95.927 Y122.745 E12.24584
G1 X95.414 Y122.476 E12.26511
G1 X94.943 Y122.139 E12.28437
G1 X94.647 Y121.87 E12.29768
G1 X94.53 Y121.753 E12.30318
G1 X94.15 Y121.316 E12.32244
G1 X93.833 Y120.831 E12.34171
G1 X93.586 Y120.307 E12.36098
G1 X93.414 Y119.754 E12.38024
G1 X93.319 Y119.182 E12.39953
G1 X93.3 Y118.783 E12.41281
G1 X93.3 Y111.217 E12.66446
G1 X93.34 Y110.639 E12.68373
G1 X93.459 Y110.072 E12.703
G1 X93.655 Y109.527 E12.72226
G1 X93.924 Y109.014 E12.74153
G1 X94.261 Y108.543 E12.76079
G1 X94.53 Y108.247 E12.77409
G1 X94.647 Y108.13 E12.7796
G0 F6000 X94.93 Y108.413
G1 F1200 X95.347 Y108.053 E12.79792
G1 X95.811 Y107.756 E12.81624
G1 X96.314 Y107.53 E12.83458
G1 X96.844 Y107.379 E12.85291
G1 X97.617 Y107.3 E12.87876
G1 X137.383 Y107.3 E14.20138
G1 X137.933 Y107.34 E14.21972
G1 X138.471 Y107.459 E14.23805
G1 X138.986 Y107.655 E14.25638
G1 X139.467 Y107.923 E14.27469
G1 X140.07 Y108.413 E14.30053
G1 X140.187 Y108.53 E14.30604
G1 X140.547 Y108.947 E14.32436
G1 X140.844 Y109.411 E14.34268
G1 X141.07 Y109.914 E14.36102
G1 X141.221 Y110.444 E14.37935
G1 X141.3 Y111.217 E14.4052
G1 X141.3 Y113.971 E14.49679
G1 X141.26 Y114.521 E14.51514
G1 X141.141 Y115.059 E14.53346
G1 X140.945 Y115.574 E14.55179
G1 X140.677 Y116.055 E14.5701
G1 X140.32 Y116.519 E14.58958
G1 X140.217 Y116.633 E14.59469
G1 X139.819 Y117.014 E14.61301
G1 X139.37 Y117.333 E14.63133
G1 X138.879 Y117.584 E14.64967
G1 X138.358 Y117.762 E14.66798
G1 X137.816 Y117.862 E14.68631
G1 X137.399 Y117.885 E14.7002
G1 X131.3 Y117.888 E14.90306
G1 X131.3 Y118.783 E14.93283
G1 X131.26 Y119.333 E14.95117
G1 X131.141 Y119.871 E14.96949
G1 X130.945 Y120.386 E14.98782
G1 X130.677 Y120.867 E15.00614
G1 X130.187 Y121.47 E15.03198
G1 X130.07 Y121.587 E15.03748
G1 X129.653 Y121.947 E15.0558
G1 X129.189 Y122.244 E15.07413
G1 X128.686 Y122.47 E15.09247
G1 X128.156 Y122.621 E15.1108
G1 X127.383 Y122.7 E15.13664
G1 X116.56 Y122.7 E15.49662
G1 X116.56 Y123.784 E15.53267
G1 X116.52 Y124.334 E15.55101
G1 X116.401 Y124.872 E15.56934
G1 X116.205 Y125.387 E15.58767
G1 X115.937 Y125.868 E15.60598
G1 X115.447 Y126.47 E15.6318
G1 X115.33 Y126.587 E15.6373
G1 X114.913 Y126.947 E15.65562
G1 X114.449 Y127.244 E15.67395
G1 X113.946 Y127.47 E15.69229
G1 X113.416 Y127.621 E15.71062
G1 X112.643 Y127.7 E15.73646
G1 X106.356 Y127.7 E15.94557
G1 X105.806 Y127.66 E15.96391
G1 X105.268 Y127.541 E15.98223
G1 X104.753 Y127.345 E16.00056
G1 X104.272 Y127.077 E16.01888
G1 X103.669 Y126.587 E16.04472
G1 X103.552 Y126.47 E16.05022
G1 X103.192 Y126.053 E16.06855
G1 X102.895 Y125.589 E16.08687
G1 X102.669 Y125.086 E16.10521
G1 X102.518 Y124.556 E16.12354
G1 X102.439 Y123.782 E16.14942
G1 X102.439 Y122.7 E16.1854
G1 X97.617 Y122.7 E16.34578
G1 X97.067 Y122.66 E16.36413
G1 X96.529 Y122.541 E16.38245
G1 X96.014 Y122.345 E16.40078
G1 X95.533 Y122.077 E16.41909
G1 X94.93 Y121.587 E16.44494
G1 X94.813 Y121.47 E16.45044
G1 X94.453 Y121.053 E16.46876
G1 X94.156 Y120.589 E16.48709
G1 X93.93 Y120.086 E16.50543
G1 X93.779 Y119.556 E16.52376
G1 X93.7 Y118.783 E16.5496
G1 X93.7 Y111.217 E16.80125
G1 X93.74 Y110.667 E16.81959
G1 X93.859 Y110.129 E16.83791
G1 X94.055 Y109.614 E16.85624
G1 X94.323 Y109.133 E16.87455
G1 X94.813 Y108.53 E16.9004
G1 X94.93 Y108.413 E16.9059
G0 F6000 X95.213 Y108.696
G1 F1200 X95.609 Y108.357 E16.92324
G1 X96.051 Y108.082 E16.94055
G1 X96.531 Y107.878 E16.9579
G1 X97.036 Y107.75 E16.97523
G1 X97.617 Y107.7 E16.99462
G1 X137.383 Y107.7 E18.31725
G1 X137.903 Y107.74 E18.33459
G1 X138.41 Y107.859 E18.35191
G1 X138.893 Y108.054 E18.36924
G1 X139.341 Y108.32 E18.38657
G1 X139.787 Y108.696 E18.40597
G1 X139.904 Y108.813 E18.41147
G1 X140.243 Y109.209 E18.42881
G1 X140.518 Y109.651 E18.44612
G1 X140.722 Y110.131 E18.46347
G1 X140.85 Y110.636 E18.4808
G1 X140.9 Y111.217 E18.50019
G1 X140.9 Y113.971 E18.59179
G1 X140.86 Y114.491 E18.60914
G1 X140.741 Y114.998 E18.62646
G1 X140.546 Y115.481 E18.64378
G1 X140.28 Y115.929 E18.66111
G1 X140.023 Y116.25 E18.67479
G1 X139.92 Y116.364 E18.6799
G1 X139.542 Y116.723 E18.69724
G1 X139.113 Y117.02 E18.71459
G1 X138.645 Y117.248 E18.73191
G1 X138.147 Y117.401 E18.74924
G1 X137.399 Y117.485 E18.77427
G1 X130.9 Y117.488 E18.99043
G1 X130.9 Y118.783 E19.0335
G1 X130.86 Y119.303 E19.05085
G1 X130.741 Y119.81 E19.06817
G1 X130.546 Y120.293 E19.08549
G1 X130.28 Y120.741 E19.10282
G1 X129.904 Y121.187 E19.12222
G1 X129.787 Y121.304 E19.12773
G1 X129.391 Y121.643 E19.14507
G1 X128.949 Y121.918 E19.16238
G1 X128.469 Y122.122 E19.17973
G1 X127.964 Y122.25 E19.19705
G1 X127.383 Y122.3 E19.21645
G1 X116.161 Y122.3 E19.58969
G1 X116.16 Y123.784 E19.63905
G1 X116.12 Y124.304 E19.6564
G1 X116.001 Y124.811 E19.67372
G1 X115.806 Y125.294 E19.69104
G1 X115.539 Y125.742 E19.70839
G1 X115.164 Y126.187 E19.72775
G1 X115.047 Y126.304 E19.73325
G1 X114.651 Y126.643 E19.75059
G1 X114.209 Y126.918 E19.7679
G1 X113.729 Y127.122 E19.78525
G1 X113.224 Y127.25 E19.80258
G1 X112.643 Y127.3 E19.82197
G1 X106.356 Y127.3 E20.03108
G1 X105.836 Y127.26 E20.04842
G1 X105.329 Y127.141 E20.06575
G1 X104.846 Y126.946 E20.08307
G1 X104.398 Y126.68 E20.1004
G1 X103.952 Y126.304 E20.1198
G1 X103.835 Y126.187 E20.1253
G1 X103.496 Y125.791 E20.14264
G1 X103.221 Y125.349 E20.15996
G1 X103.017 Y124.869 E20.1773
G1 X102.889 Y124.364 E20.19463
G1 X102.839 Y123.782 E20.21406
G1 X102.84 Y122.3 E20.26335
G1 X97.617 Y122.3 E20.43707
G1 X97.097 Y122.26 E20.45441
G1 X96.59 Y122.141 E20.47174
G1 X96.107 Y121.946 E20.48906
G1 X95.659 Y121.68 E20.50639
G1 X95.213 Y121.304 E20.52579
G1 X95.096 Y121.187 E20.5313
G1 X94.757 Y120.791 E20.54863
G1 X94.482 Y120.349 E20.56595
G1 X94.278 Y119.869 E20.58329
G1 X94.15 Y119.364 E20.60062
G1 X94.1 Y118.783 E20.62002
G1 X94.1 Y111.217 E20.87166
G1 X94.14 Y110.697 E20.88901
G1 X94.259 Y110.19 E20.90633
G1 X94.454 Y109.707 E20.92366
G1 X94.72 Y109.259 E20.94098
G1 X95.096 Y108.813 E20.96039
G1 X95.213 Y108.696 E20.96589
G0 F6000 X95.496 Y108.979
G1 F1200 X95.869 Y108.662 E20.98217
G1 X96.289 Y108.41 E20.99846
G1 X96.744 Y108.23 E21.01474
G1 X97.222 Y108.126 E21.03101
G1 X97.617 Y108.1 E21.04417
G1 X137.383 Y108.1 E22.3668
G1 X137.871 Y108.14 E22.38308
G1 X138.346 Y108.259 E22.39937
G1 X138.795 Y108.453 E22.41564
G1 X139.207 Y108.718 E22.43193
G1 X139.504 Y108.979 E22.44508
G1 X139.621 Y109.096 E22.45058
G1 X139.938 Y109.469 E22.46686
G1 X140.19 Y109.889 E22.48315
G1 X140.37 Y110.344 E22.49943
G1 X140.474 Y110.822 E22.5157
G1 X140.5 Y111.217 E22.52887
G1 X140.5 Y113.971 E22.62046
G1 X140.46 Y114.459 E22.63675
G1 X140.341 Y114.934 E22.65304
G1 X140.147 Y115.383 E22.6693
G1 X139.726 Y115.982 E22.69366
G1 X139.623 Y116.096 E22.69877
G1 X139.266 Y116.431 E22.71505
G1 X138.86 Y116.704 E22.73132
G1 X138.414 Y116.907 E22.74762
G1 X137.942 Y117.035 E22.76389
G1 X137.399 Y117.085 E22.78202
G1 X130.5 Y117.088 E23.01148
