;FLAVOR:Marlin
;TIME:2560
;Filament used: 1.33986m
;Layer height: 0.2
;MINX:92.5
;MINY:105.6
;MINZ:0.2
;MAXX:142.5
;MAXY:129.4
;MAXZ:12
;Generated with Cura_SteamEngine 4.6.2
M140 S70
M105
M190 S70
M104 S210
M105
M109 S210
M82 ;absolute extrusion mode
; Ender 3 Custom Start G-code
G92 E0 ; Reset Extruder
G28 ; Home all axes
G1 Z2.0 F3000 ; Move Z Axis up little to prevent scratching of Heat Bed
G1 X0.1 Y20 Z0.3 F5000.0 ; Move to start position
G1 X0.1 Y200.0 Z0.3 F1500.0 E15 ; Draw the first line
G1 X0.4 Y200.0 Z0.3 F5000.0 ; Move to side a little
G1 X0.4 Y20 Z0.3 F1500.0 E30 ; Draw the second line
G92 E0 ; Reset Extruder
G1 Z2.0 F3000 ; Move Z Axis up little to prevent scratching of Heat Bed
G1 X5 Y20 Z0.3 F5000.0 ; Move over to prevent blob squish
G92 E0
G92 E0
G1 F2700 E-5
;LAYER_COUNT:60
;LAYER:0
M107
G0 F6000 X94.081 Y107.064 Z0.2
;TYPE:SKIRT
G1 F2700 E0
G1 F1200 X94.556 Y106.647 E0.02102
G1 X95.079 Y106.292 E0.04205
G1 X95.643 Y106.006 E0.06308
G1 X96.238 Y105.794 E0.08409
G1 X96.856 Y105.658 E0.10513
G1 X97.617 Y105.6 E0.13052
G1 X137.383 Y105.6 E1.45314
G1 X138.014 Y105.64 E1.47417
G1 X138.635 Y105.759 E1.4952
G1 X139.235 Y105.956 E1.51621
G1 X139.807 Y106.227 E1.53726
G1 X140.339 Y106.567 E1.55826
G1 X140.919 Y107.064 E1.58366
G1 X141.036 Y107.181 E1.58916
G1 X141.453 Y107.656 E1.61019
G1 X141.808 Y108.179 E1.63121
G1 X142.094 Y108.743 E1.65224
G1 X142.306 Y109.338 E1.67325
G1 X142.442 Y109.956 E1.6943
G1 X142.5 Y110.717 E1.71968
G1 X142.5 Y113.471 E1.81128
G1 X142.46 Y114.102 E1.83231
G1 X142.341 Y114.723 E1.85334
G1 X142.144 Y115.323 E1.87435
G1 X141.873 Y115.895 E1.8954
G1 X141.533 Y116.427 E1.9164
G1 X141.21 Y116.823 E1.93339
G1 X141.107 Y116.937 E1.9385
G1 X140.654 Y117.378 E1.95953
G1 X140.15 Y117.759 E1.98054
G1 X139.601 Y118.073 E2.00158
G1 X139.017 Y118.315 E2.02261
G1 X138.407 Y118.482 E2.04364
G1 X137.781 Y118.57 E2.06467
G1 X137.4 Y118.585 E2.07735
G1 X132.481 Y118.587 E2.24096
G1 X132.46 Y118.914 E2.25185
G1 X132.341 Y119.535 E2.27288
G1 X132.144 Y120.135 E2.29389
G1 X131.873 Y120.707 E2.31494
G1 X131.533 Y121.239 E2.33594
G1 X131.036 Y121.819 E2.36134
G1 X130.919 Y121.936 E2.36685
G1 X130.444 Y122.353 E2.38787
G1 X129.921 Y122.708 E2.40889
G1 X129.357 Y122.994 E2.42993
G1 X128.762 Y123.206 E2.45093
G1 X128.144 Y123.342 E2.47198
G1 X127.383 Y123.4 E2.49737
G1 X117.76 Y123.4 E2.81743
G1 X117.76 Y124.285 E2.84686
G1 X117.72 Y124.916 E2.86789
G1 X117.6 Y125.536 E2.8889
G1 X117.404 Y126.137 E2.90992
G1 X117.132 Y126.708 E2.93096
G1 X116.792 Y127.241 E2.95199
G1 X116.296 Y127.819 E2.97732
G1 X116.179 Y127.936 E2.98282
G1 X115.704 Y128.353 E3.00384
G1 X115.181 Y128.708 E3.02487
G1 X114.617 Y128.994 E3.0459
G1 X114.022 Y129.206 E3.06691
G1 X113.404 Y129.342 E3.08796
G1 X112.643 Y129.4 E3.11334
G1 X106.356 Y129.4 E3.32245
G1 X105.725 Y129.36 E3.34348
G1 X105.104 Y129.241 E3.36451
G1 X104.504 Y129.044 E3.38551
G1 X103.932 Y128.773 E3.40656
G1 X103.4 Y128.433 E3.42756
G1 X102.82 Y127.936 E3.45297
G1 X102.703 Y127.819 E3.45847
G1 X102.286 Y127.344 E3.47949
G1 X101.931 Y126.821 E3.50052
G1 X101.645 Y126.257 E3.52155
G1 X101.433 Y125.662 E3.54256
G1 X101.297 Y125.044 E3.5636
G1 X101.239 Y124.281 E3.58905
G1 X101.239 Y123.4 E3.61836
G1 X97.617 Y123.4 E3.73882
G1 X96.986 Y123.36 E3.75985
G1 X96.365 Y123.241 E3.78088
G1 X95.765 Y123.044 E3.80189
G1 X95.193 Y122.773 E3.82294
G1 X94.661 Y122.433 E3.84394
G1 X94.081 Y121.936 E3.86934
G1 X93.964 Y121.819 E3.87485
G1 X93.547 Y121.344 E3.89587
G1 X93.192 Y120.821 E3.91689
G1 X92.906 Y120.257 E3.93793
G1 X92.694 Y119.662 E3.95894
G1 X92.558 Y119.044 E3.97998
G1 X92.5 Y118.283 E4.00537
G1 X92.5 Y110.717 E4.25701
G1 X92.54 Y110.086 E4.27804
G1 X92.659 Y109.465 E4.29907
G1 X92.856 Y108.865 E4.32008
G1 X93.127 Y108.293 E4.34113
G1 X93.467 Y107.761 E4.36213
G1 X93.964 Y107.181 E4.38753
G1 X94.081 Y107.064 E4.39304
G0 F6000 X94.364 Y107.347
G1 F1200 X94.82 Y106.948 E4.41319
G1 X95.325 Y106.612 E4.43336
G1 X95.869 Y106.345 E4.45352
G1 X96.444 Y106.152 E4.47369
G1 X97.039 Y106.036 E4.49385
G1 X97.617 Y106 E4.51312
G1 X137.383 Y106 E5.83574
G1 X137.988 Y106.04 E5.8559
G1 X138.582 Y106.159 E5.87605
G1 X139.156 Y106.355 E5.89623
G1 X139.699 Y106.626 E5.91641
G1 X140.202 Y106.965 E5.93659
G1 X140.636 Y107.347 E5.95582
G1 X140.753 Y107.464 E5.96132
G1 X141.152 Y107.92 E5.98147
G1 X141.488 Y108.425 E6.00165
G1 X141.755 Y108.969 E6.0218
G1 X141.948 Y109.544 E6.04198
G1 X142.064 Y110.139 E6.06214
G1 X142.1 Y110.717 E6.0814
G1 X142.1 Y113.471 E6.173
G1 X142.06 Y114.076 E6.19316
G1 X141.941 Y114.67 E6.21331
G1 X141.745 Y115.244 E6.23349
G1 X141.474 Y115.787 E6.25367
G1 X141.135 Y116.29 E6.27385
G1 X140.913 Y116.555 E6.28534
G1 X140.81 Y116.669 E6.29045
G1 X140.375 Y117.091 E6.31061
G1 X139.888 Y117.452 E6.33077
G1 X139.358 Y117.746 E6.35093
G1 X138.793 Y117.968 E6.37112
G1 X138.205 Y118.113 E6.39127
G1 X137.399 Y118.185 E6.41818
G1 X132.1 Y118.188 E6.59443
G1 X132.1 Y118.283 E6.59759
G1 X132.06 Y118.888 E6.61775
G1 X131.941 Y119.482 E6.6379
G1 X131.745 Y120.056 E6.65808
G1 X131.474 Y120.599 E6.67826
G1 X131.135 Y121.102 E6.69843
G1 X130.753 Y121.536 E6.71766
G1 X130.636 Y121.653 E6.72317
G1 X130.18 Y122.052 E6.74332
G1 X129.675 Y122.388 E6.76349
G1 X129.131 Y122.655 E6.78365
G1 X128.556 Y122.848 E6.80382
G1 X127.961 Y122.964 E6.82399
G1 X127.383 Y123 E6.84325
G1 X117.36 Y123 E7.17661
G1 X117.36 Y124.285 E7.21935
G1 X117.32 Y124.89 E7.23952
G1 X117.2 Y125.484 E7.25967
G1 X117.004 Y126.058 E7.27985
G1 X116.734 Y126.6 E7.29999
G1 X116.394 Y127.103 E7.32018
G1 X116.013 Y127.536 E7.33936
G1 X115.896 Y127.653 E7.34487
G1 X115.44 Y128.052 E7.36502
G1 X114.935 Y128.388 E7.3852
G1 X114.391 Y128.655 E7.40535
G1 X113.816 Y128.848 E7.42552
G1 X113.221 Y128.964 E7.44569
G1 X112.643 Y129 E7.46495
G1 X106.356 Y129 E7.67405
G1 X105.751 Y128.96 E7.69422
G1 X105.157 Y128.841 E7.71437
G1 X104.583 Y128.645 E7.73454
G1 X104.04 Y128.374 E7.75473
G1 X103.537 Y128.035 E7.7749
G1 X103.103 Y127.653 E7.79413
G1 X102.986 Y127.536 E7.79964
G1 X102.587 Y127.08 E7.81979
G1 X102.251 Y126.575 E7.83996
G1 X101.984 Y126.031 E7.86012
G1 X101.791 Y125.456 E7.88029
G1 X101.675 Y124.861 E7.90045
G1 X101.639 Y124.281 E7.91978
G1 X101.639 Y123 E7.96239
G1 X97.617 Y123 E8.09616
G1 X97.012 Y122.96 E8.11633
G1 X96.418 Y122.841 E8.13648
G1 X95.844 Y122.645 E8.15665
G1 X95.301 Y122.374 E8.17683
G1 X94.798 Y122.035 E8.19701
G1 X94.364 Y121.653 E8.21624
G1 X94.247 Y121.536 E8.22174
G1 X93.848 Y121.08 E8.2419
G1 X93.512 Y120.575 E8.26207
G1 X93.245 Y120.031 E8.28222
G1 X93.052 Y119.456 E8.3024
G1 X92.936 Y118.861 E8.32256
G1 X92.9 Y118.283 E8.34182
G1 X92.9 Y110.717 E8.59347
G1 X92.94 Y110.112 E8.61363
G1 X93.059 Y109.518 E8.63378
G1 X93.255 Y108.944 E8.65396
G1 X93.526 Y108.401 E8.67414
G1 X93.865 Y107.898 E8.69432
G1 X94.247 Y107.464 E8.71355
G1 X94.364 Y107.347 E8.71905
G0 F6000 X94.647 Y107.63
G1 F1200 X95.084 Y107.25 E8.73831
G1 X95.569 Y106.933 E8.75758
G1 X96.093 Y106.686 E8.77685
G1 X96.646 Y106.514 E8.79611
G1 X97.218 Y106.419 E8.8154
G1 X97.617 Y106.4 E8.82868
G1 X137.383 Y106.4 E10.15131
G1 X137.961 Y106.44 E10.17058
G1 X138.528 Y106.559 E10.18985
G1 X139.073 Y106.755 E10.20911
G1 X139.586 Y107.024 E10.22837
G1 X140.057 Y107.361 E10.24764
G1 X140.353 Y107.63 E10.26094
G1 X140.47 Y107.747 E10.26644
G1 X140.85 Y108.184 E10.2857
G1 X141.167 Y108.669 E10.30498
G1 X141.414 Y109.193 E10.32424
G1 X141.586 Y109.746 E10.34351
G1 X141.681 Y110.318 E10.36279
G1 X141.7 Y110.717 E10.37608
G1 X141.7 Y113.471 E10.46768
G1 X141.66 Y114.049 E10.48695
G1 X141.541 Y114.616 E10.50621
G1 X141.345 Y115.161 E10.52548
G1 X141.076 Y115.674 E10.54474
G1 X140.616 Y116.287 E10.57023
G1 X140.513 Y116.401 E10.57534
G1 X140.096 Y116.803 E10.59461
G1 X139.628 Y117.144 E10.61387
G1 X139.117 Y117.417 E10.63314
G1 X138.573 Y117.617 E10.65242
G1 X138.007 Y117.74 E10.67168
G1 X137.399 Y117.785 E10.69196
G1 X131.7 Y117.788 E10.88151
G1 X131.7 Y118.283 E10.89797
G1 X131.66 Y118.861 E10.91724
G1 X131.541 Y119.428 E10.93651
G1 X131.345 Y119.973 E10.95577
G1 X131.076 Y120.486 E10.97504
G1 X130.739 Y120.957 E10.9943
G1 X130.47 Y121.253 E11.00761
G1 X130.353 Y121.37 E11.01311
G1 X129.916 Y121.75 E11.03237
G1 X129.431 Y122.067 E11.05164
G1 X128.907 Y122.314 E11.07091
G1 X128.354 Y122.486 E11.09017
G1 X127.782 Y122.581 E11.10946
G1 X127.383 Y122.6 E11.12274
G1 X116.961 Y122.6 E11.46938
G1 X116.96 Y124.285 E11.52542
G1 X116.92 Y124.862 E11.54466
G1 X116.801 Y125.429 E11.56393
G1 X116.604 Y125.974 E11.5832
G1 X116.335 Y126.487 E11.60247
G1 X115.998 Y126.958 E11.62173
G1 X115.73 Y127.253 E11.63499
G1 X115.613 Y127.37 E11.64049
G1 X115.176 Y127.75 E11.65975
G1 X114.691 Y128.067 E11.67902
G1 X114.167 Y128.314 E11.69829
G1 X113.614 Y128.486 E11.71755
G1 X113.042 Y128.581 E11.73684
G1 X112.643 Y128.6 E11.75013
G1 X106.356 Y128.6 E11.95923
G1 X105.778 Y128.56 E11.9785
G1 X105.211 Y128.441 E11.99777
G1 X104.666 Y128.245 E12.01703
G1 X104.153 Y127.976 E12.0363
G1 X103.682 Y127.639 E12.05556
G1 X103.386 Y127.37 E12.06887
G1 X103.269 Y127.253 E12.07437
G1 X102.889 Y126.816 E12.09363
G1 X102.572 Y126.331 E12.1129
G1 X102.325 Y125.807 E12.13217
G1 X102.153 Y125.254 E12.15143
G1 X102.058 Y124.682 E12.17072
G1 X102.039 Y124.281 E12.18407
G1 X102.04 Y122.6 E12.23998
G1 X97.617 Y122.6 E12.38709
G1 X97.039 Y122.56 E12.40636
G1 X96.472 Y122.441 E12.42563
G1 X95.927 Y122.245 E12.44489
G1 X95.414 Y121.976 E12.46416
G1 X94.943 Y121.639 E12.48342
G1 X94.647 Y121.37 E12.49672
G1 X94.53 Y121.253 E12.50223
G1 X94.15 Y120.816 E12.52149
G1 X93.833 Y120.331 E12.54076
G1 X93.586 Y119.807 E12.56003
G1 X93.414 Y119.254 E12.57929
G1 X93.319 Y118.682 E12.59857
G1 X93.3 Y118.283 E12.61186
G1 X93.3 Y110.717 E12.86351
G1 X93.34 Y110.139 E12.88278
G1 X93.459 Y109.572 E12.90205
G1 X93.655 Y109.027 E12.92131
G1 X93.924 Y108.514 E12.94058
G1 X94.261 Y108.043 E12.95984
G1 X94.53 Y107.747 E12.97314
G1 X94.647 Y107.63 E12.97864
G0 F6000 X94.93 Y107.913
G1 F1200 X95.347 Y107.553 E12.99697
G1 X95.811 Y107.256 E13.01529
G1 X96.314 Y107.03 E13.03363
G1 X96.844 Y106.879 E13.05196
G1 X97.617 Y106.8 E13.0778
G1 X137.383 Y106.8 E14.40043
G1 X137.933 Y106.84 E14.41877
G1 X138.471 Y106.959 E14.4371
G1 X138.986 Y107.155 E14.45542
G1 X139.467 Y107.423 E14.47374
G1 X140.07 Y107.913 E14.49958
G1 X140.187 Y108.03 E14.50508
G1 X140.547 Y108.447 E14.52341
G1 X140.844 Y108.911 E14.54173
G1 X141.07 Y109.414 E14.56007
G1 X141.221 Y109.944 E14.5784
G1 X141.3 Y110.717 E14.60424
G1 X141.3 Y113.471 E14.69584
G1 X141.26 Y114.021 E14.71418
G1 X141.141 Y114.559 E14.73251
G1 X140.945 Y115.074 E14.75084
G1 X140.677 Y115.555 E14.76915
G1 X140.32 Y116.019 E14.78862
G1 X140.217 Y116.133 E14.79373
G1 X139.819 Y116.514 E14.81206
G1 X139.37 Y116.833 E14.83038
G1 X138.879 Y117.084 E14.84872
G1 X138.358 Y117.262 E14.86703
G1 X137.816 Y117.362 E14.88536
G1 X137.399 Y117.385 E14.89925
G1 X131.3 Y117.388 E15.10211
G1 X131.3 Y118.283 E15.13187
G1 X131.26 Y118.833 E15.15021
G1 X131.141 Y119.371 E15.16854
G1 X130.945 Y119.886 E15.18687
G1 X130.677 Y120.367 E15.20518
G1 X130.187 Y120.97 E15.23102
G1 X130.07 Y121.087 E15.23653
G1 X129.653 Y121.447 E15.25485
G1 X129.189 Y121.744 E15.27317
G1 X128.686 Y121.97 E15.29152
G1 X128.156 Y122.121 E15.30984
G1 X127.383 Y122.2 E15.33569
G1 X116.561 Y122.2 E15.69563
G1 X116.56 Y124.284 E15.76494
G1 X116.52 Y124.834 E15.78329
G1 X116.401 Y125.372 E15.80161
G1 X116.205 Y125.887 E15.81994
G1 X115.937 Y126.368 E15.83825
G1 X115.447 Y126.97 E15.86407
G1 X115.33 Y127.087 E15.86957
G1 X114.913 Y127.447 E15.8879
G1 X114.449 Y127.744 E15.90622
G1 X113.946 Y127.97 E15.92456
G1 X113.416 Y128.121 E15.94289
G1 X112.643 Y128.2 E15.96873
G1 X106.356 Y128.2 E16.17784
G1 X105.806 Y128.16 E16.19618
G1 X105.268 Y128.041 E16.21451
G1 X104.753 Y127.845 E16.23284
G1 X104.272 Y127.577 E16.25115
G1 X103.669 Y127.087 E16.27699
G1 X103.552 Y126.97 E16.2825
G1 X103.192 Y126.553 E16.30082
G1 X102.895 Y126.089 E16.31914
G1 X102.669 Y125.586 E16.33748
G1 X102.518 Y125.056 E16.35581
G1 X102.439 Y124.282 E16.38169
G1 X102.44 Y122.2 E16.45094
G1 X97.617 Y122.2 E16.61135
G1 X97.067 Y122.16 E16.62969
G1 X96.529 Y122.041 E16.64802
G1 X96.014 Y121.845 E16.66635
G1 X95.533 Y121.577 E16.68466
G1 X94.93 Y121.087 E16.7105
G1 X94.813 Y120.97 E16.71601
G1 X94.453 Y120.553 E16.73433
G1 X94.156 Y120.089 E16.75265
G1 X93.93 Y119.586 E16.77099
G1 X93.779 Y119.056 E16.78932
G1 X93.7 Y118.283 E16.81517
G1 X93.7 Y110.717 E17.06681
G1 X93.74 Y110.167 E17.08515
G1 X93.859 Y109.629 E17.10348
G1 X94.055 Y109.114 E17.12181
G1 X94.323 Y108.633 E17.14012
G1 X94.813 Y108.03 E17.16596
G1 X94.93 Y107.913 E17.17147
G0 F6000 X95.213 Y108.196
G1 F1200 X95.609 Y107.857 E17.18881
G1 X96.051 Y107.582 E17.20612
G1 X96.531 Y107.378 E17.22347
G1 X97.036 Y107.25 E17.24079
G1 X97.617 Y107.2 E17.26019
G1 X137.383 Y107.2 E18.58281
G1 X137.903 Y107.24 E18.60016
G1 X138.41 Y107.359 E18.61748
G1 X138.893 Y107.554 E18.6348
G1 X139.341 Y107.82 E18.65213
G1 X139.787 Y108.196 E18.67154
G1 X139.904 Y108.313 E18.67704
G1 X140.243 Y108.709 E18.69438
G1 X140.518 Y109.151 E18.71169
G1 X140.722 Y109.631 E18.72904
G1 X140.85 Y110.136 E18.74637
G1 X140.9 Y110.717 E18.76576
G1 X140.9 Y113.471 E18.85736
G1 X140.86 Y113.991 E18.87471
G1 X140.741 Y114.498 E18.89203
G1 X140.546 Y114.981 E18.90935
G1 X140.28 Y115.429 E18.92668
G1 X140.023 Y115.75 E18.94036
G1 X139.92 Y115.864 E18.94547
G1 X139.542 Y116.223 E18.96281
G1 X139.113 Y116.52 E18.98016
G1 X138.645 Y116.748 E18.99748
G1 X138.147 Y116.901 E19.0148
G1 X137.399 Y116.985 E19.03984
G1 X130.9 Y116.988 E19.256
G1 X130.9 Y118.283 E19.29907
G1 X130.86 Y118.803 E19.31641
G1 X130.741 Y119.31 E19.33374
G1 X130.546 Y119.793 E19.35106
G1 X130.28 Y120.241 E19.36839
G1 X129.904 Y120.687 E19.38779
G1 X129.787 Y120.804 E19.39329
G1 X129.391 Y121.143 E19.41063
G1 X128.949 Y121.418 E19.42795
G1 X128.469 Y121.622 E19.44529
G1 X127.964 Y121.75 E19.46262
G1 X127.383 Y121.8 E19.48202
G1 X116.161 Y121.8 E19.85526
G1 X116.16 Y124.284 E19.93788
G1 X116.12 Y124.804 E19.95523
G1 X116.001 Y125.311 E19.97255
G1 X115.806 Y125.794 E19.98987
G1 X115.539 Y126.242 E20.00722
G1 X115.164 Y126.687 E20.02657
G1 X115.047 Y126.804 E20.03208
G1 X114.651 Y127.143 E20.04941
G1 X114.209 Y127.418 E20.06673
G1 X113.729 Y127.622 E20.08408
G1 X113.224 Y127.75 E20.1014
G1 X112.643 Y127.8 E20.1208
G1 X106.356 Y127.8 E20.32991
G1 X105.836 Y127.76 E20.34725
G1 X105.329 Y127.641 E20.36457
G1 X104.846 Y127.446 E20.3819
G1 X104.398 Y127.18 E20.39923
G1 X103.952 Y126.804 E20.41863
G1 X103.835 Y126.687 E20.42413
G1 X103.496 Y126.291 E20.44147
G1 X103.221 Y125.849 E20.45878
G1 X103.017 Y125.369 E20.47613
G1 X102.889 Y124.864 E20.49346
G1 X102.839 Y124.282 E20.51289
G1 X102.84 Y121.8 E20.59544
G1 X97.617 Y121.8 E20.76916
G1 X97.097 Y121.76 E20.7865
G1 X96.59 Y121.641 E20.80382
G1 X96.107 Y121.446 E20.82115
G1 X95.659 Y121.18 E20.83848
G1 X95.213 Y120.804 E20.85788
G1 X95.096 Y120.687 E20.86338
G1 X94.757 Y120.291 E20.88072
G1 X94.482 Y119.849 E20.89803
G1 X94.278 Y119.369 E20.91538
G1 X94.15 Y118.864 E20.93271
G1 X94.1 Y118.283 E20.9521
G1 X94.1 Y110.717 E21.20375
G1 X94.14 Y110.197 E21.2211
G1 X94.259 Y109.69 E21.23842
G1 X94.454 Y109.207 E21.25574
G1 X94.72 Y108.759 E21.27307
G1 X95.096 Y108.313 E21.29247
G1 X95.213 Y108.196 E21.29798
G0 F6000 X95.496 Y108.479
G1 F1200 X95.869 Y108.162 E21.31426
G1 X96.289 Y107.91 E21.33055
G1 X96.744 Y107.73 E21.34682
G1 X97.222 Y107.626 E21.36309
G1 X97.617 Y107.6 E21.37626
G1 X137.383 Y107.6 E22.69888
G1 X137.871 Y107.64 E22.71517
G1 X138.346 Y107.759 E22.73146
G1 X138.795 Y107.953 E22.74772
G1 X139.207 Y108.218 E22.76402
G1 X139.504 Y108.479 E22.77717
G1 X139.621 Y108.596 E22.78267
G1 X139.938 Y108.969 E22.79895
G1 X140.19 Y109.389 E22.81524
G1 X140.37 Y109.844 E22.83152
G1 X140.474 Y110.322 E22.84779
G1 X140.5 Y110.717 E22.86095
G1 X140.5 Y113.471 E22.95255
G1 X140.46 Y113.959 E22.96884
G1 X140.341 Y114.434 E22.98512
G1 X140.147 Y114.883 E23.00139
G1 X139.726 Y115.482 E23.02574
G1 X139.623 Y115.596 E23.03085
G1 X139.266 Y115.931 E23.04714
G1 X138.86 Y116.204 E23.06341
G1 X138.414 Y116.407 E23.07971
G1 X137.942 Y116.535 E23.09597
