;FLAVOR:Marlin
;TIME:255
;Filament used: 0.097972m
;Layer height: 0.2
;MINX:105.953
;MINY:105.953
;MINZ:0.2
;MAXX:129.047
;MAXY:129.047
;MAXZ:6
;Generated with Cura_SteamEngine 4.6.2
M140 S70
M105
M190 S70
M104 S210
M105
M109 S210
M82 ;absolute extrusion mode
; Ender 3 Custom Start G-code
G92 E0 ; Reset Extruder
G28 ; Home all axes
G1 Z2.0 F3000 ; Move Z Axis up little to prevent scratching of Heat Bed
G1 X0.1 Y20 Z0.3 F5000.0 ; Move to start position
G1 X0.1 Y200.0 Z0.3 F1500.0 E15 ; Draw the first line
G1 X0.4 Y200.0 Z0.3 F5000.0 ; Move to side a little
G1 X0.4 Y20 Z0.3 F1500.0 E30 ; Draw the second line
G92 E0 ; Reset Extruder
G1 Z2.0 F3000 ; Move Z Axis up little to prevent scratching of Heat Bed
G1 X5 Y20 Z0.3 F5000.0 ; Move over to prevent blob squish
G92 E0
G92 E0
G1 F2700 E-5
;LAYER_COUNT:30
;LAYER:0
M107
G0 F6000 X109.393 Y109.274 Z0.2
;TYPE:SKIRT
G1 F2700 E0
G1 F1200 X109.789 Y108.903 E0.01805
G1 X109.973 Y108.742 E0.02618
G1 X110.313 Y108.46 E0.04087
G1 X110.499 Y108.315 E0.04872
G1 X110.915 Y108.013 E0.06581
G1 X111.111 Y107.88 E0.07369
G1 X111.493 Y107.637 E0.08875
G1 X111.694 Y107.517 E0.09654
G1 X112.164 Y107.257 E0.1144
G1 X112.375 Y107.15 E0.12227
G1 X112.803 Y106.95 E0.13798
G1 X113.02 Y106.856 E0.14585
G1 X113.505 Y106.664 E0.1632
G1 X113.727 Y106.585 E0.17103
G1 X114.155 Y106.447 E0.18599
G1 X114.381 Y106.381 E0.19382
G1 X114.802 Y106.271 E0.2083
G1 X115.03 Y106.218 E0.21608
G1 X115.642 Y106.101 E0.2368
G1 X115.876 Y106.066 E0.24467
G1 X116.273 Y106.017 E0.25798
G1 X116.509 Y105.994 E0.26586
G1 X117.033 Y105.96 E0.28333
G1 X117.267 Y105.953 E0.29112
G1 X117.733 Y105.953 E0.30662
G1 X117.967 Y105.96 E0.3144
G1 X118.491 Y105.994 E0.33187
G1 X118.727 Y106.017 E0.33975
G1 X119.156 Y106.071 E0.35413
G1 X119.39 Y106.107 E0.36201
G1 X119.938 Y106.211 E0.38056
G1 X120.166 Y106.263 E0.38834
G1 X120.619 Y106.381 E0.40391
G1 X120.845 Y106.447 E0.41174
G1 X121.273 Y106.585 E0.4267
G1 X121.495 Y106.664 E0.43453
G1 X121.98 Y106.856 E0.45188
G1 X122.197 Y106.95 E0.45975
G1 X122.625 Y107.15 E0.47546
G1 X122.836 Y107.257 E0.48333
G1 X123.306 Y107.517 E0.50119
G1 X123.507 Y107.637 E0.50898
G1 X123.881 Y107.875 E0.52373
G1 X124.076 Y108.007 E0.53156
G1 X124.5 Y108.314 E0.54897
G1 X124.686 Y108.459 E0.55681
G1 X125.01 Y108.727 E0.5708
G1 X125.187 Y108.881 E0.5786
G1 X125.582 Y109.25 E0.59658
G1 X125.742 Y109.41 E0.6041
G1 X126.095 Y109.786 E0.62126
G1 X126.25 Y109.963 E0.62908
G1 X126.534 Y110.306 E0.64389
G1 X126.679 Y110.492 E0.65174
G1 X126.966 Y110.886 E0.66795
G1 X127.1 Y111.082 E0.67585
G1 X127.349 Y111.471 E0.69121
G1 X127.469 Y111.671 E0.69897
G1 X127.738 Y112.156 E0.71741
G1 X127.845 Y112.367 E0.72528
G1 X128.033 Y112.767 E0.73998
G1 X128.128 Y112.984 E0.74786
G1 X128.328 Y113.486 E0.76583
G1 X128.407 Y113.707 E0.77364
G1 X128.54 Y114.116 E0.78795
G1 X128.607 Y114.342 E0.79579
G1 X128.726 Y114.793 E0.8113
G1 X128.779 Y115.021 E0.81908
G1 X128.891 Y115.596 E0.83857
G1 X128.927 Y115.829 E0.84641
G1 X128.981 Y116.263 E0.86096
G1 X129.004 Y116.499 E0.86884
G1 X129.036 Y116.991 E0.88524
G1 X129.044 Y117.226 E0.89306
G1 X129.047 Y117.658 E0.90743
G1 X129.042 Y117.892 E0.91522
G1 X129.01 Y118.452 E0.93387
G1 X128.988 Y118.687 E0.94172
G1 X128.931 Y119.146 E0.95711
G1 X128.895 Y119.38 E0.96498
G1 X128.796 Y119.907 E0.98281
G1 X128.744 Y120.138 E0.99069
G1 X128.625 Y120.599 E1.00653
G1 X128.56 Y120.823 E1.01428
G1 X128.432 Y121.224 E1.02828
G1 X128.354 Y121.447 E1.03614
G1 X128.143 Y121.984 E1.05533
G1 X128.049 Y122.2 E1.06317
G1 X127.88 Y122.563 E1.07648
G1 X127.775 Y122.774 E1.08432
G1 X127.483 Y123.307 E1.10454
G1 X127.362 Y123.509 E1.11237
G1 X127.141 Y123.858 E1.12611
G1 X127.009 Y124.054 E1.13397
G1 X126.707 Y124.472 E1.15112
G1 X126.563 Y124.658 E1.15894
G1 X126.279 Y125.003 E1.1738
G1 X126.125 Y125.18 E1.18161
G1 X125.773 Y125.559 E1.19881
G1 X125.607 Y125.726 E1.20664
G1 X125.211 Y126.097 E1.22469
G1 X125.027 Y126.258 E1.23282
G1 X124.687 Y126.54 E1.24752
G1 X124.501 Y126.685 E1.25536
G1 X124.085 Y126.987 E1.27246
G1 X123.889 Y127.12 E1.28034
G1 X123.507 Y127.363 E1.29539
G1 X123.306 Y127.483 E1.30318
G1 X122.836 Y127.743 E1.32104
G1 X122.625 Y127.85 E1.32891
G1 X122.197 Y128.05 E1.34463
G1 X121.98 Y128.144 E1.35249
G1 X121.495 Y128.336 E1.36984
G1 X121.273 Y128.415 E1.37768
G1 X120.845 Y128.553 E1.39264
G1 X120.619 Y128.619 E1.40047
G1 X120.198 Y128.729 E1.41494
G1 X119.97 Y128.782 E1.42272
G1 X119.358 Y128.899 E1.44345
G1 X119.124 Y128.934 E1.45132
G1 X118.727 Y128.983 E1.46462
G1 X118.491 Y129.006 E1.47251
G1 X117.967 Y129.04 E1.48997
G1 X117.733 Y129.047 E1.49776
G1 X117.267 Y129.047 E1.51326
G1 X117.033 Y129.04 E1.52105
G1 X116.509 Y129.006 E1.53851
G1 X116.273 Y128.983 E1.5464
G1 X115.844 Y128.929 E1.56078
G1 X115.61 Y128.893 E1.56865
G1 X115.062 Y128.789 E1.5872
G1 X114.834 Y128.737 E1.59498
G1 X114.381 Y128.619 E1.61055
G1 X114.155 Y128.553 E1.61838
G1 X113.727 Y128.415 E1.63334
G1 X113.505 Y128.336 E1.64118
G1 X113.02 Y128.144 E1.65853
G1 X112.803 Y128.05 E1.66639
G1 X112.375 Y127.85 E1.6821
G1 X112.164 Y127.743 E1.68997
G1 X111.694 Y127.483 E1.70784
G1 X111.493 Y127.363 E1.71562
G1 X111.111 Y127.12 E1.73068
G1 X110.915 Y126.987 E1.73856
G1 X110.499 Y126.685 E1.75566
G1 X110.313 Y126.54 E1.7635
G1 X109.989 Y126.272 E1.77749
G1 X109.812 Y126.118 E1.78529
G1 X109.417 Y125.749 E1.80327
G1 X109.257 Y125.589 E1.8108
G1 X108.904 Y125.213 E1.82795
G1 X108.749 Y125.036 E1.83577
G1 X108.465 Y124.693 E1.85059
G1 X108.32 Y124.507 E1.85843
G1 X108.028 Y124.106 E1.87493
G1 X107.895 Y123.911 E1.88278
G1 X107.656 Y123.539 E1.89748
G1 X107.535 Y123.338 E1.90529
G1 X107.255 Y122.83 E1.92458
G1 X107.149 Y122.62 E1.9324
G1 X106.967 Y122.233 E1.94663
G1 X106.872 Y122.016 E1.95451
G1 X106.668 Y121.503 E1.97287
G1 X106.589 Y121.281 E1.98071
G1 X106.462 Y120.892 E1.99432
G1 X106.395 Y120.667 E2.00213
G1 X106.274 Y120.207 E2.01795
G1 X106.221 Y119.979 E2.02573
G1 X106.109 Y119.399 E2.04538
G1 X106.073 Y119.165 E2.05325
G1 X106.019 Y118.736 E2.06763
G1 X105.996 Y118.5 E2.07552
G1 X105.964 Y118.01 E2.09185
G1 X105.956 Y117.776 E2.09964
G1 X105.953 Y117.342 E2.11408
G1 X105.958 Y117.108 E2.12186
G1 X105.99 Y116.548 E2.14052
G1 X106.012 Y116.313 E2.14837
G1 X106.069 Y115.854 E2.16375
G1 X106.105 Y115.62 E2.17162
G1 X106.204 Y115.093 E2.18946
G1 X106.256 Y114.862 E2.19733
G1 X106.375 Y114.401 E2.21317
G1 X106.44 Y114.177 E2.22093
G1 X106.568 Y113.776 E2.23493
G1 X106.646 Y113.553 E2.24279
G1 X106.857 Y113.016 E2.26198
G1 X106.951 Y112.8 E2.26981
G1 X107.126 Y112.424 E2.2836
G1 X107.232 Y112.212 E2.29149
G1 X107.512 Y111.702 E2.31084
G1 X107.632 Y111.501 E2.31863
G1 X107.859 Y111.142 E2.33275
G1 X107.991 Y110.946 E2.34061
G1 X108.293 Y110.528 E2.35776
G1 X108.437 Y110.342 E2.36559
G1 X108.721 Y109.997 E2.38045
G1 X108.875 Y109.82 E2.38825
G1 X109.227 Y109.441 E2.40546
G1 X109.393 Y109.274 E2.41329
G0 F6000 X109.677 Y109.556
G1 F1200 X110.052 Y109.204 E2.43039
G1 X110.236 Y109.043 E2.43853
G1 X110.559 Y108.776 E2.45247
G1 X110.745 Y108.631 E2.46031
G1 X111.14 Y108.344 E2.47655
G1 X111.336 Y108.211 E2.48443
G1 X111.698 Y107.98 E2.49871
G1 X111.899 Y107.86 E2.5065
G1 X112.345 Y107.614 E2.52344
G1 X112.556 Y107.507 E2.53131
G1 X112.962 Y107.317 E2.54621
G1 X113.179 Y107.223 E2.55408
G1 X113.639 Y107.041 E2.57053
G1 X113.861 Y106.962 E2.57837
G1 X114.268 Y106.831 E2.59259
G1 X114.494 Y106.765 E2.60042
G1 X114.892 Y106.66 E2.61411
G1 X115.12 Y106.607 E2.6219
G1 X115.701 Y106.496 E2.64157
G1 X115.935 Y106.461 E2.64944
G1 X116.312 Y106.415 E2.66207
G1 X116.548 Y106.392 E2.66996
G1 X117.045 Y106.36 E2.68652
G1 X117.279 Y106.353 E2.69431
G1 X117.721 Y106.353 E2.70901
G1 X117.955 Y106.36 E2.7168
G1 X118.452 Y106.392 E2.73336
G1 X118.688 Y106.415 E2.74125
G1 X119.095 Y106.466 E2.75489
G1 X119.329 Y106.502 E2.76277
G1 X119.849 Y106.601 E2.78037
G1 X120.077 Y106.653 E2.78815
G1 X120.506 Y106.765 E2.8029
G1 X120.732 Y106.831 E2.81073
G1 X121.139 Y106.962 E2.82495
G1 X121.361 Y107.041 E2.83279
G1 X121.821 Y107.223 E2.84924
G1 X122.038 Y107.317 E2.85711
G1 X122.444 Y107.507 E2.87201
G1 X122.655 Y107.614 E2.87988
G1 X123.101 Y107.86 E2.89682
G1 X123.302 Y107.98 E2.90461
G1 X123.657 Y108.206 E2.91861
G1 X123.852 Y108.338 E2.92644
G1 X124.254 Y108.63 E2.94296
G1 X124.44 Y108.775 E2.95081
G1 X124.747 Y109.028 E2.96404
G1 X124.924 Y109.182 E2.97184
G1 X125.3 Y109.532 E2.98893
G1 X125.46 Y109.692 E2.99645
G1 X125.794 Y110.05 E3.01274
G1 X125.949 Y110.227 E3.02056
G1 X126.218 Y110.552 E3.0346
G1 X126.363 Y110.738 E3.04244
G1 X126.636 Y111.112 E3.05784
G1 X126.77 Y111.308 E3.06574
G1 X127.006 Y111.677 E3.08031
G1 X127.126 Y111.877 E3.08806
G1 X127.381 Y112.337 E3.10556
G1 X127.488 Y112.548 E3.11343
G1 X127.667 Y112.927 E3.12737
G1 X127.762 Y113.144 E3.13525
G1 X127.951 Y113.621 E3.15231
G1 X128.03 Y113.842 E3.16012
G1 X128.157 Y114.23 E3.1737
G1 X128.224 Y114.456 E3.18154
G1 X128.337 Y114.883 E3.19623
G1 X128.39 Y115.111 E3.20401
G1 X128.495 Y115.657 E3.2225
G1 X128.531 Y115.89 E3.23035
G1 X128.583 Y116.302 E3.24416
G1 X128.606 Y116.538 E3.25204
G1 X128.637 Y117.004 E3.26758
G1 X128.645 Y117.239 E3.2754
G1 X128.647 Y117.649 E3.28904
G1 X128.642 Y117.883 E3.29682
G1 X128.612 Y118.415 E3.31454
G1 X128.59 Y118.65 E3.32239
G1 X128.536 Y119.085 E3.33697
G1 X128.5 Y119.319 E3.34485
G1 X128.405 Y119.819 E3.36177
G1 X128.353 Y120.05 E3.36965
G1 X128.241 Y120.487 E3.38465
G1 X128.176 Y120.711 E3.39241
G1 X128.054 Y121.092 E3.40572
G1 X127.976 Y121.315 E3.41358
G1 X127.776 Y121.825 E3.4318
G1 X127.682 Y122.041 E3.43963
G1 X127.522 Y122.385 E3.45225
G1 X127.417 Y122.596 E3.46009
G1 X127.14 Y123.102 E3.47927
G1 X127.019 Y123.304 E3.48711
G1 X126.809 Y123.635 E3.50014
G1 X126.677 Y123.831 E3.508
G1 X126.39 Y124.227 E3.52427
G1 X126.246 Y124.413 E3.53209
G1 X125.978 Y124.74 E3.54616
G1 X125.824 Y124.917 E3.55396
G1 X125.489 Y125.277 E3.57032
G1 X125.323 Y125.444 E3.57815
G1 X124.948 Y125.796 E3.59525
G1 X124.764 Y125.957 E3.60339
G1 X124.441 Y126.224 E3.61732
G1 X124.255 Y126.369 E3.62517
G1 X123.86 Y126.656 E3.64141
G1 X123.664 Y126.789 E3.64929
G1 X123.302 Y127.02 E3.66357
G1 X123.101 Y127.14 E3.67135
G1 X122.655 Y127.386 E3.68829
G1 X122.444 Y127.493 E3.69616
G1 X122.038 Y127.683 E3.71107
G1 X121.821 Y127.777 E3.71894
G1 X121.361 Y127.959 E3.73539
G1 X121.139 Y128.038 E3.74323
G1 X120.732 Y128.169 E3.75745
G1 X120.506 Y128.235 E3.76528
G1 X120.108 Y128.34 E3.77897
G1 X119.88 Y128.393 E3.78676
G1 X119.299 Y128.504 E3.80643
G1 X119.065 Y128.539 E3.8143
G1 X118.688 Y128.585 E3.82693
G1 X118.452 Y128.608 E3.83482
G1 X117.955 Y128.64 E3.85138
G1 X117.721 Y128.647 E3.85917
G1 X117.279 Y128.647 E3.87387
G1 X117.045 Y128.64 E3.88166
G1 X116.548 Y128.608 E3.89822
G1 X116.312 Y128.585 E3.90611
G1 X115.905 Y128.534 E3.91975
G1 X115.671 Y128.498 E3.92762
G1 X115.151 Y128.399 E3.94523
G1 X114.923 Y128.347 E3.95301
G1 X114.494 Y128.235 E3.96776
G1 X114.268 Y128.169 E3.97559
G1 X113.861 Y128.038 E3.98981
G1 X113.639 Y127.959 E3.99764
G1 X113.179 Y127.777 E4.0141
G1 X112.962 Y127.683 E4.02196
G1 X112.556 Y127.493 E4.03687
G1 X112.345 Y127.386 E4.04474
G1 X111.899 Y127.14 E4.06168
G1 X111.698 Y127.02 E4.06947
G1 X111.336 Y126.789 E4.08375
G1 X111.14 Y126.656 E4.09163
G1 X110.745 Y126.369 E4.10787
G1 X110.559 Y126.224 E4.11571
G1 X110.252 Y125.971 E4.12894
G1 X110.075 Y125.817 E4.13675
G1 X109.699 Y125.467 E4.15383
G1 X109.539 Y125.307 E4.16136
G1 X109.205 Y124.949 E4.17764
G1 X109.05 Y124.772 E4.18547
G1 X108.781 Y124.447 E4.1995
G1 X108.636 Y124.261 E4.20734
G1 X108.359 Y123.881 E4.22299
G1 X108.226 Y123.686 E4.23084
G1 X107.999 Y123.333 E4.24479
G1 X107.878 Y123.132 E4.2526
G1 X107.612 Y122.65 E4.27091
G1 X107.506 Y122.44 E4.27873
G1 X107.333 Y122.073 E4.29223
G1 X107.238 Y121.856 E4.30011
G1 X107.045 Y121.369 E4.31753
G1 X106.966 Y121.147 E4.32537
G1 X106.846 Y120.778 E4.33827
G1 X106.779 Y120.553 E4.34608
G1 X106.663 Y120.117 E4.36109
G1 X106.61 Y119.889 E4.36887
G1 X106.504 Y119.338 E4.38753
G1 X106.468 Y119.104 E4.39541
G1 X106.417 Y118.697 E4.40905
G1 X106.394 Y118.461 E4.41694
G1 X106.363 Y117.996 E4.43244
G1 X106.355 Y117.762 E4.44023
G1 X106.353 Y117.351 E4.4539
G1 X106.358 Y117.117 E4.46168
G1 X106.388 Y116.585 E4.4794
G1 X106.41 Y116.35 E4.48725
G1 X106.464 Y115.915 E4.50183
G1 X106.5 Y115.681 E4.50971
G1 X106.595 Y115.181 E4.52663
G1 X106.647 Y114.95 E4.53451
G1 X106.759 Y114.513 E4.54951
G1 X106.824 Y114.289 E4.55727
G1 X106.946 Y113.908 E4.57058
G1 X107.024 Y113.685 E4.57844
G1 X107.224 Y113.175 E4.59666
G1 X107.318 Y112.959 E4.60449
G1 X107.484 Y112.603 E4.61756
G1 X107.59 Y112.391 E4.62544
G1 X107.855 Y111.907 E4.64379
G1 X107.975 Y111.706 E4.65158
G1 X108.191 Y111.365 E4.665
G1 X108.323 Y111.169 E4.67286
G1 X108.61 Y110.773 E4.68913
G1 X108.754 Y110.587 E4.69695
G1 X109.022 Y110.26 E4.71102
G1 X109.176 Y110.083 E4.71882
G1 X109.511 Y109.723 E4.73517
G1 X109.677 Y109.556 E4.74301
G0 F6000 X109.96 Y109.838
G1 F1200 X110.315 Y109.505 E4.7592
G1 X110.499 Y109.344 E4.76733
G1 X110.805 Y109.091 E4.78053
G1 X110.991 Y108.946 E4.78838
G1 X111.364 Y108.675 E4.80371
G1 X111.56 Y108.542 E4.81159
G1 X111.903 Y108.324 E4.82511
G1 X112.104 Y108.204 E4.83289
G1 X112.526 Y107.971 E4.84893
G1 X112.737 Y107.864 E4.8568
G1 X113.121 Y107.684 E4.8709
G1 X113.338 Y107.59 E4.87877
G1 X113.773 Y107.418 E4.89432
G1 X113.995 Y107.339 E4.90216
G1 X114.38 Y107.215 E4.91561
G1 X114.606 Y107.149 E4.92345
G1 X114.983 Y107.05 E4.93641
G1 X115.211 Y106.997 E4.94419
G1 X115.761 Y106.892 E4.96282
G1 X115.995 Y106.857 E4.97069
G1 X116.351 Y106.813 E4.98262
G1 X116.587 Y106.79 E4.9905
G1 X117.057 Y106.76 E5.00617
G1 X117.291 Y106.753 E5.01396
G1 X117.709 Y106.753 E5.02786
G1 X117.943 Y106.76 E5.03564
G1 X118.413 Y106.79 E5.05131
G1 X118.649 Y106.813 E5.0592
G1 X119.034 Y106.861 E5.0721
G1 X119.268 Y106.897 E5.07997
G1 X119.761 Y106.991 E5.09667
G1 X119.989 Y107.043 E5.10444
G1 X120.394 Y107.149 E5.11837
G1 X120.62 Y107.215 E5.1262
G1 X121.005 Y107.339 E5.13965
G1 X121.227 Y107.418 E5.14749
G1 X121.662 Y107.59 E5.16305
G1 X121.879 Y107.684 E5.17091
G1 X122.263 Y107.864 E5.18502
G1 X122.474 Y107.971 E5.19289
G1 X122.896 Y108.204 E5.20892
G1 X123.097 Y108.324 E5.21671
G1 X123.433 Y108.537 E5.22994
G1 X123.628 Y108.669 E5.23777
G1 X124.008 Y108.945 E5.25339
G1 X124.194 Y109.09 E5.26124
G1 X124.485 Y109.33 E5.27378
G1 X124.662 Y109.484 E5.28158
G1 X125.017 Y109.815 E5.29773
G1 X125.177 Y109.975 E5.30525
G1 X125.493 Y110.313 E5.32064
G1 X125.648 Y110.49 E5.32847
G1 X125.903 Y110.798 E5.34177
G1 X126.048 Y110.984 E5.34961
G1 X126.306 Y111.337 E5.36415
G1 X126.44 Y111.533 E5.37205
G1 X126.663 Y111.883 E5.38585
G1 X126.783 Y112.083 E5.39361
G1 X127.024 Y112.518 E5.41015
G1 X127.131 Y112.729 E5.41802
G1 X127.3 Y113.088 E5.43122
G1 X127.395 Y113.305 E5.4391
G1 X127.575 Y113.756 E5.45525
G1 X127.654 Y113.977 E5.46305
G1 X127.773 Y114.343 E5.47585
G1 X127.84 Y114.569 E5.48369
G1 X127.947 Y114.974 E5.49763
G1 X128 Y115.202 E5.50541
G1 X128.1 Y115.718 E5.52289
G1 X128.136 Y115.951 E5.53074
G1 X128.185 Y116.341 E5.54381
G1 X128.208 Y116.577 E5.5517
G1 X128.237 Y117.018 E5.5664
G1 X128.245 Y117.253 E5.57422
G1 X128.247 Y117.641 E5.58712
G1 X128.242 Y117.875 E5.59491
G1 X128.214 Y118.377 E5.61163
G1 X128.192 Y118.612 E5.61948
G1 X128.141 Y119.024 E5.63329
G1 X128.105 Y119.258 E5.64116
G1 X128.015 Y119.731 E5.65718
G1 X127.963 Y119.962 E5.66505
G1 X127.857 Y120.376 E5.67926
G1 X127.792 Y120.6 E5.68702
G1 X127.676 Y120.96 E5.6996
G1 X127.598 Y121.183 E5.70746
G1 X127.41 Y121.665 E5.72467
G1 X127.316 Y121.881 E5.7325
G1 X127.164 Y122.207 E5.74447
G1 X127.059 Y122.418 E5.7523
G1 X126.797 Y122.896 E5.77043
G1 X126.676 Y123.098 E5.77827
G1 X126.477 Y123.411 E5.7906
G1 X126.345 Y123.607 E5.79846
G1 X126.074 Y123.982 E5.81385
G1 X125.93 Y124.168 E5.82167
G1 X125.676 Y124.478 E5.835
G1 X125.522 Y124.655 E5.84281
G1 X125.206 Y124.995 E5.85825
G1 X125.04 Y125.162 E5.86608
G1 X124.685 Y125.495 E5.88227
G1 X124.501 Y125.656 E5.8904
G1 X124.195 Y125.909 E5.9036
G1 X124.009 Y126.054 E5.91145
G1 X123.636 Y126.325 E5.92678
G1 X123.44 Y126.458 E5.93466
G1 X123.097 Y126.676 E5.94818
