;FLAVOR:Marlin
;TIME:1389
;Filament used: 0.777023m
;Layer height: 0.2
;MINX:86.5
;MINY:101.1
;MINZ:0.2
;MAXX:148.5
;MAXY:130.9
;MAXZ:12
;Generated with Cura_SteamEngine 4.6.2
M140 S50
M105
M190 S50
M104 S200
M105
M109 S200
M82 ;absolute extrusion mode
; Ender 3 Custom Start G-code
G92 E0 ; Reset Extruder
G28 ; Home all axes
G1 Z2.0 F3000 ; Move Z Axis up little to prevent scratching of Heat Bed
G1 X0.1 Y20 Z0.3 F5000.0 ; Move to start position
G1 X0.1 Y200.0 Z0.3 F1500.0 E15 ; Draw the first line
G1 X0.4 Y200.0 Z0.3 F5000.0 ; Move to side a little
G1 X0.4 Y20 Z0.3 F1500.0 E30 ; Draw the second line
G92 E0 ; Reset Extruder
G1 Z2.0 F3000 ; Move Z Axis up little to prevent scratching of Heat Bed
G1 X5 Y20 Z0.3 F5000.0 ; Move over to prevent blob squish
G92 E0
G92 E0
G1 F2700 E-5
;LAYER_COUNT:60
;LAYER:0
M107
G0 F6000 X137.637 Y101.911 Z0.2
;TYPE:SKIRT
G1 F2700 E0
G1 F1200 X138.539 Y101.964 E0.03005
G1 X139.432 Y102.096 E0.06008
G1 X140.31 Y102.307 E0.09011
G1 X141.166 Y102.595 E0.12015
G1 X141.993 Y102.957 E0.15018
G1 X142.785 Y103.392 E0.18023
G1 X143.536 Y103.894 E0.21027
G1 X144.239 Y104.461 E0.24031
G1 X144.889 Y105.088 E0.27035
G1 X145.481 Y105.77 E0.30039
G1 X146.011 Y106.501 E0.33042
G1 X146.473 Y107.277 E0.36046
G1 X146.866 Y108.09 E0.39049
G1 X147.184 Y108.935 E0.42052
G1 X147.427 Y109.805 E0.45056
G1 X147.592 Y110.693 E0.4806
G1 X147.687 Y111.823 E0.51832
G1 X147.7 Y112.43 E0.53851
G1 X147.699 Y114.478 E0.60663
G1 X147.689 Y115.205 E0.63081
G1 X147.637 Y116.107 E0.66086
G1 X147.505 Y117 E0.69089
G1 X147.294 Y117.879 E0.72095
G1 X147.007 Y118.735 E0.75098
G1 X146.645 Y119.562 E0.78101
G1 X146.211 Y120.354 E0.81105
G1 X145.709 Y121.105 E0.84109
G1 X145.143 Y121.808 E0.87111
G1 X144.516 Y122.459 E0.90117
G1 X143.835 Y123.051 E0.93118
G1 X143.104 Y123.581 E0.96121
G1 X142.328 Y124.044 E0.99127
G1 X141.492 Y124.447 E1.02214
G1 X141.347 Y124.509 E1.02738
G1 X138.874 Y125.587 E1.11711
G1 X136.576 Y126.666 E1.20155
G1 X134.329 Y127.799 E1.28525
G1 X132.682 Y128.69 E1.34753
G1 X132.235 Y128.924 E1.36431
G1 X131.417 Y129.307 E1.39435
G1 X130.568 Y129.616 E1.4244
G1 X129.696 Y129.849 E1.45442
G1 X128.806 Y130.004 E1.48447
G1 X127.901 Y130.079 E1.51467
G1 X127.567 Y130.092 E1.52579
G1 X127.17 Y130.1 E1.539
G1 X98.075 Y130.099 E2.5067
G1 X97.377 Y130.09 E2.52992
G1 X96.476 Y130.039 E2.55993
G1 X95.582 Y129.907 E2.58999
G1 X94.704 Y129.698 E2.62001
G1 X93.847 Y129.411 E2.65007
G1 X93.02 Y129.05 E2.68008
G1 X92.227 Y128.617 E2.71013
G1 X91.476 Y128.116 E2.74016
G1 X90.772 Y127.55 E2.7702
G1 X90.121 Y126.924 E2.80024
G1 X89.528 Y126.243 E2.83027
G1 X88.998 Y125.512 E2.86031
G1 X88.534 Y124.737 E2.89035
G1 X88.14 Y123.924 E2.9204
G1 X87.82 Y123.08 E2.95042
G1 X87.576 Y122.21 E2.98047
G1 X87.41 Y121.322 E3.01052
G1 X87.313 Y120.167 E3.04907
G1 X87.3 Y119.558 E3.06933
G1 X87.301 Y112.636 E3.29956
G1 X87.31 Y111.971 E3.32168
G1 X87.362 Y111.069 E3.35173
G1 X87.494 Y110.176 E3.38175
G1 X87.704 Y109.298 E3.41178
G1 X87.991 Y108.441 E3.44184
G1 X88.353 Y107.614 E3.47186
G1 X88.786 Y106.822 E3.50188
G1 X89.288 Y106.071 E3.53193
G1 X89.855 Y105.367 E3.56199
G1 X90.481 Y104.717 E3.59201
G1 X91.162 Y104.124 E3.62204
G1 X91.894 Y103.594 E3.6521
G1 X92.669 Y103.131 E3.68213
G1 X93.482 Y102.738 E3.71216
G1 X94.327 Y102.418 E3.74221
G1 X95.196 Y102.175 E3.77223
G1 X96.084 Y102.009 E3.80227
G1 X97.223 Y101.913 E3.84029
G1 X97.83 Y101.9 E3.86048
G1 X136.939 Y101.901 E5.16125
G1 X137.637 Y101.911 E5.18447
G0 F6000 X137.643 Y101.511
G1 F1200 X138.562 Y101.564 E5.21509
G1 X139.473 Y101.697 E5.24571
G1 X140.369 Y101.908 E5.27633
G1 X141.243 Y102.196 E5.30693
G1 X142.09 Y102.559 E5.33758
G1 X142.901 Y102.994 E5.36819
G1 X143.671 Y103.498 E5.3988
G1 X144.395 Y104.067 E5.42943
G1 X145.067 Y104.697 E5.46006
G1 X145.682 Y105.382 E5.49068
G1 X146.235 Y106.118 E5.5213
G1 X146.722 Y106.899 E5.55191
G1 X147.139 Y107.72 E5.58254
G1 X147.484 Y108.574 E5.61318
G1 X147.753 Y109.454 E5.64378
G1 X147.945 Y110.355 E5.67442
G1 X148.058 Y111.268 E5.70502
G1 X148.087 Y111.812 E5.72314
G1 X148.1 Y112.43 E5.7437
G1 X148.099 Y114.484 E5.81201
G1 X148.089 Y115.211 E5.8362
G1 X148.036 Y116.13 E5.86681
G1 X147.904 Y117.041 E5.89743
G1 X147.693 Y117.937 E5.92805
G1 X147.406 Y118.812 E5.95867
G1 X147.043 Y119.658 E5.98929
G1 X146.609 Y120.47 E6.01992
G1 X146.105 Y121.241 E6.05055
G1 X145.537 Y121.965 E6.08116
G1 X144.908 Y122.637 E6.11177
G1 X144.223 Y123.252 E6.14239
G1 X143.487 Y123.805 E6.17301
G1 X142.706 Y124.293 E6.20364
G1 X141.649 Y124.815 E6.24285
G1 X141.431 Y124.908 E6.25073
G1 X139.054 Y125.944 E6.33698
G1 X136.747 Y127.028 E6.42176
G1 X134.52 Y128.151 E6.50471
G1 X132.867 Y129.044 E6.5672
G1 X132.42 Y129.278 E6.58398
G1 X131.587 Y129.669 E6.61459
G1 X130.722 Y129.987 E6.64524
G1 X129.834 Y130.228 E6.67584
G1 X128.928 Y130.391 E6.70646
G1 X127.916 Y130.479 E6.74025
G1 X127.582 Y130.492 E6.75136
G1 X127.17 Y130.5 E6.76507
G1 X98.07 Y130.499 E7.73294
G1 X97.372 Y130.49 E7.75616
G1 X96.453 Y130.438 E7.78677
G1 X95.542 Y130.307 E7.81738
G1 X94.646 Y130.097 E7.84799
G1 X93.771 Y129.81 E7.87862
G1 X92.924 Y129.448 E7.90926
G1 X92.112 Y129.014 E7.93988
G1 X91.341 Y128.512 E7.97048
G1 X90.616 Y127.944 E8.00111
G1 X89.943 Y127.315 E8.03175
G1 X89.328 Y126.631 E8.06234
G1 X88.774 Y125.896 E8.09296
G1 X88.286 Y125.115 E8.12359
G1 X87.867 Y124.295 E8.15421
G1 X87.521 Y123.442 E8.18483
G1 X87.251 Y122.562 E8.21545
G1 X87.058 Y121.661 E8.24609
G1 X86.944 Y120.748 E8.2767
G1 X86.913 Y120.177 E8.29572
G1 X86.9 Y119.558 E8.31631
G1 X86.901 Y112.631 E8.5467
G1 X86.91 Y111.966 E8.56882
G1 X86.962 Y111.046 E8.59947
G1 X87.094 Y110.135 E8.63009
G1 X87.305 Y109.239 E8.6607
G1 X87.592 Y108.364 E8.69133
G1 X87.955 Y107.518 E8.72195
G1 X88.389 Y106.706 E8.75257
G1 X88.892 Y105.935 E8.78319
G1 X89.461 Y105.211 E8.81382
G1 X90.089 Y104.539 E8.84441
G1 X90.774 Y103.923 E8.87505
G1 X91.51 Y103.37 E8.90567
G1 X92.291 Y102.882 E8.9363
G1 X93.111 Y102.464 E8.96691
G1 X93.965 Y102.119 E8.99755
G1 X94.845 Y101.849 E9.02816
G1 X95.745 Y101.657 E9.05877
G1 X96.659 Y101.543 E9.0894
G1 X97.212 Y101.513 E9.10782
G1 X97.83 Y101.5 E9.12838
G1 X136.945 Y101.501 E10.42935
G1 X137.643 Y101.511 E10.45257
G0 F6000 X137.649 Y101.111
G1 F1200 X138.585 Y101.165 E10.48375
G1 X139.513 Y101.297 E10.51493
G1 X140.427 Y101.509 E10.54614
G1 X141.319 Y101.798 E10.57732
G1 X142.184 Y102.161 E10.60852
G1 X143.014 Y102.597 E10.63971
G1 X143.805 Y103.102 E10.67092
G1 X144.549 Y103.673 E10.70211
G1 X145.242 Y104.305 E10.73331
G1 X145.879 Y104.993 E10.76449
G1 X146.454 Y105.734 E10.79569
G1 X146.965 Y106.52 E10.82687
G1 X147.407 Y107.348 E10.85809
G1 X147.776 Y108.21 E10.88928
G1 X148.071 Y109.1 E10.92046
G1 X148.289 Y110.012 E10.95165
G1 X148.429 Y110.94 E10.98286
G1 X148.487 Y111.801 E11.01156
G1 X148.5 Y112.43 E11.03249
G1 X148.499 Y114.489 E11.10097
G1 X148.489 Y115.216 E11.12515
G1 X148.436 Y116.153 E11.15637
G1 X148.304 Y117.081 E11.18755
G1 X148.093 Y117.995 E11.21874
G1 X147.804 Y118.887 E11.24993
G1 X147.441 Y119.752 E11.28113
G1 X147.006 Y120.583 E11.31233
G1 X146.501 Y121.373 E11.34351
G1 X145.931 Y122.118 E11.37471
G1 X145.3 Y122.812 E11.40591
G1 X144.611 Y123.449 E11.43712
G1 X143.871 Y124.025 E11.46831
G1 X143.085 Y124.536 E11.49949
G1 X142.258 Y124.978 E11.53068
G1 X141.635 Y125.256 E11.55337
G1 X139.205 Y126.315 E11.64153
G1 X136.962 Y127.369 E11.72396
G1 X134.685 Y128.517 E11.80878
G1 X133.053 Y129.398 E11.87046
G1 X132.606 Y129.632 E11.88724
G1 X131.757 Y130.032 E11.91846
G1 X130.877 Y130.357 E11.94966
G1 X129.973 Y130.606 E11.98085
G1 X129.051 Y130.778 E12.01204
G1 X127.932 Y130.879 E12.04941
G1 X127.598 Y130.892 E12.06053
G1 X127.17 Y130.9 E12.07476
G1 X98.065 Y130.899 E13.0428
G1 X97.367 Y130.89 E13.06602
G1 X96.431 Y130.838 E13.0972
G1 X95.502 Y130.706 E13.12841
G1 X94.588 Y130.496 E13.1596
G1 X93.695 Y130.209 E13.1908
G1 X92.83 Y129.846 E13.222
G1 X91.999 Y129.412 E13.25318
G1 X91.208 Y128.908 E13.28437
G1 X90.463 Y128.338 E13.31557
G1 X89.769 Y127.707 E13.34677
G1 X89.132 Y127.02 E13.37793
G1 X88.555 Y126.28 E13.40914
G1 X88.043 Y125.494 E13.44034
G1 X87.6 Y124.667 E13.47155
G1 X87.229 Y123.806 E13.50273
G1 X86.933 Y122.916 E13.53392
G1 X86.714 Y122.004 E13.56512
G1 X86.573 Y121.077 E13.59631
G1 X86.513 Y120.188 E13.62594
G1 X86.5 Y119.558 E13.6469
G1 X86.501 Y112.625 E13.87749
G1 X86.51 Y111.96 E13.89961
G1 X86.563 Y111.024 E13.93079
G1 X86.695 Y110.095 E13.962
G1 X86.906 Y109.181 E13.9932
G1 X87.194 Y108.289 E14.02438
G1 X87.557 Y107.424 E14.05558
G1 X87.992 Y106.593 E14.08678
G1 X88.496 Y105.803 E14.11794
G1 X89.066 Y105.058 E14.14914
G1 X89.698 Y104.364 E14.18036
G1 X90.386 Y103.727 E14.21155
G1 X91.126 Y103.151 E14.24274
G1 X91.912 Y102.639 E14.27394
G1 X92.739 Y102.197 E14.30512
G1 X93.601 Y101.827 E14.33632
G1 X94.491 Y101.531 E14.36752
G1 X95.403 Y101.313 E14.39871
G1 X96.33 Y101.172 E14.42989
G1 X97.201 Y101.113 E14.45893
G1 X97.83 Y101.1 E14.47986
G1 X136.951 Y101.101 E15.78103
G1 X137.649 Y101.111 E15.80424
G1 F2700 E10.80424
;MESH:ethernet-hanger-v1.stl
G0 F6000 X137.086 Y111.435
G0 X137.086 Y112.514
G0 X136.718 Y114.318
G0 X107.072 Y114.672
G0 X107.071 Y117.274
G0 X107.646 Y117.339
G0 X127.072 Y117.328
G0 X126.9 Y119.3
;TYPE:WALL-INNER
G1 F2700 E15.80424
G1 F1200 X98.1 Y119.3 E16.76214
G1 X98.1 Y112.7 E16.98165
G1 X136.9 Y112.7 E18.27215
G1 X136.9 Y114.5 E18.33201
G1 X106.9 Y114.5 E19.32982
G1 X106.9 Y117.43 E19.42727
G1 X107.638 Y117.5 E19.45193
G1 X126.9 Y117.5 E20.09258
G1 X126.9 Y119.3 E20.15245
G0 F6000 X127.3 Y119.7
;TYPE:WALL-OUTER
G1 F1200 X97.7 Y119.7 E21.13695
G1 X97.7 Y112.3 E21.38308
G1 X137.3 Y112.3 E22.70018
G1 X137.3 Y114.894 E22.78645
G1 X137.239 Y114.9 E22.78849
G1 X107.3 Y114.9 E23.78427
G1 X107.3 Y117.066 E23.85631
G1 X107.657 Y117.1 E23.86824
G1 X127.3 Y117.1 E24.52157
G1 X127.3 Y119.7 E24.60804
G0 F6000 X127.03 Y119.43
G0 X126.79 Y118.91
G0 X126.51 Y118.91
;TYPE:SKIN
G1 F1200 X98.49 Y118.91 E25.53999
G1 X98.49 Y113.09 E25.73357
G1 X136.51 Y113.09 E26.99812
G1 X136.51 Y114.11 E27.03204
G1 X106.51 Y114.11 E28.02984
G1 X106.51 Y117.785 E28.15208
G1 X107.62 Y117.89 E28.18916
G1 X126.51 Y117.89 E28.81744
G1 X126.51 Y118.91 E28.85137
G1 F2700 E23.85137
G0 F6000 X126.79 Y118.91
G0 X127.072 Y117.328
G0 X107.646 Y117.339
G0 X107.071 Y117.274
G0 X107.072 Y114.672
G0 X136.718 Y114.318
G0 X136.79 Y113.721
G0 X136.349 Y113.721
G1 F2700 E28.85137
G1 F1200 X135.876 Y113.249 E28.87359
G0 F6000 X135.311 Y113.249
G1 F1200 X136.011 Y113.949 E28.90652
G0 F6000 X135.445 Y113.949
G1 F1200 X134.745 Y113.249 E28.93945
G0 F6000 X134.179 Y113.249
G1 F1200 X134.879 Y113.949 E28.97237
G0 F6000 X134.314 Y113.949
G1 F1200 X133.614 Y113.249 E29.0053
G0 F6000 X133.048 Y113.249
G1 F1200 X133.748 Y113.949 E29.03822
G0 F6000 X133.182 Y113.949
G1 F1200 X132.482 Y113.249 E29.07115
G0 F6000 X131.917 Y113.249
G1 F1200 X132.617 Y113.949 E29.10407
G0 F6000 X132.051 Y113.949
G1 F1200 X131.351 Y113.249 E29.137
G0 F6000 X130.785 Y113.249
G1 F1200 X131.485 Y113.949 E29.16993
G0 F6000 X130.92 Y113.949
G1 F1200 X130.22 Y113.249 E29.20285
G0 F6000 X129.654 Y113.249
G1 F1200 X130.354 Y113.949 E29.23578
G0 F6000 X129.788 Y113.949
G1 F1200 X129.088 Y113.249 E29.2687
G0 F6000 X128.523 Y113.249
G1 F1200 X129.223 Y113.949 E29.30163
G0 F6000 X128.657 Y113.949
G1 F1200 X127.957 Y113.249 E29.33456
G0 F6000 X127.391 Y113.249
G1 F1200 X128.091 Y113.949 E29.36748
G0 F6000 X127.526 Y113.949
G1 F1200 X126.825 Y113.249 E29.40043
G0 F6000 X126.26 Y113.249
G1 F1200 X126.96 Y113.949 E29.43336
G0 F6000 X126.394 Y113.949
G1 F1200 X125.694 Y113.249 E29.46628
G0 F6000 X125.128 Y113.249
G1 F1200 X125.828 Y113.949 E29.49921
G0 F6000 X125.263 Y113.949
G1 F1200 X124.563 Y113.249 E29.53213
G0 F6000 X123.997 Y113.249
G1 F1200 X124.697 Y113.949 E29.56506
G0 F6000 X124.131 Y113.949
G1 F1200 X123.431 Y113.249 E29.59799
G0 F6000 X122.866 Y113.249
G1 F1200 X123.566 Y113.949 E29.63091
G0 F6000 X123 Y113.949
G1 F1200 X122.3 Y113.249 E29.66384
G0 F6000 X121.734 Y113.249
G1 F1200 X122.434 Y113.949 E29.69676
G0 F6000 X121.869 Y113.949
G1 F1200 X121.169 Y113.249 E29.72969
G0 F6000 X120.603 Y113.249
G1 F1200 X121.303 Y113.949 E29.76262
G0 F6000 X120.737 Y113.949
G1 F1200 X120.037 Y113.249 E29.79554
G0 F6000 X119.472 Y113.249
G1 F1200 X120.172 Y113.949 E29.82847
G0 F6000 X119.606 Y113.949
G1 F1200 X118.906 Y113.249 E29.86139
G0 F6000 X118.34 Y113.249
G1 F1200 X119.04 Y113.949 E29.89432
G0 F6000 X118.475 Y113.949
G1 F1200 X117.774 Y113.249 E29.92727
G0 F6000 X117.209 Y113.249
G1 F1200 X117.909 Y113.949 E29.96019
G0 F6000 X117.343 Y113.949
G1 F1200 X116.643 Y113.249 E29.99312
G0 F6000 X116.077 Y113.249
G1 F1200 X116.777 Y113.949 E30.02605
G0 F6000 X116.212 Y113.949
G1 F1200 X115.512 Y113.249 E30.05897
G0 F6000 X114.946 Y113.249
G1 F1200 X115.646 Y113.949 E30.0919
G0 F6000 X115.08 Y113.949
G1 F1200 X114.38 Y113.249 E30.12482
G0 F6000 X113.815 Y113.249
G1 F1200 X114.515 Y113.949 E30.15775
G0 F6000 X113.949 Y113.949
G1 F1200 X113.249 Y113.249 E30.19067
G0 F6000 X112.683 Y113.249
G1 F1200 X113.383 Y113.949 E30.2236
G0 F6000 X112.818 Y113.949
G1 F1200 X112.118 Y113.249 E30.25653
G0 F6000 X111.552 Y113.249
G1 F1200 X112.252 Y113.949 E30.28945
G0 F6000 X111.686 Y113.949
G1 F1200 X110.986 Y113.249 E30.32238
G0 F6000 X110.421 Y113.249
G1 F1200 X111.121 Y113.949 E30.3553
G0 F6000 X110.555 Y113.949
G1 F1200 X109.855 Y113.249 E30.38823
G0 F6000 X109.289 Y113.249
G1 F1200 X109.989 Y113.949 E30.42116
G0 F6000 X109.424 Y113.949
G1 F1200 X108.724 Y113.249 E30.45408
G0 F6000 X108.158 Y113.249
G1 F1200 X108.858 Y113.949 E30.48701
G0 F6000 X108.292 Y113.949
G1 F1200 X107.592 Y113.249 E30.51993
G0 F6000 X107.026 Y113.249
G1 F1200 X107.727 Y113.949 E30.55288
G0 F6000 X107.161 Y113.949
G1 F1200 X106.461 Y113.249 E30.58581
G0 F6000 X105.895 Y113.249
G1 F1200 X106.595 Y113.949 E30.61873
G0 F6000 X106.349 Y114.269
G1 F1200 X105.329 Y113.249 E30.66671
G0 F6000 X104.764 Y113.249
G1 F1200 X106.349 Y114.834 E30.74127
G0 F6000 X106.349 Y115.4
G1 F1200 X104.198 Y113.249 E30.84244
G0 F6000 X103.632 Y113.249
G1 F1200 X106.349 Y115.966 E30.97024
G0 F6000 X106.349 Y116.531
G1 F1200 X103.067 Y113.249 E31.12462
G0 F6000 X102.501 Y113.249
G1 F1200 X106.349 Y117.097 E31.30561
G0 F6000 X106.349 Y117.663
G1 F1200 X101.935 Y113.249 E31.51324
G0 F6000 X101.37 Y113.249
G1 F1200 X106.869 Y118.749 E31.77192
G0 F6000 X106.304 Y118.749
G1 F1200 X100.804 Y113.249 E32.03062
G0 F6000 X100.238 Y113.249
G1 F1200 X105.738 Y118.749 E32.28932
G0 F6000 X105.172 Y118.749
G1 F1200 X99.673 Y113.249 E32.548
G0 F6000 X99.107 Y113.249
G1 F1200 X104.607 Y118.749 E32.8067
G0 F6000 X104.041 Y118.749
G1 F1200 X98.649 Y113.357 E33.06033
G0 F6000 X98.649 Y113.923
G1 F1200 X103.475 Y118.749 E33.28733
G0 F6000 X102.91 Y118.749
G1 F1200 X98.649 Y114.489 E33.48773
G0 F6000 X98.649 Y115.054
G1 F1200 X102.344 Y118.749 E33.66153
G0 F6000 X101.778 Y118.749
G1 F1200 X98.649 Y115.62 E33.80871
G0 F6000 X98.649 Y116.186
G1 F1200 X101.213 Y118.749 E33.92929
G0 F6000 X100.647 Y118.749
G1 F1200 X98.649 Y116.751 E34.02327
G0 F6000 X98.649 Y117.317
G1 F1200 X100.081 Y118.749 E34.09062
G0 F6000 X99.516 Y118.749
G1 F1200 X98.649 Y117.883 E34.13138
G0 F6000 X98.649 Y118.448
G1 F1200 X98.95 Y118.749 E34.14554
G1 F2700 E29.14554
G0 F6000 X98.95 Y119.19
G0 X126.718 Y119.118
G0 X126.718 Y117.682
G0 X106.763 Y117.554
G0 X106.643 Y117.957
G1 F2700 E34.14554
G1 F1200 X107.435 Y118.749 E34.18279
G0 F6000 X108.001 Y118.749
G1 F1200 X107.268 Y118.016 E34.21727
G0 F6000 X107.867 Y118.05
G1 F1200 X108.567 Y118.749 E34.25017
G0 F6000 X109.132 Y118.749
G1 F1200 X108.433 Y118.05 E34.28305
G0 F6000 X108.999 Y118.05
G1 F1200 X109.698 Y118.749 E34.31593
G0 F6000 X110.264 Y118.749
G1 F1200 X109.564 Y118.05 E34.34883
G0 F6000 X110.13 Y118.05
G1 F1200 X110.829 Y118.749 E34.38171
G0 F6000 X111.395 Y118.749
G1 F1200 X110.696 Y118.05 E34.41459
G0 F6000 X111.261 Y118.05
G1 F1200 X111.961 Y118.749 E34.44749
G0 F6000 X112.526 Y118.749
G1 F1200 X111.827 Y118.05 E34.48037
G0 F6000 X112.393 Y118.05
G1 F1200 X113.092 Y118.749 E34.51325
G0 F6000 X113.658 Y118.749
G1 F1200 X112.958 Y118.05 E34.54615
G0 F6000 X113.524 Y118.05
