;FLAVOR:Marlin
;TIME:8722
;Filament used: 5.99282m
;Layer height: 0.2
;MINX:97.7
;MINY:82.3
;MINZ:0.2
;MAXX:137.3
;MAXY:152.7
;MAXZ:12
;Generated with Cura_SteamEngine 4.6.2
M140 S70
M105
M190 S70
M104 S210
M105
M109 S210
M82 ;absolute extrusion mode
; Ender 3 Custom Start G-code
G92 E0 ; Reset Extruder
G28 ; Home all axes
G1 Z2.0 F3000 ; Move Z Axis up little to prevent scratching of Heat Bed
G1 X0.1 Y20 Z0.3 F5000.0 ; Move to start position
G1 X0.1 Y200.0 Z0.3 F1500.0 E15 ; Draw the first line
G1 X0.4 Y200.0 Z0.3 F5000.0 ; Move to side a little
G1 X0.4 Y20 Z0.3 F1500.0 E30 ; Draw the second line
G92 E0 ; Reset Extruder
G1 Z2.0 F3000 ; Move Z Axis up little to prevent scratching of Heat Bed
G1 X5 Y20 Z0.3 F5000.0 ; Move over to prevent blob squish
G92 E0
G92 E0
G1 F2700 E-5
;LAYER_COUNT:60
;LAYER:0
M107
;MESH:heaphone-hanger.stl
G0 F6000 X126.9 Y152.3 Z0.2
;TYPE:WALL-INNER
G1 F2700 E0
G1 F1200 X108.1 Y152.3 E0.62529
G1 X108.1 Y150.5 E0.68516
G1 X113.1 Y150.5 E0.85146
G1 X113.1 Y89.3 E2.88698
G1 X98.1 Y89.3 E3.38588
G1 X98.1 Y82.7 E3.6054
G1 X136.9 Y82.7 E4.89589
G1 X136.9 Y84.5 E4.95576
G1 X106.9 Y84.5 E5.95356
G1 X106.9 Y87.43 E6.05102
G1 X107.638 Y87.5 E6.07567
G1 X126.9 Y87.5 E6.71633
G1 X126.9 Y152.3 E8.87159
G0 F6000 X127.3 Y152.7
;TYPE:WALL-OUTER
G1 F1200 X107.7 Y152.7 E9.52348
G1 X107.7 Y150.1 E9.60996
G1 X112.7 Y150.1 E9.77626
G1 X112.7 Y89.7 E11.78517
G1 X97.7 Y89.7 E12.28408
G1 X97.7 Y82.3 E12.5302
G1 X137.3 Y82.3 E13.8473
G1 X137.3 Y84.894 E13.93358
G1 X137.239 Y84.9 E13.93562
G1 X107.3 Y84.9 E14.93139
G1 X107.3 Y87.066 E15.00343
G1 X107.657 Y87.1 E15.01536
G1 X127.3 Y87.1 E15.66869
G1 X127.3 Y152.7 E17.85056
G0 F6000 X127.03 Y152.43
G0 X126.79 Y151.91
G0 X126.51 Y151.91
;TYPE:SKIN
G1 F1200 X108.49 Y151.91 E18.4499
G1 X108.49 Y150.89 E18.48383
G1 X113.49 Y150.89 E18.65013
G1 X113.49 Y88.91 E20.71159
G1 X98.49 Y88.91 E21.21049
G1 X98.49 Y83.09 E21.40407
G1 X136.51 Y83.09 E22.66862
G1 X136.51 Y84.11 E22.70254
G1 X106.51 Y84.11 E23.70035
G1 X106.51 Y87.785 E23.82258
G1 X107.62 Y87.89 E23.85966
G1 X126.51 Y87.89 E24.48795
G1 X126.51 Y151.91 E26.61726
G0 F6000 X126.79 Y151.91
G0 X126.726 Y152.097
G0 X108.757 Y152.19
G0 X108.757 Y151.749
G1 F1200 X108.649 Y151.641 E26.62234
G0 F6000 X108.649 Y151.076
G1 F1200 X109.322 Y151.749 E26.654
G0 F6000 X109.888 Y151.749
G1 F1200 X109.188 Y151.049 E26.68692
G0 F6000 X109.754 Y151.049
G1 F1200 X110.454 Y151.749 E26.71985
G0 F6000 X111.02 Y151.749
G1 F1200 X110.319 Y151.049 E26.7528
G0 F6000 X110.885 Y151.049
G1 F1200 X111.585 Y151.749 E26.78572
G0 F6000 X112.151 Y151.749
G1 F1200 X111.451 Y151.049 E26.81865
G0 F6000 X112.017 Y151.049
G1 F1200 X112.717 Y151.749 E26.85157
G0 F6000 X113.282 Y151.749
G1 F1200 X112.582 Y151.049 E26.8845
G0 F6000 X113.148 Y151.049
G1 F1200 X113.848 Y151.749 E26.91743
G0 F6000 X114.414 Y151.749
G1 F1200 X113.649 Y150.984 E26.95341
G0 F6000 X113.649 Y150.419
G1 F1200 X114.979 Y151.749 E27.01597
G0 F6000 X115.545 Y151.749
G1 F1200 X113.649 Y149.853 E27.10515
G0 F6000 X113.649 Y149.287
G1 F1200 X116.111 Y151.749 E27.22096
G0 F6000 X116.676 Y151.749
G1 F1200 X113.649 Y148.722 E27.36334
G0 F6000 X113.649 Y148.156
G1 F1200 X117.242 Y151.749 E27.53234
G0 F6000 X117.808 Y151.749
G1 F1200 X113.649 Y147.59 E27.72797
G0 F6000 X113.649 Y147.025
G1 F1200 X118.373 Y151.749 E27.95017
G0 F6000 X118.939 Y151.749
G1 F1200 X113.649 Y146.459 E28.19899
G0 F6000 X113.649 Y145.893
G1 F1200 X119.505 Y151.749 E28.47444
G0 F6000 X120.07 Y151.749
G1 F1200 X113.649 Y145.328 E28.77647
G0 F6000 X113.649 Y144.762
G1 F1200 X120.636 Y151.749 E29.10511
G0 F6000 X121.202 Y151.749
G1 F1200 X113.649 Y144.196 E29.46038
G0 F6000 X113.649 Y143.631
G1 F1200 X121.768 Y151.749 E29.84225
G0 F6000 X122.333 Y151.749
G1 F1200 X113.649 Y143.065 E30.25072
G0 F6000 X113.649 Y142.499
G1 F1200 X122.899 Y151.749 E30.68581
G0 F6000 X123.465 Y151.749
G1 F1200 X113.649 Y141.934 E31.14751
G0 F6000 X113.649 Y141.368
G1 F1200 X124.03 Y151.749 E31.6358
G0 F6000 X124.596 Y151.749
G1 F1200 X113.649 Y140.802 E32.15071
G0 F6000 X113.649 Y140.236
G1 F1200 X125.162 Y151.749 E32.69225
G0 F6000 X125.727 Y151.749
G1 F1200 X113.649 Y139.671 E33.26036
G0 F6000 X113.649 Y139.105
G1 F1200 X126.293 Y151.749 E33.85509
G0 F6000 X126.35 Y151.24
G1 F1200 X113.649 Y138.539 E34.45251
G0 F6000 X113.649 Y137.974
G1 F1200 X126.35 Y150.674 E35.0499
G0 F6000 X126.35 Y150.108
G1 F1200 X113.649 Y137.408 E35.64729
G0 F6000 X113.649 Y136.842
G1 F1200 X126.35 Y149.543 E36.24471
G0 F6000 X126.35 Y148.977
G1 F1200 X113.649 Y136.277 E36.8421
G0 F6000 X113.649 Y135.711
G1 F1200 X126.35 Y148.411 E37.43949
G0 F6000 X126.35 Y147.846
G1 F1200 X113.649 Y135.145 E38.03691
G0 F6000 X113.649 Y134.58
G1 F1200 X126.35 Y147.28 E38.6343
G0 F6000 X126.35 Y146.714
G1 F1200 X113.649 Y134.014 E39.2317
G0 F6000 X113.649 Y133.448
G1 F1200 X126.35 Y146.149 E39.82911
G0 F6000 X126.35 Y145.583
G1 F1200 X113.649 Y132.883 E40.4265
G0 F6000 X113.649 Y132.317
G1 F1200 X126.35 Y145.017 E41.0239
G0 F6000 X126.35 Y144.452
G1 F1200 X113.649 Y131.751 E41.62131
G0 F6000 X113.649 Y131.185
G1 F1200 X126.35 Y143.886 E42.21873
G0 F6000 X126.35 Y143.32
G1 F1200 X113.649 Y130.62 E42.81612
G0 F6000 X113.649 Y130.054
G1 F1200 X126.35 Y142.754 E43.41351
G0 F6000 X126.35 Y142.189
G1 F1200 X113.649 Y129.488 E44.01093
G0 F6000 X113.649 Y128.923
G1 F1200 X126.35 Y141.623 E44.60832
G0 F6000 X126.35 Y141.057
G1 F1200 X113.649 Y128.357 E45.20572
G0 F6000 X113.649 Y127.791
G1 F1200 X126.35 Y140.492 E45.80313
G0 F6000 X126.35 Y139.926
G1 F1200 X113.649 Y127.226 E46.40052
G0 F6000 X113.649 Y126.66
G1 F1200 X126.35 Y139.36 E46.99792
G0 F6000 X126.35 Y138.795
G1 F1200 X113.649 Y126.094 E47.59533
G0 F6000 X113.649 Y125.529
G1 F1200 X126.35 Y138.229 E48.19273
G0 F6000 X126.35 Y137.663
G1 F1200 X113.649 Y124.963 E48.79012
G0 F6000 X113.649 Y124.397
G1 F1200 X126.35 Y137.098 E49.38753
G0 F6000 X126.35 Y136.532
G1 F1200 X113.649 Y123.832 E49.98493
G0 F6000 X113.649 Y123.266
G1 F1200 X126.35 Y135.966 E50.58232
G0 F6000 X126.35 Y135.401
G1 F1200 X113.649 Y122.7 E51.17974
G0 F6000 X113.649 Y122.135
G1 F1200 X126.35 Y134.835 E51.77713
G0 F6000 X126.35 Y134.269
G1 F1200 X113.649 Y121.569 E52.37452
G0 F6000 X113.649 Y121.003
G1 F1200 X126.35 Y133.703 E52.97191
G0 F6000 X126.35 Y133.138
G1 F1200 X113.649 Y120.437 E53.56933
G0 F6000 X113.649 Y119.871
G1 F1200 X126.35 Y132.572 E54.16675
G0 F6000 X126.35 Y132.006
G1 F1200 X113.649 Y119.305 E54.76416
G0 F6000 X113.649 Y118.74
G1 F1200 X126.35 Y131.441 E55.36158
G0 F6000 X126.35 Y130.875
G1 F1200 X113.649 Y118.174 E55.95899
G0 F6000 X113.649 Y117.608
G1 F1200 X126.35 Y130.309 E56.55641
G0 F6000 X126.35 Y129.744
G1 F1200 X113.649 Y117.043 E57.15383
G0 F6000 X113.649 Y116.477
G1 F1200 X126.35 Y129.178 E57.75124
G0 F6000 X126.35 Y128.612
G1 F1200 X113.649 Y115.911 E58.34866
G0 F6000 X113.649 Y115.346
G1 F1200 X126.35 Y128.047 E58.94607
G0 F6000 X126.35 Y127.481
G1 F1200 X113.649 Y114.78 E59.54349
G0 F6000 X113.649 Y114.214
G1 F1200 X126.35 Y126.915 E60.14091
G0 F6000 X126.35 Y126.35
G1 F1200 X113.649 Y113.649 E60.73832
G0 F6000 X113.649 Y113.083
G1 F1200 X126.35 Y125.784 E61.33574
G0 F6000 X126.35 Y125.218
G1 F1200 X113.649 Y112.517 E61.93316
G0 F6000 X113.649 Y111.951
G1 F1200 X126.35 Y124.653 E62.53059
G0 F6000 X126.35 Y124.087
G1 F1200 X113.649 Y111.386 E63.12801
G0 F6000 X113.649 Y110.82
G1 F1200 X126.35 Y123.521 E63.72543
G0 F6000 X126.35 Y122.955
G1 F1200 X113.649 Y110.254 E64.32284
G0 F6000 X113.649 Y109.689
G1 F1200 X126.35 Y122.39 E64.92026
G0 F6000 X126.35 Y121.824
G1 F1200 X113.649 Y109.123 E65.51768
G0 F6000 X113.649 Y108.557
G1 F1200 X126.35 Y121.258 E66.11509
G0 F6000 X126.35 Y120.693
G1 F1200 X113.649 Y107.992 E66.71251
G0 F6000 X113.649 Y107.426
G1 F1200 X126.35 Y120.127 E67.30992
G0 F6000 X126.35 Y119.561
G1 F1200 X113.649 Y106.86 E67.90734
G0 F6000 X113.649 Y106.295
G1 F1200 X126.35 Y118.996 E68.50476
G0 F6000 X126.35 Y118.43
G1 F1200 X113.649 Y105.729 E69.10217
G0 F6000 X113.649 Y105.163
G1 F1200 X126.35 Y117.864 E69.69959
G0 F6000 X126.35 Y117.299
G1 F1200 X113.649 Y104.598 E70.297
G0 F6000 X113.649 Y104.032
G1 F1200 X126.35 Y116.733 E70.89442
G0 F6000 X126.35 Y116.167
G1 F1200 X113.649 Y103.466 E71.49184
G0 F6000 X113.649 Y102.901
G1 F1200 X126.35 Y115.602 E72.08925
G0 F6000 X126.35 Y115.036
G1 F1200 X113.649 Y102.335 E72.68667
G0 F6000 X113.649 Y101.769
G1 F1200 X126.35 Y114.47 E73.28408
G0 F6000 X126.35 Y113.905
G1 F1200 X113.649 Y101.203 E73.88152
G0 F6000 X113.649 Y100.638
G1 F1200 X126.35 Y113.339 E74.47894
G0 F6000 X126.35 Y112.773
G1 F1200 X113.649 Y100.072 E75.07636
G0 F6000 X113.649 Y99.506
G1 F1200 X126.35 Y112.207 E75.67377
G0 F6000 X126.35 Y111.642
G1 F1200 X113.649 Y98.941 E76.27119
G0 F6000 X113.649 Y98.375
G1 F1200 X126.35 Y111.076 E76.8686
G0 F6000 X126.35 Y110.51
G1 F1200 X113.649 Y97.809 E77.46602
G0 F6000 X113.649 Y97.244
G1 F1200 X126.35 Y109.945 E78.06344
G0 F6000 X126.35 Y109.379
G1 F1200 X113.649 Y96.678 E78.66085
G0 F6000 X113.649 Y96.112
G1 F1200 X126.35 Y108.813 E79.25827
G0 F6000 X126.35 Y108.248
G1 F1200 X113.649 Y95.547 E79.85569
G0 F6000 X113.649 Y94.981
G1 F1200 X126.35 Y107.682 E80.4531
G0 F6000 X126.35 Y107.116
G1 F1200 X113.649 Y94.415 E81.05052
G0 F6000 X113.649 Y93.85
G1 F1200 X126.35 Y106.551 E81.64793
G0 F6000 X126.35 Y105.985
G1 F1200 X113.649 Y93.284 E82.24535
G0 F6000 X113.649 Y92.718
G1 F1200 X126.35 Y105.419 E82.84277
G0 F6000 X126.35 Y104.854
G1 F1200 X113.649 Y92.152 E83.44021
G0 F6000 X113.649 Y91.587
G1 F1200 X126.35 Y104.288 E84.03762
G0 F6000 X126.35 Y103.722
G1 F1200 X113.649 Y91.021 E84.63504
G0 F6000 X113.649 Y90.455
G1 F1200 X126.35 Y103.156 E85.23245
G0 F6000 X126.35 Y102.591
G1 F1200 X113.649 Y89.89 E85.82987
G0 F6000 X113.649 Y89.324
G1 F1200 X126.35 Y102.025 E86.42729
G0 F6000 X126.35 Y101.459
G1 F1200 X113.649 Y88.758 E87.0247
G0 F6000 X113.639 Y88.749
G1 F1200 X112.94 Y88.05 E87.05758
G0 F6000 X112.374 Y88.05
G1 F1200 X113.074 Y88.749 E87.09048
G0 F6000 X112.508 Y88.749
G1 F1200 X111.809 Y88.05 E87.12336
G0 F6000 X111.243 Y88.05
G1 F1200 X111.942 Y88.749 E87.15624
G0 F6000 X111.377 Y88.749
G1 F1200 X110.677 Y88.05 E87.18914
G0 F6000 X110.112 Y88.05
G1 F1200 X110.811 Y88.749 E87.22202
G0 F6000 X110.245 Y88.749
G1 F1200 X109.546 Y88.05 E87.2549
G0 F6000 X108.98 Y88.05
G1 F1200 X109.68 Y88.749 E87.2878
G0 F6000 X109.114 Y88.749
G1 F1200 X108.415 Y88.05 E87.32068
G0 F6000 X107.849 Y88.05
G1 F1200 X108.548 Y88.749 E87.35356
G0 F6000 X107.982 Y88.749
G1 F1200 X107.249 Y88.015 E87.38806
G0 F6000 X106.623 Y87.956
G1 F1200 X107.417 Y88.749 E87.42539
G0 F6000 X106.851 Y88.749
G1 F1200 X101.351 Y83.249 E87.68409
G0 F6000 X100.786 Y83.249
G1 F1200 X106.285 Y88.749 E87.94277
G0 F6000 X105.72 Y88.749
G1 F1200 X100.22 Y83.249 E88.20147
G0 F6000 X99.654 Y83.249
G1 F1200 X105.154 Y88.749 E88.46017
G0 F6000 X104.588 Y88.749
G1 F1200 X99.088 Y83.249 E88.71888
G0 F6000 X98.649 Y83.375
G1 F1200 X104.023 Y88.749 E88.97165
G0 F6000 X103.457 Y88.749
G1 F1200 X98.649 Y83.941 E89.19781
G0 F6000 X98.649 Y84.507
G1 F1200 X102.891 Y88.749 E89.39734
G0 F6000 X102.326 Y88.749
G1 F1200 X98.649 Y85.072 E89.57029
G0 F6000 X98.649 Y85.638
G1 F1200 X101.76 Y88.749 E89.71663
G0 F6000 X101.194 Y88.749
G1 F1200 X98.649 Y86.204 E89.83633
G0 F6000 X98.649 Y86.769
G1 F1200 X100.629 Y88.749 E89.92947
G0 F6000 X100.063 Y88.749
G1 F1200 X98.649 Y87.335 E89.99598
G0 F6000 X98.649 Y87.901
G1 F1200 X99.497 Y88.749 E90.03587
G0 F6000 X98.932 Y88.749
G1 F1200 X98.649 Y88.466 E90.04918
G0 F6000 X98.21 Y88.466
G0 X98.282 Y82.882
G0 X101.917 Y82.81
G0 X101.917 Y83.249
G1 F1200 X106.349 Y87.681 E90.25764
G0 F6000 X106.349 Y87.116
G1 F1200 X102.483 Y83.249 E90.43951
G0 F6000 X103.048 Y83.249
G1 F1200 X106.349 Y86.55 E90.59478
G0 F6000 X106.349 Y85.984
G1 F1200 X103.614 Y83.249 E90.72343
G0 F6000 X104.18 Y83.249
G1 F1200 X106.349 Y85.419 E90.82547
G0 F6000 X106.349 Y84.853
G1 F1200 X104.745 Y83.249 E90.90092
G0 F6000 X105.311 Y83.249
G1 F1200 X106.349 Y84.287 E90.94975
G0 F6000 X106.577 Y83.949
G1 F1200 X105.877 Y83.249 E90.98267
G0 F6000 X106.442 Y83.249
G1 F1200 X107.142 Y83.949 E91.0156
G0 F6000 X107.708 Y83.949
G1 F1200 X107.008 Y83.249 E91.04852
G0 F6000 X107.574 Y83.249
G1 F1200 X108.274 Y83.949 E91.08145
G0 F6000 X108.839 Y83.949
G1 F1200 X108.139 Y83.249 E91.11438
G0 F6000 X108.705 Y83.249
G1 F1200 X109.405 Y83.949 E91.1473
G0 F6000 X109.971 Y83.949
G1 F1200 X109.271 Y83.249 E91.18023
G0 F6000 X109.837 Y83.249
G1 F1200 X110.537 Y83.949 E91.21315
G0 F6000 X111.102 Y83.949
G1 F1200 X110.402 Y83.249 E91.24608
G0 F6000 X110.968 Y83.249
G1 F1200 X111.668 Y83.949 E91.279
G0 F6000 X112.234 Y83.949
G1 F1200 X111.534 Y83.249 E91.31193
G0 F6000 X112.099 Y83.249
G1 F1200 X112.799 Y83.949 E91.34486
G0 F6000 X113.365 Y83.949
G1 F1200 X112.665 Y83.249 E91.37778
G0 F6000 X113.231 Y83.249
G1 F1200 X113.931 Y83.949 E91.41071
G0 F6000 X114.496 Y83.949
G1 F1200 X113.796 Y83.249 E91.44363
G0 F6000 X114.362 Y83.249
G1 F1200 X115.062 Y83.949 E91.47656
G0 F6000 X115.628 Y83.949
G1 F1200 X114.928 Y83.249 E91.50949
G0 F6000 X115.493 Y83.249
G1 F1200 X116.193 Y83.949 E91.54241
G0 F6000 X116.759 Y83.949
G1 F1200 X116.059 Y83.249 E91.57534
G0 F6000 X116.625 Y83.249
G1 F1200 X117.325 Y83.949 E91.60826
G0 F6000 X117.89 Y83.949
G1 F1200 X117.19 Y83.249 E91.64119
G0 F6000 X117.756 Y83.249
G1 F1200 X118.456 Y83.949 E91.67411
G0 F6000 X119.022 Y83.949
G1 F1200 X118.322 Y83.249 E91.70704
G0 F6000 X118.887 Y83.249
G1 F1200 X119.588 Y83.949 E91.73999
G0 F6000 X120.153 Y83.949
G1 F1200 X119.453 Y83.249 E91.77292
G0 F6000 X120.019 Y83.249
G1 F1200 X120.719 Y83.949 E91.80584
G0 F6000 X121.285 Y83.949
G1 F1200 X120.585 Y83.249 E91.83877
G0 F6000 X121.15 Y83.249
G1 F1200 X121.85 Y83.949 E91.87169
G0 F6000 X122.416 Y83.949
G1 F1200 X121.716 Y83.249 E91.90462
G0 F6000 X122.282 Y83.249
G1 F1200 X122.982 Y83.949 E91.93754
G0 F6000 X123.547 Y83.949
G1 F1200 X122.847 Y83.249 E91.97047
G0 F6000 X123.413 Y83.249
G1 F1200 X124.113 Y83.949 E92.0034
G0 F6000 X124.679 Y83.949
G1 F1200 X123.979 Y83.249 E92.03632
G0 F6000 X124.544 Y83.249
G1 F1200 X125.244 Y83.949 E92.06925
G0 F6000 X125.81 Y83.949
G1 F1200 X125.11 Y83.249 E92.10217
G0 F6000 X125.676 Y83.249
G1 F1200 X126.376 Y83.949 E92.1351
G0 F6000 X126.941 Y83.949
G1 F1200 X126.241 Y83.249 E92.16803
G0 F6000 X126.807 Y83.249
G1 F1200 X127.507 Y83.949 E92.20095
G0 F6000 X128.073 Y83.949
G1 F1200 X127.373 Y83.249 E92.23388
G0 F6000 X127.938 Y83.249
G1 F1200 X128.638 Y83.949 E92.2668
G0 F6000 X129.204 Y83.949
G1 F1200 X128.504 Y83.249 E92.29973
G0 F6000 X129.07 Y83.249
G1 F1200 X129.77 Y83.949 E92.33266
G0 F6000 X130.336 Y83.949
G1 F1200 X129.636 Y83.249 E92.36558
G0 F6000 X130.201 Y83.249
G1 F1200 X130.901 Y83.949 E92.39851
G0 F6000 X131.467 Y83.949
G1 F1200 X130.767 Y83.249 E92.43143
G0 F6000 X131.333 Y83.249
G1 F1200 X132.033 Y83.949 E92.46436
G0 F6000 X132.598 Y83.949
G1 F1200 X131.898 Y83.249 E92.49728
G0 F6000 X132.464 Y83.249
G1 F1200 X133.164 Y83.949 E92.53021
G0 F6000 X133.73 Y83.949
G1 F1200 X133.03 Y83.249 E92.56314
G0 F6000 X133.595 Y83.249
G1 F1200 X134.295 Y83.949 E92.59606
G0 F6000 X134.861 Y83.949
G1 F1200 X134.161 Y83.249 E92.62899
G0 F6000 X134.727 Y83.249
G1 F1200 X135.427 Y83.949 E92.66191
G0 F6000 X135.992 Y83.949
G1 F1200 X135.292 Y83.249 E92.69484
G0 F6000 X135.858 Y83.249
G1 F1200 X136.349 Y83.74 E92.71793
G1 F2700 E87.71793
G0 F6000 X136.79 Y83.74
G0 X136.718 Y84.318
G0 X107.072 Y84.672
G0 X107.071 Y87.274
G0 X107.646 Y87.339
G0 X127.072 Y87.328
G0 X126.79 Y88.449
G0 X126.35 Y88.449
G1 F2700 E92.71793
G1 F1200 X125.951 Y88.05 E92.7367
G0 F6000 X125.385 Y88.05
G1 F1200 X126.35 Y89.014 E92.78207
G0 F6000 X126.35 Y89.58
G1 F1200 X124.819 Y88.05 E92.85406
G0 F6000 X124.254 Y88.05
G1 F1200 X126.35 Y90.146 E92.95265
G0 F6000 X126.35 Y90.711
G1 F1200 X123.688 Y88.05 E93.07784
G0 F6000 X123.122 Y88.05
G1 F1200 X126.35 Y91.277 E93.22965
G0 F6000 X126.35 Y91.843
G1 F1200 X122.557 Y88.05 E93.40806
G0 F6000 X121.991 Y88.05
G1 F1200 X126.35 Y92.408 E93.61307
G0 F6000 X126.35 Y92.974
G1 F1200 X121.425 Y88.05 E93.8447
G0 F6000 X120.86 Y88.05
G1 F1200 X126.35 Y93.54 E94.10294
