;FLAVOR:Marlin
;TIME:1043
;Filament used: 0.593815m
;Layer height: 0.2
;MINX:68.413
;MINY:91.1
;MINZ:0.2
;MAXX:166.587
;MAXY:143.9
;MAXZ:3
;Generated with Cura_SteamEngine 4.8.0
M140 S50
M105
M190 S50
M104 S200
M105
M109 S200
M82 ;absolute extrusion mode
; Ender 3 Custom Start G-code
G92 E0 ; Reset Extruder
G28 ; Home all axes
G1 Z2.0 F3000 ; Move Z Axis up little to prevent scratching of Heat Bed
G1 X0.1 Y20 Z0.3 F5000.0 ; Move to start position
G1 X0.1 Y200.0 Z0.3 F1500.0 E15 ; Draw the first line
G1 X0.4 Y200.0 Z0.3 F5000.0 ; Move to side a little
G1 X0.4 Y20 Z0.3 F1500.0 E30 ; Draw the second line
G92 E0 ; Reset Extruder
G1 Z2.0 F3000 ; Move Z Axis up little to prevent scratching of Heat Bed
G1 X5 Y20 Z0.3 F5000.0 ; Move over to prevent blob squish
G92 E0
G92 E0
G1 F2700 E-5
;LAYER_COUNT:15
;LAYER:0
M107
G0 F6000 X77.98 Y97.171 Z0.2
;TYPE:SKIRT
G1 F2700 E0
G1 F1200 X78.569 Y96.697 E0.02515
G1 X78.865 Y96.467 E0.03761
G1 X79.041 Y96.335 E0.04493
G1 X79.291 Y96.153 E0.05522
G1 X79.895 Y95.726 E0.07982
G1 X80.143 Y95.555 E0.08984
G1 X80.299 Y95.451 E0.09607
G1 X80.651 Y95.226 E0.10997
G1 X81.305 Y94.825 E0.13548
G1 X81.593 Y94.655 E0.14661
G1 X81.801 Y94.536 E0.15458
G1 X82.111 Y94.365 E0.16635
G1 X82.743 Y94.03 E0.19014
G1 X83.024 Y93.886 E0.20065
G1 X83.269 Y93.765 E0.20973
G1 X83.592 Y93.612 E0.22162
G1 X84.224 Y93.325 E0.24471
G1 X84.569 Y93.175 E0.25722
G1 X84.748 Y93.101 E0.26366
G1 X85.043 Y92.984 E0.27422
G1 X85.814 Y92.691 E0.30165
G1 X86.163 Y92.566 E0.31398
G1 X86.356 Y92.5 E0.32076
G1 X86.654 Y92.403 E0.33119
G1 X87.324 Y92.195 E0.35452
G1 X87.68 Y92.091 E0.36686
G1 X87.921 Y92.025 E0.37517
G1 X88.24 Y91.942 E0.38613
G1 X88.947 Y91.771 E0.41032
G1 X89.26 Y91.7 E0.421
G1 X89.511 Y91.647 E0.42953
G1 X89.884 Y91.575 E0.44217
G1 X90.597 Y91.45 E0.46624
G1 X90.91 Y91.4 E0.47678
G1 X91.102 Y91.372 E0.48324
G1 X91.462 Y91.326 E0.49531
G1 X92.237 Y91.239 E0.52125
G1 X92.571 Y91.206 E0.53241
G1 X92.792 Y91.188 E0.53979
G1 X93.156 Y91.165 E0.55192
G1 X93.862 Y91.131 E0.57542
G1 X94.224 Y91.119 E0.58747
G1 X95.573 Y91.1 E0.63234
G1 X139.598 Y91.101 E2.09662
G1 X140.881 Y91.121 E2.1393
G1 X141.188 Y91.13 E2.14951
G1 X141.487 Y91.143 E2.15947
G1 X141.852 Y91.165 E2.17163
G1 X142.594 Y91.222 E2.19638
G1 X142.982 Y91.259 E2.20935
G1 X143.204 Y91.284 E2.21678
G1 X143.509 Y91.323 E2.227
G1 X144.268 Y91.43 E2.2525
G1 X144.608 Y91.483 E2.26394
G1 X144.816 Y91.519 E2.27096
G1 X145.153 Y91.583 E2.28237
G1 X145.854 Y91.727 E2.30617
G1 X146.167 Y91.796 E2.31684
G1 X146.434 Y91.859 E2.32596
G1 X146.806 Y91.954 E2.33873
G1 X147.476 Y92.137 E2.36183
G1 X147.807 Y92.233 E2.37329
G1 X148.048 Y92.307 E2.38168
G1 X148.357 Y92.406 E2.39247
G1 X149.04 Y92.638 E2.41646
G1 X149.328 Y92.741 E2.42663
G1 X149.514 Y92.81 E2.43323
G1 X149.893 Y92.959 E2.44678
G1 X150.635 Y93.266 E2.47349
G1 X150.99 Y93.42 E2.48636
G1 X151.42 Y93.619 E2.50211
G1 X152.109 Y93.954 E2.5276
G1 X152.453 Y94.129 E2.54043
G1 X152.634 Y94.225 E2.54725
G1 X152.904 Y94.373 E2.55749
G1 X153.541 Y94.734 E2.58184
G1 X153.885 Y94.938 E2.59514
G1 X154.293 Y95.193 E2.61115
G1 X154.961 Y95.629 E2.63768
G1 X155.307 Y95.865 E2.65161
G1 X155.705 Y96.151 E2.66791
G1 X156.3 Y96.596 E2.69262
G1 X156.557 Y96.794 E2.70341
G1 X156.757 Y96.953 E2.71191
G1 X157.049 Y97.194 E2.7245
G1 X157.592 Y97.657 E2.74824
G1 X157.852 Y97.885 E2.75974
G1 X158.016 Y98.034 E2.76711
G1 X158.256 Y98.26 E2.77807
G1 X158.795 Y98.78 E2.80298
G1 X159.062 Y99.046 E2.81552
G1 X159.213 Y99.202 E2.82274
G1 X159.428 Y99.43 E2.83316
G1 X159.918 Y99.966 E2.85732
G1 X160.176 Y100.259 E2.8703
G1 X160.336 Y100.447 E2.87851
G1 X160.529 Y100.68 E2.88857
G1 X161.003 Y101.269 E2.91372
G1 X161.233 Y101.565 E2.92619
G1 X161.365 Y101.741 E2.93351
G1 X161.547 Y101.991 E2.94379
G1 X161.974 Y102.595 E2.96839
G1 X162.145 Y102.843 E2.97841
G1 X162.249 Y102.999 E2.98465
G1 X162.474 Y103.351 E2.99854
G1 X162.875 Y104.005 E3.02406
G1 X163.048 Y104.297 E3.03535
G1 X163.156 Y104.486 E3.04259
G1 X163.318 Y104.781 E3.05378
G1 X163.664 Y105.432 E3.0783
G1 X163.806 Y105.708 E3.08862
G1 X163.927 Y105.952 E3.09768
G1 X164.09 Y106.297 E3.11037
G1 X164.377 Y106.93 E3.13349
G1 X164.525 Y107.269 E3.14579
G1 X164.599 Y107.448 E3.15224
G1 X164.716 Y107.743 E3.16279
G1 X165.009 Y108.514 E3.19022
G1 X165.129 Y108.846 E3.20197
G1 X165.195 Y109.038 E3.20872
G1 X165.299 Y109.357 E3.21988
G1 X165.507 Y110.028 E3.24324
G1 X165.606 Y110.368 E3.25502
G1 X165.672 Y110.608 E3.2633
G1 X165.759 Y110.942 E3.27478
G1 X165.93 Y111.65 E3.299
G1 X166 Y111.96 E3.30957
G1 X166.053 Y112.211 E3.31811
G1 X166.125 Y112.584 E3.33074
G1 X166.25 Y113.297 E3.35482
G1 X166.299 Y113.601 E3.36506
G1 X166.327 Y113.792 E3.37148
G1 X166.375 Y114.162 E3.38389
G1 X166.462 Y114.938 E3.40986
G1 X166.493 Y115.267 E3.42085
G1 X166.511 Y115.487 E3.42819
G1 X166.535 Y115.852 E3.44036
G1 X166.571 Y116.596 E3.46513
G1 X166.583 Y116.949 E3.47688
G1 X166.587 Y117.195 E3.48507
G1 X166.587 Y117.536 E3.49641
G1 X166.577 Y118.213 E3.51893
G1 X166.568 Y118.52 E3.52914
G1 X166.557 Y118.778 E3.53773
G1 X166.535 Y119.152 E3.55019
G1 X166.478 Y119.894 E3.57494
G1 X166.441 Y120.282 E3.58791
G1 X166.416 Y120.504 E3.59534
G1 X166.377 Y120.809 E3.60556
G1 X166.27 Y121.568 E3.63106
G1 X166.217 Y121.908 E3.6425
G1 X166.181 Y122.116 E3.64952
G1 X166.117 Y122.453 E3.66093
G1 X165.973 Y123.154 E3.68474
G1 X165.904 Y123.467 E3.6954
G1 X165.841 Y123.734 E3.70452
G1 X165.746 Y124.106 E3.71729
G1 X165.563 Y124.776 E3.74039
G1 X165.467 Y125.107 E3.75185
G1 X165.393 Y125.348 E3.76024
G1 X165.294 Y125.657 E3.77103
G1 X165.062 Y126.34 E3.79502
G1 X164.896 Y126.799 E3.81126
G1 X164.742 Y127.193 E3.82533
G1 X164.434 Y127.937 E3.85211
G1 X164.28 Y128.29 E3.86492
G1 X164.081 Y128.72 E3.88068
G1 X163.746 Y129.409 E3.90616
G1 X163.581 Y129.733 E3.91825
G1 X163.486 Y129.913 E3.92502
G1 X163.325 Y130.207 E3.93617
G1 X162.963 Y130.845 E3.96057
G1 X162.771 Y131.171 E3.97315
G1 X162.682 Y131.316 E3.97881
G1 X162.522 Y131.569 E3.98877
G1 X162.08 Y132.247 E4.01569
G1 X161.859 Y132.573 E4.02878
G1 X161.74 Y132.742 E4.03566
G1 X161.555 Y132.997 E4.04614
G1 X161.104 Y133.6 E4.07118
G1 X160.906 Y133.857 E4.08197
G1 X160.747 Y134.057 E4.09047
G1 X160.506 Y134.349 E4.10306
G1 X160.043 Y134.892 E4.1268
G1 X159.815 Y135.152 E4.1383
G1 X159.666 Y135.316 E4.14567
G1 X159.44 Y135.556 E4.15663
G1 X158.92 Y136.095 E4.18154
G1 X158.676 Y136.341 E4.19307
G1 X158.527 Y136.486 E4.19998
G1 X158.274 Y136.725 E4.21156
G1 X157.731 Y137.221 E4.23602
G1 X157.441 Y137.476 E4.24886
G1 X157.253 Y137.636 E4.25707
G1 X157.02 Y137.829 E4.26714
G1 X156.431 Y138.303 E4.29228
G1 X156.135 Y138.533 E4.30475
G1 X155.959 Y138.665 E4.31207
G1 X155.709 Y138.847 E4.32235
G1 X155.105 Y139.274 E4.34696
G1 X154.857 Y139.445 E4.35697
G1 X154.701 Y139.549 E4.36321
G1 X154.349 Y139.774 E4.37711
G1 X153.695 Y140.175 E4.40262
G1 X153.407 Y140.345 E4.41374
G1 X153.199 Y140.464 E4.42171
G1 X152.889 Y140.635 E4.43349
G1 X152.257 Y140.97 E4.45728
G1 X151.976 Y141.114 E4.46778
G1 X151.731 Y141.235 E4.47687
G1 X151.408 Y141.388 E4.48876
G1 X150.776 Y141.675 E4.51184
G1 X150.431 Y141.825 E4.52436
G1 X150.252 Y141.899 E4.5308
G1 X149.957 Y142.016 E4.54135
G1 X149.186 Y142.309 E4.56879
G1 X148.837 Y142.434 E4.58112
G1 X148.644 Y142.5 E4.5879
G1 X148.346 Y142.597 E4.59832
G1 X147.676 Y142.805 E4.62166
G1 X147.32 Y142.909 E4.63399
G1 X147.079 Y142.975 E4.6423
G1 X146.76 Y143.058 E4.65327
G1 X146.053 Y143.229 E4.67746
G1 X145.74 Y143.3 E4.68814
G1 X145.489 Y143.353 E4.69667
G1 X145.116 Y143.425 E4.7093
G1 X144.403 Y143.55 E4.73338
G1 X144.09 Y143.6 E4.74392
G1 X143.898 Y143.628 E4.75038
G1 X143.538 Y143.674 E4.76245
G1 X142.763 Y143.761 E4.78838
G1 X142.429 Y143.794 E4.79955
G1 X142.208 Y143.812 E4.80692
G1 X141.844 Y143.835 E4.81905
G1 X141.138 Y143.869 E4.84256
G1 X140.776 Y143.881 E4.85461
G1 X139.427 Y143.9 E4.89948
G1 X95.402 Y143.899 E6.36376
G1 X94.119 Y143.879 E6.40644
G1 X93.812 Y143.87 E6.41665
G1 X93.513 Y143.857 E6.42661
G1 X93.148 Y143.835 E6.43877
G1 X92.406 Y143.778 E6.46352
G1 X92.018 Y143.741 E6.47648
G1 X91.796 Y143.716 E6.48391
G1 X91.491 Y143.677 E6.49414
G1 X90.732 Y143.57 E6.51963
G1 X90.392 Y143.517 E6.53108
G1 X90.184 Y143.481 E6.5381
G1 X89.847 Y143.417 E6.54951
G1 X89.146 Y143.273 E6.57331
G1 X88.833 Y143.204 E6.58397
G1 X88.566 Y143.141 E6.5931
G1 X88.194 Y143.046 E6.60587
G1 X87.524 Y142.863 E6.62897
G1 X87.193 Y142.767 E6.64043
G1 X86.952 Y142.693 E6.64881
G1 X86.643 Y142.594 E6.65961
G1 X85.957 Y142.361 E6.6837
G1 X85.481 Y142.188 E6.70055
G1 X85.107 Y142.041 E6.71391
G1 X84.365 Y141.734 E6.74062
G1 X84.01 Y141.58 E6.75349
G1 X83.58 Y141.381 E6.76925
G1 X82.891 Y141.046 E6.79473
G1 X82.547 Y140.871 E6.80757
G1 X82.366 Y140.775 E6.81438
G1 X82.096 Y140.627 E6.82463
G1 X81.459 Y140.266 E6.84898
G1 X81.115 Y140.062 E6.86228
G1 X80.707 Y139.807 E6.87828
G1 X80.039 Y139.371 E6.90481
G1 X79.683 Y139.128 E6.91915
G1 X79.296 Y138.85 E6.935
G1 X78.702 Y138.406 E6.95966
G1 X78.437 Y138.201 E6.97081
G1 X78.236 Y138.041 E6.97935
G1 X77.951 Y137.806 E6.99164
G1 X77.409 Y137.344 E7.01533
G1 X77.146 Y137.112 E7.02699
G1 X76.981 Y136.962 E7.03441
G1 X76.743 Y136.74 E7.04523
G1 X76.205 Y136.221 E7.0701
G1 X75.939 Y135.955 E7.08261
G1 X75.787 Y135.798 E7.08988
G1 X75.571 Y135.568 E7.10037
G1 X75.082 Y135.033 E7.12448
G1 X74.824 Y134.741 E7.13744
G1 X74.664 Y134.553 E7.14565
G1 X74.471 Y134.32 E7.15571
G1 X73.997 Y133.731 E7.18086
G1 X73.767 Y133.435 E7.19332
G1 X73.635 Y133.259 E7.20064
G1 X73.453 Y133.009 E7.21093
G1 X73.026 Y132.405 E7.23553
G1 X72.847 Y132.143 E7.24608
G1 X72.742 Y131.985 E7.25239
G1 X72.527 Y131.649 E7.26566
G1 X72.127 Y130.997 E7.2911
G1 X71.964 Y130.722 E7.30173
G1 X71.844 Y130.513 E7.30975
G1 X71.661 Y130.182 E7.32233
G1 X71.327 Y129.551 E7.34607
G1 X71.186 Y129.276 E7.35635
G1 X71.065 Y129.031 E7.36544
G1 X70.912 Y128.708 E7.37733
G1 X70.625 Y128.076 E7.40042
G1 X70.475 Y127.731 E7.41293
G1 X70.401 Y127.552 E7.41937
G1 X70.284 Y127.257 E7.42993
G1 X69.991 Y126.486 E7.45736
G1 X69.866 Y126.137 E7.46969
G1 X69.8 Y125.944 E7.47647
G1 X69.703 Y125.646 E7.4869
G1 X69.495 Y124.976 E7.51023
G1 X69.385 Y124.598 E7.52332
G1 X69.319 Y124.355 E7.5317
G1 X69.244 Y124.065 E7.54166
G1 X69.073 Y123.36 E7.56579
G1 X69 Y123.04 E7.57671
G1 X68.947 Y122.789 E7.58524
G1 X68.875 Y122.416 E7.59787
G1 X68.75 Y121.703 E7.62195
G1 X68.7 Y121.39 E7.63249
G1 X68.672 Y121.198 E7.63895
G1 X68.626 Y120.838 E7.65102
G1 X68.539 Y120.063 E7.67695
G1 X68.506 Y119.729 E7.68812
G1 X68.488 Y119.508 E7.69549
G1 X68.465 Y119.147 E7.70752
G1 X68.429 Y118.404 E7.73226
G1 X68.417 Y118.051 E7.74401
G1 X68.413 Y117.805 E7.7522
G1 X68.413 Y117.465 E7.7635
G1 X68.423 Y116.78 E7.78629
G1 X68.433 Y116.457 E7.79704
G1 X68.444 Y116.207 E7.80536
G1 X68.465 Y115.848 E7.81732
G1 X68.522 Y115.106 E7.84207
G1 X68.559 Y114.718 E7.85504
G1 X68.584 Y114.496 E7.86247
G1 X68.623 Y114.191 E7.87269
G1 X68.73 Y113.432 E7.89819
G1 X68.783 Y113.092 E7.90963
G1 X68.819 Y112.884 E7.91665
G1 X68.883 Y112.547 E7.92806
G1 X69.027 Y111.846 E7.95187
G1 X69.096 Y111.533 E7.96253
G1 X69.159 Y111.266 E7.97165
G1 X69.254 Y110.894 E7.98442
G1 X69.437 Y110.224 E8.00752
G1 X69.533 Y109.893 E8.01898
G1 X69.607 Y109.652 E8.02737
G1 X69.706 Y109.343 E8.03816
G1 X69.938 Y108.66 E8.06215
G1 X70.046 Y108.359 E8.07279
G1 X70.119 Y108.163 E8.07974
G1 X70.263 Y107.795 E8.09289
G1 X70.566 Y107.063 E8.11924
G1 X70.72 Y106.71 E8.13205
G1 X70.919 Y106.28 E8.14781
G1 X71.254 Y105.591 E8.17329
G1 X71.419 Y105.267 E8.18538
G1 X71.514 Y105.087 E8.19215
G1 X71.675 Y104.793 E8.2033
G1 X72.037 Y104.155 E8.2277
G1 X72.238 Y103.815 E8.24083
G1 X72.493 Y103.407 E8.25684
G1 X72.929 Y102.739 E8.28337
G1 X73.165 Y102.393 E8.2973
G1 X73.451 Y101.995 E8.3136
G1 X73.896 Y101.4 E8.33831
G1 X74.094 Y101.143 E8.3491
G1 X74.253 Y100.943 E8.3576
G1 X74.494 Y100.651 E8.37019
G1 X74.957 Y100.108 E8.39393
G1 X75.168 Y99.868 E8.40456
G1 X75.319 Y99.701 E8.41204
G1 X75.568 Y99.434 E8.42419
G1 X76.086 Y98.898 E8.44898
G1 X76.346 Y98.638 E8.46121
G1 X76.502 Y98.487 E8.46843
G1 X76.73 Y98.272 E8.47885
G1 X77.266 Y97.782 E8.50301
G1 X77.559 Y97.524 E8.51599
G1 X77.747 Y97.364 E8.5242
G1 X77.98 Y97.171 E8.53427
G0 F6000 X78.23 Y97.483
G1 F1200 X78.819 Y97.009 E8.55941
G1 X79.105 Y96.787 E8.57145
G1 X79.281 Y96.655 E8.57877
G1 X79.522 Y96.48 E8.58868
G1 X80.126 Y96.053 E8.61328
G1 X80.365 Y95.888 E8.62294
G1 X80.521 Y95.784 E8.62917
G1 X80.86 Y95.567 E8.64256
G1 X81.514 Y95.166 E8.66808
G1 X81.791 Y95.002 E8.67878
G1 X81.999 Y94.883 E8.68675
G1 X82.299 Y94.718 E8.69814
G1 X82.931 Y94.383 E8.72193
G1 X83.201 Y94.245 E8.73202
G1 X83.446 Y94.124 E8.74111
G1 X83.757 Y93.977 E8.75255
G1 X84.389 Y93.69 E8.77563
G1 X84.722 Y93.545 E8.78771
G1 X84.901 Y93.471 E8.79416
G1 X85.185 Y93.358 E8.80432
G1 X85.956 Y93.065 E8.83175
G1 X86.292 Y92.944 E8.84363
G1 X86.485 Y92.878 E8.85042
G1 X86.772 Y92.785 E8.86045
G1 X87.442 Y92.577 E8.88378
G1 X87.785 Y92.476 E8.89568
G1 X88.026 Y92.41 E8.90399
G1 X88.334 Y92.331 E8.91456
G1 X89.041 Y92.16 E8.93876
G1 X89.343 Y92.092 E8.94905
G1 X89.594 Y92.039 E8.95759
G1 X89.954 Y91.969 E8.96978
G1 X90.667 Y91.844 E8.99386
G1 X90.967 Y91.796 E9.00396
G1 X91.159 Y91.768 E9.01042
G1 X91.506 Y91.723 E9.02206
G1 X92.281 Y91.636 E9.04799
G1 X92.604 Y91.605 E9.05879
G1 X92.825 Y91.587 E9.06616
G1 X93.175 Y91.564 E9.07783
G1 X93.881 Y91.53 E9.10134
G1 X94.23 Y91.519 E9.11295
G1 X95.573 Y91.5 E9.15762
G1 X139.427 Y91.5 E10.61621
G1 X140.875 Y91.521 E10.66438
G1 X141.17 Y91.53 E10.67419
G1 X141.469 Y91.543 E10.68415
G1 X141.821 Y91.564 E10.69588
G1 X142.563 Y91.621 E10.72063
G1 X142.937 Y91.657 E10.73313
G1 X143.159 Y91.682 E10.74056
G1 X143.453 Y91.719 E10.75041
G1 X144.212 Y91.826 E10.77591
G1 X144.54 Y91.877 E10.78695
G1 X144.748 Y91.913 E10.79397
G1 X145.073 Y91.975 E10.80497
G1 X145.774 Y92.119 E10.82877
G1 X146.075 Y92.185 E10.83902
G1 X146.342 Y92.248 E10.84815
G1 X146.701 Y92.34 E10.86047
G1 X147.371 Y92.523 E10.88357
G1 X147.689 Y92.615 E10.89458
G1 X147.93 Y92.689 E10.90297
G1 X148.228 Y92.785 E10.91338
G1 X148.911 Y93.017 E10.93737
G1 X149.189 Y93.116 E10.94719
G1 X149.375 Y93.185 E10.95379
G1 X149.741 Y93.328 E10.96686
G1 X150.483 Y93.635 E10.99357
G1 X150.824 Y93.784 E11.00594
G1 X151.245 Y93.979 E11.02137
G1 X151.934 Y94.314 E11.04686
G1 X152.266 Y94.483 E11.05925
G1 X152.447 Y94.579 E11.06606
G1 X152.706 Y94.721 E11.07588
G1 X153.343 Y95.082 E11.10024
G1 X153.676 Y95.278 E11.11309
G1 X153.84 Y95.379 E11.11949
G1 X154.075 Y95.528 E11.12875
G1 X154.743 Y95.964 E11.15528
G1 X155.076 Y96.191 E11.16869
G1 X155.466 Y96.471 E11.18465
G1 X156.061 Y96.916 E11.20937
G1 X156.308 Y97.108 E11.21977
G1 X156.508 Y97.267 E11.22827
G1 X156.79 Y97.498 E11.24039
G1 X157.333 Y97.961 E11.26413
G1 X157.583 Y98.181 E11.2752
G1 X157.747 Y98.33 E11.28257
G1 X157.979 Y98.547 E11.29314
G1 X158.518 Y99.067 E11.31805
G1 X158.774 Y99.324 E11.33011
G1 X158.925 Y99.48 E11.33734
G1 X159.133 Y99.7 E11.34741
G1 X159.623 Y100.236 E11.37156
G1 X159.871 Y100.518 E11.38405
G1 X160.031 Y100.706 E11.39226
G1 X160.217 Y100.93 E11.40194
G1 X160.691 Y101.519 E11.42709
G1 X160.913 Y101.805 E11.43913
G1 X161.045 Y101.981 E11.44645
G1 X161.22 Y102.222 E11.45636
G1 X161.647 Y102.826 E11.48096
G1 X161.812 Y103.065 E11.49062
G1 X161.916 Y103.221 E11.49685
G1 X162.133 Y103.56 E11.51024
G1 X162.534 Y104.214 E11.53576
G1 X162.7 Y104.496 E11.54664
G1 X162.808 Y104.685 E11.55388
G1 X162.965 Y104.969 E11.56467
G1 X163.311 Y105.62 E11.58919
G1 X163.447 Y105.886 E11.59913
G1 X163.568 Y106.13 E11.60819
G1 X163.726 Y106.462 E11.62042
G1 X164.013 Y107.095 E11.64353
G1 X164.155 Y107.422 E11.65539
G1 X164.229 Y107.601 E11.66183
G1 X164.342 Y107.885 E11.672
G1 X164.635 Y108.656 E11.69943
G1 X164.75 Y108.976 E11.71074
G1 X164.816 Y109.168 E11.7175
G1 X164.917 Y109.475 E11.72824
G1 X165.125 Y110.146 E11.75161
G1 X165.221 Y110.474 E11.76298
G1 X165.287 Y110.714 E11.77126
G1 X165.37 Y111.036 E11.78232
G1 X165.541 Y111.744 E11.80654
G1 X165.608 Y112.043 E11.81673
G1 X165.661 Y112.294 E11.82526
G1 X165.731 Y112.654 E11.83746
G1 X165.856 Y113.367 E11.86154
G1 X165.903 Y113.66 E11.87141
